luts/corrections/neutral_normalize.cube
TITLE "AI Footage Neutral Normalize"
LUT_3D_SIZE 5
DOMAIN_MIN 0.0 0.0 0.0
DOMAIN_MAX 1.0 1.0 1.0
0.005000 0.005000 0.005000
0.255921 0.005000 0.005000
0.503409 0.005000 0.005000
0.749618 0.005000 0.005000
0.995000 0.005000 0.005000
0.005000 0.255921 0.005000
0.255921 0.255921 0.005000
0.503409 0.255921 0.005000
0.749618 0.255921 0.005000
0.995000 0.255921 0.005000
0.005000 0.503409 0.005000
0.255921 0.503409 0.005000
0.503409 0.503409 0.005000
0.749618 0.503409 0.005000
0.995000 0.503409 0.005000
0.005000 0.749618 0.005000
0.255921 0.749618 0.005000
0.503409 0.749618 0.005000
0.749618 0.749618 0.005000
0.995000 0.749618 0.005000
0.005000 0.995000 0.005000
0.255921 0.995000 0.005000
0.503409 0.995000 0.005000
0.749618 0.995000 0.005000
0.995000 0.995000 0.005000
0.005000 0.005000 0.255921
0.255921 0.005000 0.255921
0.503409 0.005000 0.255921
0.749618 0.005000 0.255921
0.995000 0.005000 0.255921
0.005000 0.255921 0.255921
0.255921 0.255921 0.255921
0.503409 0.255921 0.255921
0.749618 0.255921 0.255921
0.995000 0.255921 0.255921
0.005000 0.503409 0.255921
0.255921 0.503409 0.255921
0.503409 0.503409 0.255921
0.749618 0.503409 0.255921
0.995000 0.503409 0.255921
0.005000 0.749618 0.255921
0.255921 0.749618 0.255921
0.503409 0.749618 0.255921
0.749618 0.749618 0.255921
0.995000 0.749618 0.255921
0.005000 0.995000 0.255921
0.255921 0.995000 0.255921
0.503409 0.995000 0.255921
0.749618 0.995000 0.255921
0.995000 0.995000 0.255921
0.005000 0.005000 0.503409
0.255921 0.005000 0.503409
0.503409 0.005000 0.503409
0.749618 0.005000 0.503409
0.995000 0.005000 0.503409
0.005000 0.255921 0.503409
0.255921 0.255921 0.503409
0.503409 0.255921 0.503409
0.749618 0.255921 0.503409
0.995000 0.255921 0.503409
0.005000 0.503409 0.503409
0.255921 0.503409 0.503409
0.503409 0.503409 0.503409
0.749618 0.503409 0.503409
0.995000 0.503409 0.503409
0.005000 0.749618 0.503409
0.255921 0.749618 0.503409
0.503409 0.749618 0.503409
0.749618 0.749618 0.503409
0.995000 0.749618 0.503409
0.005000 0.995000 0.503409
0.255921 0.995000 0.503409
0.503409 0.995000 0.503409
0.749618 0.995000 0.503409
0.995000 0.995000 0.503409
0.005000 0.005000 0.749618
0.255921 0.005000 0.749618
0.503409 0.005000 0.749618
0.749618 0.005000 0.749618
0.995000 0.005000 0.749618
0.005000 0.255921 0.749618
0.255921 0.255921 0.749618
0.503409 0.255921 0.749618
0.749618 0.255921 0.749618
0.995000 0.255921 0.749618
0.005000 0.503409 0.749618
0.255921 0.503409 0.749618
0.503409 0.503409 0.749618
0.749618 0.503409 0.749618
0.995000 0.503409 0.749618
0.005000 0.749618 0.749618
0.255921 0.749618 0.749618
0.503409 0.749618 0.749618
0.749618 0.749618 0.749618
0.995000 0.749618 0.749618
0.005000 0.995000 0.749618
0.255921 0.995000 0.749618
0.503409 0.995000 0.749618
0.749618 0.995000 0.749618
0.995000 0.995000 0.749618
0.005000 0.005000 0.995000
0.255921 0.005000 0.995000
0.503409 0.005000 0.995000
0.749618 0.005000 0.995000
0.995000 0.005000 0.995000
0.005000 0.255921 0.995000
0.255921 0.255921 0.995000
0.503409 0.255921 0.995000
0.749618 0.255921 0.995000
0.995000 0.255921 0.995000
0.005000 0.503409 0.995000
0.255921 0.503409 0.995000
0.503409 0.503409 0.995000
0.749618 0.503409 0.995000
0.995000 0.503409 0.995000
0.005000 0.749618 0.995000
0.255921 0.749618 0.995000
0.503409 0.749618 0.995000
0.749618 0.749618 0.995000
0.995000 0.749618 0.995000
0.005000 0.995000 0.995000
0.255921 0.995000 0.995000
0.503409 0.995000 0.995000
0.749618 0.995000 0.995000
0.995000 0.995000 0.995000
