luts/corrections/neutral_normalize.cube
TITLE "AI Footage Neutral Normalize"
LUT_3D_SIZE 17
DOMAIN_MIN 0.0 0.0 0.0
DOMAIN_MAX 1.0 1.0 1.0
0.005000 0.005000 0.005000
0.068597 0.005000 0.005000
0.131324 0.005000 0.005000
0.193727 0.005000 0.005000
0.255921 0.005000 0.005000
0.317958 0.005000 0.005000
0.379873 0.005000 0.005000
0.441685 0.005000 0.005000
0.503409 0.005000 0.005000
0.565056 0.005000 0.005000
0.626636 0.005000 0.005000
0.688155 0.005000 0.005000
0.749618 0.005000 0.005000
0.811030 0.005000 0.005000
0.872396 0.005000 0.005000
0.933718 0.005000 0.005000
0.995000 0.005000 0.005000
0.005000 0.068597 0.005000
0.068597 0.068597 0.005000
0.131324 0.068597 0.005000
0.193727 0.068597 0.005000
0.255921 0.068597 0.005000
0.317958 0.068597 0.005000
0.379873 0.068597 0.005000
0.441685 0.068597 0.005000
0.503409 0.068597 0.005000
0.565056 0.068597 0.005000
0.626636 0.068597 0.005000
0.688155 0.068597 0.005000
0.749618 0.068597 0.005000
0.811030 0.068597 0.005000
0.872396 0.068597 0.005000
0.933718 0.068597 0.005000
0.995000 0.068597 0.005000
0.005000 0.131324 0.005000
0.068597 0.131324 0.005000
0.131324 0.131324 0.005000
0.193727 0.131324 0.005000
0.255921 0.131324 0.005000
0.317958 0.131324 0.005000
0.379873 0.131324 0.005000
0.441685 0.131324 0.005000
0.503409 0.131324 0.005000
0.565056 0.131324 0.005000
0.626636 0.131324 0.005000
0.688155 0.131324 0.005000
0.749618 0.131324 0.005000
0.811030 0.131324 0.005000
0.872396 0.131324 0.005000
0.933718 0.131324 0.005000
0.995000 0.131324 0.005000
0.005000 0.193727 0.005000
0.068597 0.193727 0.005000
0.131324 0.193727 0.005000
0.193727 0.193727 0.005000
0.255921 0.193727 0.005000
0.317958 0.193727 0.005000
0.379873 0.193727 0.005000
0.441685 0.193727 0.005000
0.503409 0.193727 0.005000
0.565056 0.193727 0.005000
0.626636 0.193727 0.005000
0.688155 0.193727 0.005000
0.749618 0.193727 0.005000
0.811030 0.193727 0.005000
0.872396 0.193727 0.005000
0.933718 0.193727 0.005000
0.995000 0.193727 0.005000
0.005000 0.255921 0.005000
0.068597 0.255921 0.005000
0.131324 0.255921 0.005000
0.193727 0.255921 0.005000
0.255921 0.255921 0.005000
0.317958 0.255921 0.005000
0.379873 0.255921 0.005000
0.441685 0.255921 0.005000
0.503409 0.255921 0.005000
0.565056 0.255921 0.005000
0.626636 0.255921 0.005000
0.688155 0.255921 0.005000
0.749618 0.255921 0.005000
0.811030 0.255921 0.005000
0.872396 0.255921 0.005000
0.933718 0.255921 0.005000
0.995000 0.255921 0.005000
0.005000 0.317958 0.005000
0.068597 0.317958 0.005000
0.131324 0.317958 0.005000
0.193727 0.317958 0.005000
0.255921 0.317958 0.005000
0.317958 0.317958 0.005000
0.379873 0.317958 0.005000
0.441685 0.317958 0.005000
0.503409 0.317958 0.005000
0.565056 0.317958 0.005000
0.626636 0.317958 0.005000
0.688155 0.317958 0.005000
0.749618 0.317958 0.005000
0.811030 0.317958 0.005000
0.872396 0.317958 0.005000
0.933718 0.317958 0.005000
0.995000 0.317958 0.005000
0.005000 0.379873 0.005000
0.068597 0.379873 0.005000
0.131324 0.379873 0.005000
0.193727 0.379873 0.005000
0.255921 0.379873 0.005000
0.317958 0.379873 0.005000
0.379873 0.379873 0.005000
0.441685 0.379873 0.005000
0.503409 0.379873 0.005000
0.565056 0.379873 0.005000
0.626636 0.379873 0.005000
0.688155 0.379873 0.005000
0.749618 0.379873 0.005000
0.811030 0.379873 0.005000
0.872396 0.379873 0.005000
0.933718 0.379873 0.005000
0.995000 0.379873 0.005000
0.005000 0.441685 0.005000
0.068597 0.441685 0.005000
0.131324 0.441685 0.005000
0.193727 0.441685 0.005000
0.255921 0.441685 0.005000
0.317958 0.441685 0.005000
0.379873 0.441685 0.005000
0.441685 0.441685 0.005000
0.503409 0.441685 0.005000
0.565056 0.441685 0.005000
0.626636 0.441685 0.005000
0.688155 0.441685 0.005000
0.749618 0.441685 0.005000
0.811030 0.441685 0.005000
0.872396 0.441685 0.005000
0.933718 0.441685 0.005000
0.995000 0.441685 0.005000
0.005000 0.503409 0.005000
0.068597 0.503409 0.005000
0.131324 0.503409 0.005000
0.193727 0.503409 0.005000
0.255921 0.503409 0.005000
0.317958 0.503409 0.005000
0.379873 0.503409 0.005000
0.441685 0.503409 0.005000
0.503409 0.503409 0.005000
0.565056 0.503409 0.005000
0.626636 0.503409 0.005000
0.688155 0.503409 0.005000
0.749618 0.503409 0.005000
0.811030 0.503409 0.005000
0.872396 0.503409 0.005000
0.933718 0.503409 0.005000
0.995000 0.503409 0.005000
0.005000 0.565056 0.005000
0.068597 0.565056 0.005000
0.131324 0.565056 0.005000
0.193727 0.565056 0.005000
0.255921 0.565056 0.005000
0.317958 0.565056 0.005000
0.379873 0.565056 0.005000
0.441685 0.565056 0.005000
0.503409 0.565056 0.005000
0.565056 0.565056 0.005000
0.626636 0.565056 0.005000
0.688155 0.565056 0.005000
0.749618 0.565056 0.005000
0.811030 0.565056 0.005000
0.872396 0.565056 0.005000
0.933718 0.565056 0.005000
0.995000 0.565056 0.005000
0.005000 0.626636 0.005000
0.068597 0.626636 0.005000
0.131324 0.626636 0.005000
0.193727 0.626636 0.005000
0.255921 0.626636 0.005000
0.317958 0.626636 0.005000
0.379873 0.626636 0.005000
0.441685 0.626636 0.005000
0.503409 0.626636 0.005000
0.565056 0.626636 0.005000
0.626636 0.626636 0.005000
0.688155 0.626636 0.005000
0.749618 0.626636 0.005000
0.811030 0.626636 0.005000
0.872396 0.626636 0.005000
0.933718 0.626636 0.005000
0.995000 0.626636 0.005000
0.005000 0.688155 0.005000
0.068597 0.688155 0.005000
0.131324 0.688155 0.005000
0.193727 0.688155 0.005000
0.255921 0.688155 0.005000
0.317958 0.688155 0.005000
0.379873 0.688155 0.005000
0.441685 0.688155 0.005000
0.503409 0.688155 0.005000
0.565056 0.688155 0.005000
0.626636 0.688155 0.005000
0.688155 0.688155 0.005000
0.749618 0.688155 0.005000
0.811030 0.688155 0.005000
0.872396 0.688155 0.005000
0.933718 0.688155 0.005000
0.995000 0.688155 0.005000
0.005000 0.749618 0.005000
0.068597 0.749618 0.005000
0.131324 0.749618 0.005000
0.193727 0.749618 0.005000
0.255921 0.749618 0.005000
0.317958 0.749618 0.005000
0.379873 0.749618 0.005000
0.441685 0.749618 0.005000
0.503409 0.749618 0.005000
0.565056 0.749618 0.005000
0.626636 0.749618 0.005000
0.688155 0.749618 0.005000
0.749618 0.749618 0.005000
0.811030 0.749618 0.005000
0.872396 0.749618 0.005000
0.933718 0.749618 0.005000
0.995000 0.749618 0.005000
0.005000 0.811030 0.005000
0.068597 0.811030 0.005000
0.131324 0.811030 0.005000
0.193727 0.811030 0.005000
0.255921 0.811030 0.005000
0.317958 0.811030 0.005000
0.379873 0.811030 0.005000
0.441685 0.811030 0.005000
0.503409 0.811030 0.005000
0.565056 0.811030 0.005000
0.626636 0.811030 0.005000
0.688155 0.811030 0.005000
0.749618 0.811030 0.005000
0.811030 0.811030 0.005000
0.872396 0.811030 0.005000
0.933718 0.811030 0.005000
0.995000 0.811030 0.005000
0.005000 0.872396 0.005000
0.068597 0.872396 0.005000
0.131324 0.872396 0.005000
0.193727 0.872396 0.005000
0.255921 0.872396 0.005000
0.317958 0.872396 0.005000
0.379873 0.872396 0.005000
0.441685 0.872396 0.005000
0.503409 0.872396 0.005000
0.565056 0.872396 0.005000
0.626636 0.872396 0.005000
0.688155 0.872396 0.005000
0.749618 0.872396 0.005000
0.811030 0.872396 0.005000
0.872396 0.872396 0.005000
0.933718 0.872396 0.005000
0.995000 0.872396 0.005000
0.005000 0.933718 0.005000
0.068597 0.933718 0.005000
0.131324 0.933718 0.005000
0.193727 0.933718 0.005000
0.255921 0.933718 0.005000
0.317958 0.933718 0.005000
0.379873 0.933718 0.005000
0.441685 0.933718 0.005000
0.503409 0.933718 0.005000
0.565056 0.933718 0.005000
0.626636 0.933718 0.005000
0.688155 0.933718 0.005000
0.749618 0.933718 0.005000
0.811030 0.933718 0.005000
0.872396 0.933718 0.005000
0.933718 0.933718 0.005000
0.995000 0.933718 0.005000
0.005000 0.995000 0.005000
0.068597 0.995000 0.005000
0.131324 0.995000 0.005000
0.193727 0.995000 0.005000
0.255921 0.995000 0.005000
0.317958 0.995000 0.005000
0.379873 0.995000 0.005000
0.441685 0.995000 0.005000
0.503409 0.995000 0.005000
0.565056 0.995000 0.005000
0.626636 0.995000 0.005000
0.688155 0.995000 0.005000
0.749618 0.995000 0.005000
0.811030 0.995000 0.005000
0.872396 0.995000 0.005000
0.933718 0.995000 0.005000
0.995000 0.995000 0.005000
0.005000 0.005000 0.068597
0.068597 0.005000 0.068597
0.131324 0.005000 0.068597
0.193727 0.005000 0.068597
0.255921 0.005000 0.068597
0.317958 0.005000 0.068597
0.379873 0.005000 0.068597
0.441685 0.005000 0.068597
0.503409 0.005000 0.068597
0.565056 0.005000 0.068597
0.626636 0.005000 0.068597
0.688155 0.005000 0.068597
0.749618 0.005000 0.068597
0.811030 0.005000 0.068597
0.872396 0.005000 0.068597
0.933718 0.005000 0.068597
0.995000 0.005000 0.068597
0.005000 0.068597 0.068597
0.068597 0.068597 0.068597
0.131324 0.068597 0.068597
0.193727 0.068597 0.068597
0.255921 0.068597 0.068597
0.317958 0.068597 0.068597
0.379873 0.068597 0.068597
0.441685 0.068597 0.068597
0.503409 0.068597 0.068597
0.565056 0.068597 0.068597
0.626636 0.068597 0.068597
0.688155 0.068597 0.068597
0.749618 0.068597 0.068597
0.811030 0.068597 0.068597
0.872396 0.068597 0.068597
0.933718 0.068597 0.068597
0.995000 0.068597 0.068597
0.005000 0.131324 0.068597
0.068597 0.131324 0.068597
0.131324 0.131324 0.068597
0.193727 0.131324 0.068597
0.255921 0.131324 0.068597
0.317958 0.131324 0.068597
0.379873 0.131324 0.068597
0.441685 0.131324 0.068597
0.503409 0.131324 0.068597
0.565056 0.131324 0.068597
0.626636 0.131324 0.068597
0.688155 0.131324 0.068597
0.749618 0.131324 0.068597
0.811030 0.131324 0.068597
0.872396 0.131324 0.068597
0.933718 0.131324 0.068597
0.995000 0.131324 0.068597
0.005000 0.193727 0.068597
0.068597 0.193727 0.068597
0.131324 0.193727 0.068597
0.193727 0.193727 0.068597
0.255921 0.193727 0.068597
0.317958 0.193727 0.068597
0.379873 0.193727 0.068597
0.441685 0.193727 0.068597
0.503409 0.193727 0.068597
0.565056 0.193727 0.068597
0.626636 0.193727 0.068597
0.688155 0.193727 0.068597
0.749618 0.193727 0.068597
0.811030 0.193727 0.068597
0.872396 0.193727 0.068597
0.933718 0.193727 0.068597
0.995000 0.193727 0.068597
0.005000 0.255921 0.068597
0.068597 0.255921 0.068597
0.131324 0.255921 0.068597
0.193727 0.255921 0.068597
0.255921 0.255921 0.068597
0.317958 0.255921 0.068597
0.379873 0.255921 0.068597
0.441685 0.255921 0.068597
0.503409 0.255921 0.068597
0.565056 0.255921 0.068597
0.626636 0.255921 0.068597
0.688155 0.255921 0.068597
0.749618 0.255921 0.068597
0.811030 0.255921 0.068597
0.872396 0.255921 0.068597
0.933718 0.255921 0.068597
0.995000 0.255921 0.068597
0.005000 0.317958 0.068597
0.068597 0.317958 0.068597
0.131324 0.317958 0.068597
0.193727 0.317958 0.068597
0.255921 0.317958 0.068597
0.317958 0.317958 0.068597
0.379873 0.317958 0.068597
0.441685 0.317958 0.068597
0.503409 0.317958 0.068597
0.565056 0.317958 0.068597
0.626636 0.317958 0.068597
0.688155 0.317958 0.068597
0.749618 0.317958 0.068597
0.811030 0.317958 0.068597
0.872396 0.317958 0.068597
0.933718 0.317958 0.068597
0.995000 0.317958 0.068597
0.005000 0.379873 0.068597
0.068597 0.379873 0.068597
0.131324 0.379873 0.068597
0.193727 0.379873 0.068597
0.255921 0.379873 0.068597
0.317958 0.379873 0.068597
0.379873 0.379873 0.068597
0.441685 0.379873 0.068597
0.503409 0.379873 0.068597
0.565056 0.379873 0.068597
0.626636 0.379873 0.068597
0.688155 0.379873 0.068597
0.749618 0.379873 0.068597
0.811030 0.379873 0.068597
0.872396 0.379873 0.068597
0.933718 0.379873 0.068597
0.995000 0.379873 0.068597
0.005000 0.441685 0.068597
0.068597 0.441685 0.068597
0.131324 0.441685 0.068597
0.193727 0.441685 0.068597
0.255921 0.441685 0.068597
0.317958 0.441685 0.068597
0.379873 0.441685 0.068597
0.441685 0.441685 0.068597
0.503409 0.441685 0.068597
0.565056 0.441685 0.068597
0.626636 0.441685 0.068597
0.688155 0.441685 0.068597
0.749618 0.441685 0.068597
0.811030 0.441685 0.068597
0.872396 0.441685 0.068597
0.933718 0.441685 0.068597
0.995000 0.441685 0.068597
0.005000 0.503409 0.068597
0.068597 0.503409 0.068597
0.131324 0.503409 0.068597
0.193727 0.503409 0.068597
0.255921 0.503409 0.068597
0.317958 0.503409 0.068597
0.379873 0.503409 0.068597
0.441685 0.503409 0.068597
0.503409 0.503409 0.068597
0.565056 0.503409 0.068597
0.626636 0.503409 0.068597
0.688155 0.503409 0.068597
0.749618 0.503409 0.068597
0.811030 0.503409 0.068597
0.872396 0.503409 0.068597
0.933718 0.503409 0.068597
0.995000 0.503409 0.068597
0.005000 0.565056 0.068597
0.068597 0.565056 0.068597
0.131324 0.565056 0.068597
0.193727 0.565056 0.068597
0.255921 0.565056 0.068597
0.317958 0.565056 0.068597
0.379873 0.565056 0.068597
0.441685 0.565056 0.068597
0.503409 0.565056 0.068597
0.565056 0.565056 0.068597
0.626636 0.565056 0.068597
0.688155 0.565056 0.068597
0.749618 0.565056 0.068597
0.811030 0.565056 0.068597
0.872396 0.565056 0.068597
0.933718 0.565056 0.068597
0.995000 0.565056 0.068597
0.005000 0.626636 0.068597
0.068597 0.626636 0.068597
0.131324 0.626636 0.068597
0.193727 0.626636 0.068597
0.255921 0.626636 0.068597
0.317958 0.626636 0.068597
0.379873 0.626636 0.068597
0.441685 0.626636 0.068597
0.503409 0.626636 0.068597
0.565056 0.626636 0.068597
0.626636 0.626636 0.068597
0.688155 0.626636 0.068597
0.749618 0.626636 0.068597
0.811030 0.626636 0.068597
0.872396 0.626636 0.068597
0.933718 0.626636 0.068597
0.995000 0.626636 0.068597
0.005000 0.688155 0.068597
0.068597 0.688155 0.068597
0.131324 0.688155 0.068597
0.193727 0.688155 0.068597
0.255921 0.688155 0.068597
0.317958 0.688155 0.068597
0.379873 0.688155 0.068597
0.441685 0.688155 0.068597
0.503409 0.688155 0.068597
0.565056 0.688155 0.068597
0.626636 0.688155 0.068597
0.688155 0.688155 0.068597
0.749618 0.688155 0.068597
0.811030 0.688155 0.068597
0.872396 0.688155 0.068597
0.933718 0.688155 0.068597
0.995000 0.688155 0.068597
0.005000 0.749618 0.068597
0.068597 0.749618 0.068597
0.131324 0.749618 0.068597
0.193727 0.749618 0.068597
0.255921 0.749618 0.068597
0.317958 0.749618 0.068597
0.379873 0.749618 0.068597
0.441685 0.749618 0.068597
0.503409 0.749618 0.068597
0.565056 0.749618 0.068597
0.626636 0.749618 0.068597
0.688155 0.749618 0.068597
0.749618 0.749618 0.068597
0.811030 0.749618 0.068597
0.872396 0.749618 0.068597
0.933718 0.749618 0.068597
0.995000 0.749618 0.068597
0.005000 0.811030 0.068597
0.068597 0.811030 0.068597
0.131324 0.811030 0.068597
0.193727 0.811030 0.068597
0.255921 0.811030 0.068597
0.317958 0.811030 0.068597
0.379873 0.811030 0.068597
0.441685 0.811030 0.068597
0.503409 0.811030 0.068597
0.565056 0.811030 0.068597
0.626636 0.811030 0.068597
0.688155 0.811030 0.068597
0.749618 0.811030 0.068597
0.811030 0.811030 0.068597
0.872396 0.811030 0.068597
0.933718 0.811030 0.068597
0.995000 0.811030 0.068597
0.005000 0.872396 0.068597
0.068597 0.872396 0.068597
0.131324 0.872396 0.068597
0.193727 0.872396 0.068597
0.255921 0.872396 0.068597
0.317958 0.872396 0.068597
0.379873 0.872396 0.068597
0.441685 0.872396 0.068597
0.503409 0.872396 0.068597
0.565056 0.872396 0.068597
0.626636 0.872396 0.068597
0.688155 0.872396 0.068597
0.749618 0.872396 0.068597
0.811030 0.872396 0.068597
0.872396 0.872396 0.068597
0.933718 0.872396 0.068597
0.995000 0.872396 0.068597
0.005000 0.933718 0.068597
0.068597 0.933718 0.068597
0.131324 0.933718 0.068597
0.193727 0.933718 0.068597
0.255921 0.933718 0.068597
0.317958 0.933718 0.068597
0.379873 0.933718 0.068597
0.441685 0.933718 0.068597
0.503409 0.933718 0.068597
0.565056 0.933718 0.068597
0.626636 0.933718 0.068597
0.688155 0.933718 0.068597
0.749618 0.933718 0.068597
0.811030 0.933718 0.068597
0.872396 0.933718 0.068597
0.933718 0.933718 0.068597
0.995000 0.933718 0.068597
0.005000 0.995000 0.068597
0.068597 0.995000 0.068597
0.131324 0.995000 0.068597
0.193727 0.995000 0.068597
0.255921 0.995000 0.068597
0.317958 0.995000 0.068597
0.379873 0.995000 0.068597
0.441685 0.995000 0.068597
0.503409 0.995000 0.068597
0.565056 0.995000 0.068597
0.626636 0.995000 0.068597
0.688155 0.995000 0.068597
0.749618 0.995000 0.068597
0.811030 0.995000 0.068597
0.872396 0.995000 0.068597
0.933718 0.995000 0.068597
0.995000 0.995000 0.068597
0.005000 0.005000 0.131324
0.068597 0.005000 0.131324
0.131324 0.005000 0.131324
0.193727 0.005000 0.131324
0.255921 0.005000 0.131324
0.317958 0.005000 0.131324
0.379873 0.005000 0.131324
0.441685 0.005000 0.131324
0.503409 0.005000 0.131324
0.565056 0.005000 0.131324
0.626636 0.005000 0.131324
0.688155 0.005000 0.131324
0.749618 0.005000 0.131324
0.811030 0.005000 0.131324
0.872396 0.005000 0.131324
0.933718 0.005000 0.131324
0.995000 0.005000 0.131324
0.005000 0.068597 0.131324
0.068597 0.068597 0.131324
0.131324 0.068597 0.131324
0.193727 0.068597 0.131324
0.255921 0.068597 0.131324
0.317958 0.068597 0.131324
0.379873 0.068597 0.131324
0.441685 0.068597 0.131324
0.503409 0.068597 0.131324
0.565056 0.068597 0.131324
0.626636 0.068597 0.131324
0.688155 0.068597 0.131324
0.749618 0.068597 0.131324
0.811030 0.068597 0.131324
0.872396 0.068597 0.131324
0.933718 0.068597 0.131324
0.995000 0.068597 0.131324
0.005000 0.131324 0.131324
0.068597 0.131324 0.131324
0.131324 0.131324 0.131324
0.193727 0.131324 0.131324
0.255921 0.131324 0.131324
0.317958 0.131324 0.131324
0.379873 0.131324 0.131324
0.441685 0.131324 0.131324
0.503409 0.131324 0.131324
0.565056 0.131324 0.131324
0.626636 0.131324 0.131324
0.688155 0.131324 0.131324
0.749618 0.131324 0.131324
0.811030 0.131324 0.131324
0.872396 0.131324 0.131324
0.933718 0.131324 0.131324
0.995000 0.131324 0.131324
0.005000 0.193727 0.131324
0.068597 0.193727 0.131324
0.131324 0.193727 0.131324
0.193727 0.193727 0.131324
0.255921 0.193727 0.131324
0.317958 0.193727 0.131324
0.379873 0.193727 0.131324
0.441685 0.193727 0.131324
0.503409 0.193727 0.131324
0.565056 0.193727 0.131324
0.626636 0.193727 0.131324
0.688155 0.193727 0.131324
0.749618 0.193727 0.131324
0.811030 0.193727 0.131324
0.872396 0.193727 0.131324
0.933718 0.193727 0.131324
0.995000 0.193727 0.131324
0.005000 0.255921 0.131324
0.068597 0.255921 0.131324
0.131324 0.255921 0.131324
0.193727 0.255921 0.131324
0.255921 0.255921 0.131324
0.317958 0.255921 0.131324
0.379873 0.255921 0.131324
0.441685 0.255921 0.131324
0.503409 0.255921 0.131324
0.565056 0.255921 0.131324
0.626636 0.255921 0.131324
0.688155 0.255921 0.131324
0.749618 0.255921 0.131324
0.811030 0.255921 0.131324
0.872396 0.255921 0.131324
0.933718 0.255921 0.131324
0.995000 0.255921 0.131324
0.005000 0.317958 0.131324
0.068597 0.317958 0.131324
0.131324 0.317958 0.131324
0.193727 0.317958 0.131324
0.255921 0.317958 0.131324
0.317958 0.317958 0.131324
0.379873 0.317958 0.131324
0.441685 0.317958 0.131324
0.503409 0.317958 0.131324
0.565056 0.317958 0.131324
0.626636 0.317958 0.131324
0.688155 0.317958 0.131324
0.749618 0.317958 0.131324
0.811030 0.317958 0.131324
0.872396 0.317958 0.131324
0.933718 0.317958 0.131324
0.995000 0.317958 0.131324
0.005000 0.379873 0.131324
0.068597 0.379873 0.131324
0.131324 0.379873 0.131324
0.193727 0.379873 0.131324
0.255921 0.379873 0.131324
0.317958 0.379873 0.131324
0.379873 0.379873 0.131324
0.441685 0.379873 0.131324
0.503409 0.379873 0.131324
0.565056 0.379873 0.131324
0.626636 0.379873 0.131324
0.688155 0.379873 0.131324
0.749618 0.379873 0.131324
0.811030 0.379873 0.131324
0.872396 0.379873 0.131324
0.933718 0.379873 0.131324
0.995000 0.379873 0.131324
0.005000 0.441685 0.131324
0.068597 0.441685 0.131324
0.131324 0.441685 0.131324
0.193727 0.441685 0.131324
0.255921 0.441685 0.131324
0.317958 0.441685 0.131324
0.379873 0.441685 0.131324
0.441685 0.441685 0.131324
0.503409 0.441685 0.131324
0.565056 0.441685 0.131324
0.626636 0.441685 0.131324
0.688155 0.441685 0.131324
0.749618 0.441685 0.131324
0.811030 0.441685 0.131324
0.872396 0.441685 0.131324
0.933718 0.441685 0.131324
0.995000 0.441685 0.131324
0.005000 0.503409 0.131324
0.068597 0.503409 0.131324
0.131324 0.503409 0.131324
0.193727 0.503409 0.131324
0.255921 0.503409 0.131324
0.317958 0.503409 0.131324
0.379873 0.503409 0.131324
0.441685 0.503409 0.131324
0.503409 0.503409 0.131324
0.565056 0.503409 0.131324
0.626636 0.503409 0.131324
0.688155 0.503409 0.131324
0.749618 0.503409 0.131324
0.811030 0.503409 0.131324
0.872396 0.503409 0.131324
0.933718 0.503409 0.131324
0.995000 0.503409 0.131324
0.005000 0.565056 0.131324
0.068597 0.565056 0.131324
0.131324 0.565056 0.131324
0.193727 0.565056 0.131324
0.255921 0.565056 0.131324
0.317958 0.565056 0.131324
0.379873 0.565056 0.131324
0.441685 0.565056 0.131324
0.503409 0.565056 0.131324
0.565056 0.565056 0.131324
0.626636 0.565056 0.131324
0.688155 0.565056 0.131324
0.749618 0.565056 0.131324
0.811030 0.565056 0.131324
0.872396 0.565056 0.131324
0.933718 0.565056 0.131324
0.995000 0.565056 0.131324
0.005000 0.626636 0.131324
0.068597 0.626636 0.131324
0.131324 0.626636 0.131324
0.193727 0.626636 0.131324
0.255921 0.626636 0.131324
0.317958 0.626636 0.131324
0.379873 0.626636 0.131324
0.441685 0.626636 0.131324
0.503409 0.626636 0.131324
0.565056 0.626636 0.131324
0.626636 0.626636 0.131324
0.688155 0.626636 0.131324
0.749618 0.626636 0.131324
0.811030 0.626636 0.131324
0.872396 0.626636 0.131324
0.933718 0.626636 0.131324
0.995000 0.626636 0.131324
0.005000 0.688155 0.131324
0.068597 0.688155 0.131324
0.131324 0.688155 0.131324
0.193727 0.688155 0.131324
0.255921 0.688155 0.131324
0.317958 0.688155 0.131324
0.379873 0.688155 0.131324
0.441685 0.688155 0.131324
0.503409 0.688155 0.131324
0.565056 0.688155 0.131324
0.626636 0.688155 0.131324
0.688155 0.688155 0.131324
0.749618 0.688155 0.131324
0.811030 0.688155 0.131324
0.872396 0.688155 0.131324
0.933718 0.688155 0.131324
0.995000 0.688155 0.131324
0.005000 0.749618 0.131324
0.068597 0.749618 0.131324
0.131324 0.749618 0.131324
0.193727 0.749618 0.131324
0.255921 0.749618 0.131324
0.317958 0.749618 0.131324
0.379873 0.749618 0.131324
0.441685 0.749618 0.131324
0.503409 0.749618 0.131324
0.565056 0.749618 0.131324
0.626636 0.749618 0.131324
0.688155 0.749618 0.131324
0.749618 0.749618 0.131324
0.811030 0.749618 0.131324
0.872396 0.749618 0.131324
0.933718 0.749618 0.131324
0.995000 0.749618 0.131324
0.005000 0.811030 0.131324
0.068597 0.811030 0.131324
0.131324 0.811030 0.131324
0.193727 0.811030 0.131324
0.255921 0.811030 0.131324
0.317958 0.811030 0.131324
0.379873 0.811030 0.131324
0.441685 0.811030 0.131324
0.503409 0.811030 0.131324
0.565056 0.811030 0.131324
0.626636 0.811030 0.131324
0.688155 0.811030 0.131324
0.749618 0.811030 0.131324
0.811030 0.811030 0.131324
0.872396 0.811030 0.131324
0.933718 0.811030 0.131324
0.995000 0.811030 0.131324
0.005000 0.872396 0.131324
0.068597 0.872396 0.131324
0.131324 0.872396 0.131324
0.193727 0.872396 0.131324
0.255921 0.872396 0.131324
0.317958 0.872396 0.131324
0.379873 0.872396 0.131324
0.441685 0.872396 0.131324
0.503409 0.872396 0.131324
0.565056 0.872396 0.131324
0.626636 0.872396 0.131324
0.688155 0.872396 0.131324
0.749618 0.872396 0.131324
0.811030 0.872396 0.131324
0.872396 0.872396 0.131324
0.933718 0.872396 0.131324
0.995000 0.872396 0.131324
0.005000 0.933718 0.131324
0.068597 0.933718 0.131324
0.131324 0.933718 0.131324
0.193727 0.933718 0.131324
0.255921 0.933718 0.131324
0.317958 0.933718 0.131324
0.379873 0.933718 0.131324
0.441685 0.933718 0.131324
0.503409 0.933718 0.131324
0.565056 0.933718 0.131324
0.626636 0.933718 0.131324
0.688155 0.933718 0.131324
0.749618 0.933718 0.131324
0.811030 0.933718 0.131324
0.872396 0.933718 0.131324
0.933718 0.933718 0.131324
0.995000 0.933718 0.131324
0.005000 0.995000 0.131324
0.068597 0.995000 0.131324
0.131324 0.995000 0.131324
0.193727 0.995000 0.131324
0.255921 0.995000 0.131324
0.317958 0.995000 0.131324
0.379873 0.995000 0.131324
0.441685 0.995000 0.131324
0.503409 0.995000 0.131324
0.565056 0.995000 0.131324
0.626636 0.995000 0.131324
0.688155 0.995000 0.131324
0.749618 0.995000 0.131324
0.811030 0.995000 0.131324
0.872396 0.995000 0.131324
0.933718 0.995000 0.131324
0.995000 0.995000 0.131324
0.005000 0.005000 0.193727
0.068597 0.005000 0.193727
0.131324 0.005000 0.193727
0.193727 0.005000 0.193727
0.255921 0.005000 0.193727
0.317958 0.005000 0.193727
0.379873 0.005000 0.193727
0.441685 0.005000 0.193727
0.503409 0.005000 0.193727
0.565056 0.005000 0.193727
0.626636 0.005000 0.193727
0.688155 0.005000 0.193727
0.749618 0.005000 0.193727
0.811030 0.005000 0.193727
0.872396 0.005000 0.193727
0.933718 0.005000 0.193727
0.995000 0.005000 0.193727
0.005000 0.068597 0.193727
