luts/corrections/neutral_normalize.cube
TITLE "AI Footage Neutral Normalize"
LUT_3D_SIZE 9
DOMAIN_MIN 0.0 0.0 0.0
DOMAIN_MAX 1.0 1.0 1.0
0.005000 0.005000 0.005000
0.131324 0.005000 0.005000
0.255921 0.005000 0.005000
0.379873 0.005000 0.005000
0.503409 0.005000 0.005000
0.626636 0.005000 0.005000
0.749618 0.005000 0.005000
0.872396 0.005000 0.005000
0.995000 0.005000 0.005000
0.005000 0.131324 0.005000
0.131324 0.131324 0.005000
0.255921 0.131324 0.005000
0.379873 0.131324 0.005000
0.503409 0.131324 0.005000
0.626636 0.131324 0.005000
0.749618 0.131324 0.005000
0.872396 0.131324 0.005000
0.995000 0.131324 0.005000
0.005000 0.255921 0.005000
0.131324 0.255921 0.005000
0.255921 0.255921 0.005000
0.379873 0.255921 0.005000
0.503409 0.255921 0.005000
0.626636 0.255921 0.005000
0.749618 0.255921 0.005000
0.872396 0.255921 0.005000
0.995000 0.255921 0.005000
0.005000 0.379873 0.005000
0.131324 0.379873 0.005000
0.255921 0.379873 0.005000
0.379873 0.379873 0.005000
0.503409 0.379873 0.005000
0.626636 0.379873 0.005000
0.749618 0.379873 0.005000
0.872396 0.379873 0.005000
0.995000 0.379873 0.005000
0.005000 0.503409 0.005000
0.131324 0.503409 0.005000
0.255921 0.503409 0.005000
0.379873 0.503409 0.005000
0.503409 0.503409 0.005000
0.626636 0.503409 0.005000
0.749618 0.503409 0.005000
0.872396 0.503409 0.005000
0.995000 0.503409 0.005000
0.005000 0.626636 0.005000
0.131324 0.626636 0.005000
0.255921 0.626636 0.005000
0.379873 0.626636 0.005000
0.503409 0.626636 0.005000
0.626636 0.626636 0.005000
0.749618 0.626636 0.005000
0.872396 0.626636 0.005000
0.995000 0.626636 0.005000
0.005000 0.749618 0.005000
0.131324 0.749618 0.005000
0.255921 0.749618 0.005000
0.379873 0.749618 0.005000
0.503409 0.749618 0.005000
0.626636 0.749618 0.005000
0.749618 0.749618 0.005000
0.872396 0.749618 0.005000
0.995000 0.749618 0.005000
0.005000 0.872396 0.005000
0.131324 0.872396 0.005000
0.255921 0.872396 0.005000
0.379873 0.872396 0.005000
0.503409 0.872396 0.005000
0.626636 0.872396 0.005000
0.749618 0.872396 0.005000
0.872396 0.872396 0.005000
0.995000 0.872396 0.005000
0.005000 0.995000 0.005000
0.131324 0.995000 0.005000
0.255921 0.995000 0.005000
0.379873 0.995000 0.005000
0.503409 0.995000 0.005000
0.626636 0.995000 0.005000
0.749618 0.995000 0.005000
0.872396 0.995000 0.005000
0.995000 0.995000 0.005000
0.005000 0.005000 0.131324
0.131324 0.005000 0.131324
0.255921 0.005000 0.131324
0.379873 0.005000 0.131324
0.503409 0.005000 0.131324
0.626636 0.005000 0.131324
0.749618 0.005000 0.131324
0.872396 0.005000 0.131324
0.995000 0.005000 0.131324
0.005000 0.131324 0.131324
0.131324 0.131324 0.131324
0.255921 0.131324 0.131324
0.379873 0.131324 0.131324
0.503409 0.131324 0.131324
0.626636 0.131324 0.131324
0.749618 0.131324 0.131324
0.872396 0.131324 0.131324
0.995000 0.131324 0.131324
0.005000 0.255921 0.131324
0.131324 0.255921 0.131324
0.255921 0.255921 0.131324
0.379873 0.255921 0.131324
0.503409 0.255921 0.131324
0.626636 0.255921 0.131324
0.749618 0.255921 0.131324
0.872396 0.255921 0.131324
0.995000 0.255921 0.131324
0.005000 0.379873 0.131324
0.131324 0.379873 0.131324
0.255921 0.379873 0.131324
0.379873 0.379873 0.131324
0.503409 0.379873 0.131324
0.626636 0.379873 0.131324
0.749618 0.379873 0.131324
0.872396 0.379873 0.131324
0.995000 0.379873 0.131324
0.005000 0.503409 0.131324
0.131324 0.503409 0.131324
0.255921 0.503409 0.131324
0.379873 0.503409 0.131324
0.503409 0.503409 0.131324
0.626636 0.503409 0.131324
0.749618 0.503409 0.131324
0.872396 0.503409 0.131324
0.995000 0.503409 0.131324
0.005000 0.626636 0.131324
0.131324 0.626636 0.131324
0.255921 0.626636 0.131324
0.379873 0.626636 0.131324
0.503409 0.626636 0.131324
0.626636 0.626636 0.131324
0.749618 0.626636 0.131324
0.872396 0.626636 0.131324
0.995000 0.626636 0.131324
0.005000 0.749618 0.131324
0.131324 0.749618 0.131324
0.255921 0.749618 0.131324
0.379873 0.749618 0.131324
0.503409 0.749618 0.131324
0.626636 0.749618 0.131324
0.749618 0.749618 0.131324
0.872396 0.749618 0.131324
0.995000 0.749618 0.131324
0.005000 0.872396 0.131324
0.131324 0.872396 0.131324
0.255921 0.872396 0.131324
0.379873 0.872396 0.131324
0.503409 0.872396 0.131324
0.626636 0.872396 0.131324
0.749618 0.872396 0.131324
0.872396 0.872396 0.131324
0.995000 0.872396 0.131324
0.005000 0.995000 0.131324
0.131324 0.995000 0.131324
0.255921 0.995000 0.131324
0.379873 0.995000 0.131324
0.503409 0.995000 0.131324
0.626636 0.995000 0.131324
0.749618 0.995000 0.131324
0.872396 0.995000 0.131324
0.995000 0.995000 0.131324
0.005000 0.005000 0.255921
0.131324 0.005000 0.255921
0.255921 0.005000 0.255921
0.379873 0.005000 0.255921
0.503409 0.005000 0.255921
0.626636 0.005000 0.255921
0.749618 0.005000 0.255921
0.872396 0.005000 0.255921
0.995000 0.005000 0.255921
0.005000 0.131324 0.255921
0.131324 0.131324 0.255921
0.255921 0.131324 0.255921
0.379873 0.131324 0.255921
0.503409 0.131324 0.255921
0.626636 0.131324 0.255921
0.749618 0.131324 0.255921
0.872396 0.131324 0.255921
0.995000 0.131324 0.255921
0.005000 0.255921 0.255921
0.131324 0.255921 0.255921
0.255921 0.255921 0.255921
0.379873 0.255921 0.255921
0.503409 0.255921 0.255921
0.626636 0.255921 0.255921
0.749618 0.255921 0.255921
0.872396 0.255921 0.255921
0.995000 0.255921 0.255921
0.005000 0.379873 0.255921
0.131324 0.379873 0.255921
0.255921 0.379873 0.255921
0.379873 0.379873 0.255921
0.503409 0.379873 0.255921
0.626636 0.379873 0.255921
0.749618 0.379873 0.255921
0.872396 0.379873 0.255921
0.995000 0.379873 0.255921
0.005000 0.503409 0.255921
0.131324 0.503409 0.255921
0.255921 0.503409 0.255921
0.379873 0.503409 0.255921
0.503409 0.503409 0.255921
0.626636 0.503409 0.255921
0.749618 0.503409 0.255921
0.872396 0.503409 0.255921
0.995000 0.503409 0.255921
0.005000 0.626636 0.255921
0.131324 0.626636 0.255921
0.255921 0.626636 0.255921
0.379873 0.626636 0.255921
0.503409 0.626636 0.255921
0.626636 0.626636 0.255921
0.749618 0.626636 0.255921
0.872396 0.626636 0.255921
0.995000 0.626636 0.255921
0.005000 0.749618 0.255921
0.131324 0.749618 0.255921
0.255921 0.749618 0.255921
0.379873 0.749618 0.255921
0.503409 0.749618 0.255921
0.626636 0.749618 0.255921
0.749618 0.749618 0.255921
0.872396 0.749618 0.255921
0.995000 0.749618 0.255921
0.005000 0.872396 0.255921
0.131324 0.872396 0.255921
0.255921 0.872396 0.255921
0.379873 0.872396 0.255921
0.503409 0.872396 0.255921
0.626636 0.872396 0.255921
0.749618 0.872396 0.255921
0.872396 0.872396 0.255921
0.995000 0.872396 0.255921
0.005000 0.995000 0.255921
0.131324 0.995000 0.255921
0.255921 0.995000 0.255921
0.379873 0.995000 0.255921
0.503409 0.995000 0.255921
0.626636 0.995000 0.255921
0.749618 0.995000 0.255921
0.872396 0.995000 0.255921
0.995000 0.995000 0.255921
0.005000 0.005000 0.379873
0.131324 0.005000 0.379873
0.255921 0.005000 0.379873
0.379873 0.005000 0.379873
0.503409 0.005000 0.379873
0.626636 0.005000 0.379873
0.749618 0.005000 0.379873
0.872396 0.005000 0.379873
0.995000 0.005000 0.379873
0.005000 0.131324 0.379873
0.131324 0.131324 0.379873
0.255921 0.131324 0.379873
0.379873 0.131324 0.379873
0.503409 0.131324 0.379873
0.626636 0.131324 0.379873
0.749618 0.131324 0.379873
0.872396 0.131324 0.379873
0.995000 0.131324 0.379873
0.005000 0.255921 0.379873
0.131324 0.255921 0.379873
0.255921 0.255921 0.379873
0.379873 0.255921 0.379873
0.503409 0.255921 0.379873
0.626636 0.255921 0.379873
0.749618 0.255921 0.379873
0.872396 0.255921 0.379873
0.995000 0.255921 0.379873
0.005000 0.379873 0.379873
0.131324 0.379873 0.379873
0.255921 0.379873 0.379873
0.379873 0.379873 0.379873
0.503409 0.379873 0.379873
0.626636 0.379873 0.379873
0.749618 0.379873 0.379873
0.872396 0.379873 0.379873
0.995000 0.379873 0.379873
0.005000 0.503409 0.379873
0.131324 0.503409 0.379873
0.255921 0.503409 0.379873
0.379873 0.503409 0.379873
0.503409 0.503409 0.379873
0.626636 0.503409 0.379873
0.749618 0.503409 0.379873
0.872396 0.503409 0.379873
0.995000 0.503409 0.379873
0.005000 0.626636 0.379873
0.131324 0.626636 0.379873
0.255921 0.626636 0.379873
0.379873 0.626636 0.379873
0.503409 0.626636 0.379873
0.626636 0.626636 0.379873
0.749618 0.626636 0.379873
0.872396 0.626636 0.379873
0.995000 0.626636 0.379873
0.005000 0.749618 0.379873
0.131324 0.749618 0.379873
0.255921 0.749618 0.379873
0.379873 0.749618 0.379873
0.503409 0.749618 0.379873
0.626636 0.749618 0.379873
0.749618 0.749618 0.379873
0.872396 0.749618 0.379873
0.995000 0.749618 0.379873
0.005000 0.872396 0.379873
0.131324 0.872396 0.379873
0.255921 0.872396 0.379873
0.379873 0.872396 0.379873
0.503409 0.872396 0.379873
0.626636 0.872396 0.379873
0.749618 0.872396 0.379873
0.872396 0.872396 0.379873
0.995000 0.872396 0.379873
0.005000 0.995000 0.379873
0.131324 0.995000 0.379873
0.255921 0.995000 0.379873
0.379873 0.995000 0.379873
0.503409 0.995000 0.379873
0.626636 0.995000 0.379873
0.749618 0.995000 0.379873
0.872396 0.995000 0.379873
0.995000 0.995000 0.379873
0.005000 0.005000 0.503409
0.131324 0.005000 0.503409
0.255921 0.005000 0.503409
0.379873 0.005000 0.503409
0.503409 0.005000 0.503409
0.626636 0.005000 0.503409
0.749618 0.005000 0.503409
0.872396 0.005000 0.503409
0.995000 0.005000 0.503409
0.005000 0.131324 0.503409
0.131324 0.131324 0.503409
0.255921 0.131324 0.503409
0.379873 0.131324 0.503409
0.503409 0.131324 0.503409
0.626636 0.131324 0.503409
0.749618 0.131324 0.503409
0.872396 0.131324 0.503409
0.995000 0.131324 0.503409
0.005000 0.255921 0.503409
0.131324 0.255921 0.503409
0.255921 0.255921 0.503409
0.379873 0.255921 0.503409
0.503409 0.255921 0.503409
0.626636 0.255921 0.503409
0.749618 0.255921 0.503409
0.872396 0.255921 0.503409
0.995000 0.255921 0.503409
0.005000 0.379873 0.503409
0.131324 0.379873 0.503409
0.255921 0.379873 0.503409
0.379873 0.379873 0.503409
0.503409 0.379873 0.503409
0.626636 0.379873 0.503409
0.749618 0.379873 0.503409
0.872396 0.379873 0.503409
0.995000 0.379873 0.503409
0.005000 0.503409 0.503409
0.131324 0.503409 0.503409
0.255921 0.503409 0.503409
0.379873 0.503409 0.503409
0.503409 0.503409 0.503409
0.626636 0.503409 0.503409
0.749618 0.503409 0.503409
0.872396 0.503409 0.503409
0.995000 0.503409 0.503409
0.005000 0.626636 0.503409
0.131324 0.626636 0.503409
0.255921 0.626636 0.503409
0.379873 0.626636 0.503409
0.503409 0.626636 0.503409
0.626636 0.626636 0.503409
0.749618 0.626636 0.503409
0.872396 0.626636 0.503409
0.995000 0.626636 0.503409
0.005000 0.749618 0.503409
0.131324 0.749618 0.503409
0.255921 0.749618 0.503409
0.379873 0.749618 0.503409
0.503409 0.749618 0.503409
0.626636 0.749618 0.503409
0.749618 0.749618 0.503409
0.872396 0.749618 0.503409
0.995000 0.749618 0.503409
0.005000 0.872396 0.503409
0.131324 0.872396 0.503409
0.255921 0.872396 0.503409
0.379873 0.872396 0.503409
0.503409 0.872396 0.503409
0.626636 0.872396 0.503409
0.749618 0.872396 0.503409
0.872396 0.872396 0.503409
0.995000 0.872396 0.503409
0.005000 0.995000 0.503409
0.131324 0.995000 0.503409
0.255921 0.995000 0.503409
0.379873 0.995000 0.503409
0.503409 0.995000 0.503409
0.626636 0.995000 0.503409
0.749618 0.995000 0.503409
0.872396 0.995000 0.503409
0.995000 0.995000 0.503409
0.005000 0.005000 0.626636
0.131324 0.005000 0.626636
0.255921 0.005000 0.626636
0.379873 0.005000 0.626636
0.503409 0.005000 0.626636
0.626636 0.005000 0.626636
0.749618 0.005000 0.626636
0.872396 0.005000 0.626636
0.995000 0.005000 0.626636
0.005000 0.131324 0.626636
0.131324 0.131324 0.626636
0.255921 0.131324 0.626636
0.379873 0.131324 0.626636
0.503409 0.131324 0.626636
0.626636 0.131324 0.626636
0.749618 0.131324 0.626636
0.872396 0.131324 0.626636
0.995000 0.131324 0.626636
0.005000 0.255921 0.626636
0.131324 0.255921 0.626636
0.255921 0.255921 0.626636
0.379873 0.255921 0.626636
0.503409 0.255921 0.626636
0.626636 0.255921 0.626636
0.749618 0.255921 0.626636
0.872396 0.255921 0.626636
0.995000 0.255921 0.626636
0.005000 0.379873 0.626636
0.131324 0.379873 0.626636
0.255921 0.379873 0.626636
0.379873 0.379873 0.626636
0.503409 0.379873 0.626636
0.626636 0.379873 0.626636
0.749618 0.379873 0.626636
0.872396 0.379873 0.626636
0.995000 0.379873 0.626636
0.005000 0.503409 0.626636
0.131324 0.503409 0.626636
0.255921 0.503409 0.626636
0.379873 0.503409 0.626636
0.503409 0.503409 0.626636
0.626636 0.503409 0.626636
0.749618 0.503409 0.626636
0.872396 0.503409 0.626636
0.995000 0.503409 0.626636
0.005000 0.626636 0.626636
0.131324 0.626636 0.626636
0.255921 0.626636 0.626636
0.379873 0.626636 0.626636
0.503409 0.626636 0.626636
0.626636 0.626636 0.626636
0.749618 0.626636 0.626636
0.872396 0.626636 0.626636
0.995000 0.626636 0.626636
0.005000 0.749618 0.626636
0.131324 0.749618 0.626636
0.255921 0.749618 0.626636
0.379873 0.749618 0.626636
0.503409 0.749618 0.626636
0.626636 0.749618 0.626636
0.749618 0.749618 0.626636
0.872396 0.749618 0.626636
0.995000 0.749618 0.626636
0.005000 0.872396 0.626636
0.131324 0.872396 0.626636
0.255921 0.872396 0.626636
0.379873 0.872396 0.626636
0.503409 0.872396 0.626636
0.626636 0.872396 0.626636
0.749618 0.872396 0.626636
0.872396 0.872396 0.626636
0.995000 0.872396 0.626636
0.005000 0.995000 0.626636
0.131324 0.995000 0.626636
0.255921 0.995000 0.626636
0.379873 0.995000 0.626636
0.503409 0.995000 0.626636
0.626636 0.995000 0.626636
0.749618 0.995000 0.626636
0.872396 0.995000 0.626636
0.995000 0.995000 0.626636
0.005000 0.005000 0.749618
0.131324 0.005000 0.749618
0.255921 0.005000 0.749618
0.379873 0.005000 0.749618
0.503409 0.005000 0.749618
0.626636 0.005000 0.749618
0.749618 0.005000 0.749618
0.872396 0.005000 0.749618
0.995000 0.005000 0.749618
0.005000 0.131324 0.749618
0.131324 0.131324 0.749618
0.255921 0.131324 0.749618
0.379873 0.131324 0.749618
0.503409 0.131324 0.749618
0.626636 0.131324 0.749618
0.749618 0.131324 0.749618
0.872396 0.131324 0.749618
0.995000 0.131324 0.749618
0.005000 0.255921 0.749618
0.131324 0.255921 0.749618
0.255921 0.255921 0.749618
0.379873 0.255921 0.749618
0.503409 0.255921 0.749618
0.626636 0.255921 0.749618
0.749618 0.255921 0.749618
0.872396 0.255921 0.749618
0.995000 0.255921 0.749618
0.005000 0.379873 0.749618
0.131324 0.379873 0.749618
0.255921 0.379873 0.749618
0.379873 0.379873 0.749618
0.503409 0.379873 0.749618
0.626636 0.379873 0.749618
0.749618 0.379873 0.749618
0.872396 0.379873 0.749618
0.995000 0.379873 0.749618
0.005000 0.503409 0.749618
0.131324 0.503409 0.749618
0.255921 0.503409 0.749618
0.379873 0.503409 0.749618
0.503409 0.503409 0.749618
0.626636 0.503409 0.749618
0.749618 0.503409 0.749618
0.872396 0.503409 0.749618
0.995000 0.503409 0.749618
0.005000 0.626636 0.749618
0.131324 0.626636 0.749618
0.255921 0.626636 0.749618
0.379873 0.626636 0.749618
0.503409 0.626636 0.749618
0.626636 0.626636 0.749618
0.749618 0.626636 0.749618
0.872396 0.626636 0.749618
0.995000 0.626636 0.749618
0.005000 0.749618 0.749618
0.131324 0.749618 0.749618
0.255921 0.749618 0.749618
0.379873 0.749618 0.749618
0.503409 0.749618 0.749618
0.626636 0.749618 0.749618
0.749618 0.749618 0.749618
0.872396 0.749618 0.749618
0.995000 0.749618 0.749618
0.005000 0.872396 0.749618
0.131324 0.872396 0.749618
0.255921 0.872396 0.749618
0.379873 0.872396 0.749618
0.503409 0.872396 0.749618
0.626636 0.872396 0.749618
0.749618 0.872396 0.749618
0.872396 0.872396 0.749618
0.995000 0.872396 0.749618
0.005000 0.995000 0.749618
0.131324 0.995000 0.749618
0.255921 0.995000 0.749618
0.379873 0.995000 0.749618
0.503409 0.995000 0.749618
0.626636 0.995000 0.749618
0.749618 0.995000 0.749618
0.872396 0.995000 0.749618
0.995000 0.995000 0.749618
0.005000 0.005000 0.872396
0.131324 0.005000 0.872396
0.255921 0.005000 0.872396
0.379873 0.005000 0.872396
0.503409 0.005000 0.872396
0.626636 0.005000 0.872396
0.749618 0.005000 0.872396
0.872396 0.005000 0.872396
0.995000 0.005000 0.872396
0.005000 0.131324 0.872396
0.131324 0.131324 0.872396
0.255921 0.131324 0.872396
0.379873 0.131324 0.872396
0.503409 0.131324 0.872396
0.626636 0.131324 0.872396
0.749618 0.131324 0.872396
0.872396 0.131324 0.872396
0.995000 0.131324 0.872396
0.005000 0.255921 0.872396
0.131324 0.255921 0.872396
0.255921 0.255921 0.872396
0.379873 0.255921 0.872396
0.503409 0.255921 0.872396
0.626636 0.255921 0.872396
0.749618 0.255921 0.872396
0.872396 0.255921 0.872396
0.995000 0.255921 0.872396
0.005000 0.379873 0.872396
0.131324 0.379873 0.872396
0.255921 0.379873 0.872396
0.379873 0.379873 0.872396
0.503409 0.379873 0.872396
0.626636 0.379873 0.872396
0.749618 0.379873 0.872396
0.872396 0.379873 0.872396
0.995000 0.379873 0.872396
0.005000 0.503409 0.872396
0.131324 0.503409 0.872396
0.255921 0.503409 0.872396
0.379873 0.503409 0.872396
0.503409 0.503409 0.872396
0.626636 0.503409 0.872396
0.749618 0.503409 0.872396
0.872396 0.503409 0.872396
0.995000 0.503409 0.872396
0.005000 0.626636 0.872396
0.131324 0.626636 0.872396
0.255921 0.626636 0.872396
0.379873 0.626636 0.872396
0.503409 0.626636 0.872396
0.626636 0.626636 0.872396
0.749618 0.626636 0.872396
0.872396 0.626636 0.872396
0.995000 0.626636 0.872396
0.005000 0.749618 0.872396
0.131324 0.749618 0.872396
0.255921 0.749618 0.872396
0.379873 0.749618 0.872396
0.503409 0.749618 0.872396
0.626636 0.749618 0.872396
0.749618 0.749618 0.872396
0.872396 0.749618 0.872396
0.995000 0.749618 0.872396
0.005000 0.872396 0.872396
0.131324 0.872396 0.872396
0.255921 0.872396 0.872396
0.379873 0.872396 0.872396
0.503409 0.872396 0.872396
0.626636 0.872396 0.872396
0.749618 0.872396 0.872396
0.872396 0.872396 0.872396
0.995000 0.872396 0.872396
0.005000 0.995000 0.872396
0.131324 0.995000 0.872396
0.255921 0.995000 0.872396
0.379873 0.995000 0.872396
0.503409 0.995000 0.872396
0.626636 0.995000 0.872396
0.749618 0.995000 0.872396
0.872396 0.995000 0.872396
0.995000 0.995000 0.872396
0.005000 0.005000 0.995000
0.131324 0.005000 0.995000
0.255921 0.005000 0.995000
0.379873 0.005000 0.995000
0.503409 0.005000 0.995000
0.626636 0.005000 0.995000
0.749618 0.005000 0.995000
0.872396 0.005000 0.995000
0.995000 0.005000 0.995000
0.005000 0.131324 0.995000
0.131324 0.131324 0.995000
0.255921 0.131324 0.995000
0.379873 0.131324 0.995000
0.503409 0.131324 0.995000
0.626636 0.131324 0.995000
0.749618 0.131324 0.995000
0.872396 0.131324 0.995000
0.995000 0.131324 0.995000
0.005000 0.255921 0.995000
0.131324 0.255921 0.995000
0.255921 0.255921 0.995000
0.379873 0.255921 0.995000
0.503409 0.255921 0.995000
0.626636 0.255921 0.995000
0.749618 0.255921 0.995000
0.872396 0.255921 0.995000
0.995000 0.255921 0.995000
0.005000 0.379873 0.995000
0.131324 0.379873 0.995000
0.255921 0.379873 0.995000
0.379873 0.379873 0.995000
0.503409 0.379873 0.995000
0.626636 0.379873 0.995000
0.749618 0.379873 0.995000
0.872396 0.379873 0.995000
0.995000 0.379873 0.995000
0.005000 0.503409 0.995000
0.131324 0.503409 0.995000
0.255921 0.503409 0.995000
0.379873 0.503409 0.995000
0.503409 0.503409 0.995000
0.626636 0.503409 0.995000
0.749618 0.503409 0.995000
0.872396 0.503409 0.995000
0.995000 0.503409 0.995000
0.005000 0.626636 0.995000
0.131324 0.626636 0.995000
0.255921 0.626636 0.995000
0.379873 0.626636 0.995000
0.503409 0.626636 0.995000
0.626636 0.626636 0.995000
0.749618 0.626636 0.995000
0.872396 0.626636 0.995000
0.995000 0.626636 0.995000
0.005000 0.749618 0.995000
0.131324 0.749618 0.995000
0.255921 0.749618 0.995000
0.379873 0.749618 0.995000
0.503409 0.749618 0.995000
0.626636 0.749618 0.995000
0.749618 0.749618 0.995000
0.872396 0.749618 0.995000
0.995000 0.749618 0.995000
0.005000 0.872396 0.995000
0.131324 0.872396 0.995000
0.255921 0.872396 0.995000
0.379873 0.872396 0.995000
0.503409 0.872396 0.995000
0.626636 0.872396 0.995000
0.749618 0.872396 0.995000
0.872396 0.872396 0.995000
0.995000 0.872396 0.995000
0.005000 0.995000 0.995000
0.131324 0.995000 0.995000
0.255921 0.995000 0.995000
0.379873 0.995000 0.995000
0.503409 0.995000 0.995000
0.626636 0.995000 0.995000
0.749618 0.995000 0.995000
0.872396 0.995000 0.995000
0.995000 0.995000 0.995000
