luts/creative/bleach_bypass.cube
TITLE "Bleach Bypass"
LUT_3D_SIZE 5
DOMAIN_MIN 0.0 0.0 0.0
DOMAIN_MAX 1.0 1.0 1.0
0.000000 0.000000 0.000000
0.184806 0.009920 0.009920
0.366724 0.051015 0.051015
0.533314 0.089231 0.089231
0.689702 0.125644 0.125644
0.102664 0.262656 0.102664
0.294449 0.294449 0.138557
0.466407 0.325678 0.173252
0.626604 0.356398 0.206983
0.778163 0.386655 0.239909
0.219057 0.505634 0.219057
0.397562 0.534005 0.251718
0.562067 0.562067 0.283718
0.716912 0.589837 0.315132
0.864215 0.617329 0.346020
0.326435 0.726524 0.326435
0.495926 0.752770 0.357144
0.654402 0.778797 0.387389
0.804612 0.804612 0.417209
0.948091 0.830221 0.446633
0.427966 0.932393 0.427966
0.590513 0.957045 0.457253
0.743881 0.980000 0.486180
0.889979 0.980000 0.514770
0.980000 0.980000 0.543040
0.000000 0.000000 0.162236
0.196257 0.024323 0.196257
0.376997 0.064241 0.229427
0.542881 0.101768 0.261870
0.698749 0.137694 0.293678
0.115007 0.273520 0.273520
0.305115 0.305115 0.305115
0.476233 0.336165 0.336165
0.635849 0.366724 0.366724
0.786955 0.396831 0.396831
0.230229 0.515304 0.377735
0.407687 0.543568 0.407687
0.571530 0.571530 0.437236
0.725879 0.599204 0.466407
0.872778 0.626604 0.495226
0.336918 0.735462 0.476939
0.505634 0.761633 0.505634
0.663558 0.787587 0.534005
0.813331 0.813331 0.562067
0.956444 0.838872 0.589837
0.437954 0.940785 0.572210
0.599878 0.965377 0.599878
0.752770 0.980000 0.627271
0.898476 0.980000 0.654402
0.980000 0.980000 0.681281
0.000000 0.000000 0.326260
0.207610 0.038231 0.356972
0.387220 0.077201 0.387220
0.552412 0.114124 0.417042
0.707770 0.149607 0.446468
0.127188 0.284314 0.427799
0.315718 0.315718 0.457089
0.486018 0.346596 0.486018
0.645064 0.376997 0.514609
0.795723 0.406960 0.542881
0.241317 0.524938 0.524938
0.417766 0.553097 0.553097
0.580960 0.580960 0.580960
0.734819 0.608539 0.608539
0.881319 0.635849 0.635849
0.347345 0.744375 0.618512
0.515304 0.770471 0.645726
0.672685 0.796353 0.672685
0.822028 0.822028 0.699400
0.964778 0.847501 0.725879
0.447898 0.949156 0.709067
0.609211 0.973690 0.735462
0.761633 0.980000 0.761633
0.906952 0.980000 0.787587
0.980000 0.980000 0.813331
0.010734 0.010734 0.476776
0.218871 0.051755 0.505473
0.397394 0.089930 0.533845
0.561910 0.126315 0.561910
0.716763 0.161392 0.589681
0.139220 0.295041 0.572053
0.326260 0.326260 0.599722
0.495765 0.356972 0.627117
0.654249 0.387220 0.654249
0.804466 0.417042 0.681130
0.252326 0.534535 0.664064
0.427799 0.562592 0.690856
0.590357 0.590357 0.717410
0.743733 0.617844 0.743733
0.889838 0.645064 0.769835
0.357717 0.753261 0.753261
0.524938 0.779284 0.779284
0.681785 0.805095 0.805095
0.830701 0.830701 0.830701
0.973092 0.856107 0.856107
0.457800 0.957507 0.839973
0.618512 0.980000 0.865308
0.770471 0.980000 0.890450
0.915407 0.980000 0.915407
0.980000 0.980000 0.940181
0.025105 0.025105 0.618358
0.230044 0.064966 0.645573
0.407520 0.102457 0.672534
0.571373 0.138358 0.699250
0.725730 0.173059 0.725730
0.151115 0.305704 0.708917
0.336745 0.336745 0.735314
0.505473 0.367294 0.761486
0.663406 0.397394 0.787441
0.813187 0.427078 0.813187
0.263259 0.544097 0.796838
0.437788 0.572053 0.822509
0.599722 0.599722 0.847978
0.752622 0.627117 0.873252
0.898335 0.654249 0.898335
0.368036 0.762123 0.882405
0.534535 0.788073 0.907421
0.690856 0.813814 0.932253
0.839351 0.839351 0.956907
0.980000 0.864690 0.980000
0.467661 0.965838 0.965838
0.627784 0.980000 0.980000
0.779284 0.980000 0.980000
0.923840 0.980000 0.980000
0.980000 0.980000 0.980000
