luts/creative/bleach_bypass.cube
TITLE "Bleach Bypass"
LUT_3D_SIZE 17
DOMAIN_MIN 0.0 0.0 0.0
DOMAIN_MAX 1.0 1.0 1.0
0.000000 0.000000 0.000000
0.027899 0.000000 0.000000
0.083698 0.000000 0.000000
0.135510 0.000000 0.000000
0.184806 0.009920 0.009920
0.232255 0.020576 0.020576
0.278238 0.030945 0.030945
0.323003 0.041079 0.041079
0.366724 0.051015 0.051015
0.409527 0.060779 0.060779
0.451510 0.070393 0.070393
0.492752 0.079872 0.079872
0.533314 0.089231 0.089231
0.573250 0.098479 0.098479
0.612602 0.107625 0.107625
0.651409 0.116678 0.116678
0.689702 0.125644 0.125644
0.002958 0.051681 0.002958
0.061435 0.061435 0.013837
0.114617 0.071039 0.024381
0.164838 0.080510 0.034660
0.212986 0.089861 0.044718
0.259535 0.099101 0.054588
0.304776 0.108241 0.064296
0.348907 0.117288 0.073859
0.392073 0.126248 0.083293
0.434383 0.135128 0.092610
0.475920 0.143931 0.101820
0.516754 0.152663 0.110932
0.556942 0.161327 0.119952
0.596528 0.169927 0.128888
0.635555 0.178466 0.137744
0.674055 0.186947 0.146526
0.712058 0.195372 0.155237
0.038345 0.126852 0.038345
0.093237 0.135726 0.048331
0.144525 0.144525 0.058140
0.193451 0.153252 0.067793
0.240613 0.161911 0.077308
0.286362 0.170507 0.086698
0.330929 0.179042 0.095975
0.374476 0.187519 0.105148
0.417125 0.195941 0.114226
0.458970 0.204310 0.123215
0.500086 0.212628 0.132121
0.540532 0.220897 0.140950
0.580360 0.229119 0.149705
0.619612 0.237295 0.158392
0.658324 0.245428 0.167013
0.696528 0.253519 0.175573
0.734250 0.261568 0.184073
0.071272 0.196509 0.071272
0.123821 0.204875 0.080740
0.173621 0.213189 0.090088
0.221455 0.221455 0.099326
0.267751 0.229674 0.108464
0.312779 0.237847 0.117508
0.356728 0.245977 0.126466
0.399733 0.254065 0.135344
0.441898 0.262112 0.144145
0.483305 0.270119 0.152875
0.524019 0.278088 0.161538
0.564095 0.286020 0.170136
0.603578 0.293915 0.178674
0.642508 0.301775 0.187154
0.680916 0.309601 0.195578
0.718833 0.317394 0.203949
0.756284 0.325153 0.212269
0.102664 0.262656 0.102664
0.153464 0.270660 0.111767
0.202040 0.278627 0.120779
0.248927 0.286556 0.129707
0.294449 0.294449 0.138557
0.338822 0.302307 0.147332
0.382200 0.310130 0.156037
0.424698 0.317920 0.164676
0.466407 0.325678 0.173252
0.507398 0.333404 0.181768
0.547730 0.341099 0.190227
0.587452 0.348763 0.198631
0.626604 0.356398 0.206983
0.665222 0.364004 0.215285
0.703338 0.371582 0.223539
0.740977 0.379132 0.231746
0.778163 0.386655 0.239909
0.132938 0.326202 0.132938
0.182342 0.333926 0.141760
0.229874 0.341619 0.150509
0.275925 0.349281 0.159189
0.320748 0.356914 0.167805
0.364519 0.364519 0.176359
0.407366 0.372094 0.184854
0.449389 0.379642 0.193293
0.490667 0.387163 0.201678
0.531263 0.394658 0.210012
0.571229 0.402126 0.218296
0.610610 0.409569 0.226532
0.649444 0.416986 0.234723
0.687762 0.424379 0.242870
0.725594 0.431747 0.250973
0.762963 0.439092 0.259036
0.799892 0.446413 0.267058
0.162333 0.387672 0.162333
0.210574 0.395164 0.170926
0.257196 0.402631 0.179458
0.302498 0.410072 0.187933
0.346682 0.417487 0.196352
0.389895 0.424879 0.204718
0.432246 0.432246 0.213033
0.473821 0.439589 0.221300
0.514689 0.446908 0.229520
0.554908 0.454205 0.237694
0.594525 0.461479 0.245825
0.633579 0.468731 0.253913
0.672105 0.475961 0.261961
0.710133 0.483169 0.269969
0.747689 0.490356 0.277939
0.784796 0.497522 0.285871
0.821474 0.504668 0.293767
0.191004 0.447403 0.191004
0.238246 0.454699 0.199403
0.284061 0.461971 0.207751
0.328683 0.469221 0.216048
0.372279 0.476450 0.224298
0.414972 0.483657 0.232501
0.456856 0.490842 0.240659
0.498007 0.498007 0.248774
0.538486 0.505151 0.256848
0.578345 0.512275 0.264881
0.617625 0.519378 0.272875
0.656364 0.526462 0.280831
0.694592 0.533527 0.288750
0.732339 0.540572 0.296633
0.769627 0.547598 0.304481
0.806479 0.554606 0.312295
0.842914 0.561594 0.320076
0.219057 0.505634 0.219057
0.265424 0.512757 0.227289
0.310512 0.519859 0.235476
0.354512 0.526941 0.243619
0.397562 0.534005 0.251718
0.439768 0.541048 0.259777
0.481212 0.548073 0.267796
0.521960 0.555079 0.275776
0.562067 0.562067 0.283718
0.601580 0.569037 0.291624
0.640537 0.575988 0.299494
0.678971 0.582921 0.307330
0.716912 0.589837 0.315132
0.754386 0.596736 0.322901
0.791415 0.603617 0.330638
0.828018 0.610481 0.338344
0.864215 0.617329 0.346020
0.246572 0.562540 0.246572
0.292158 0.569508 0.254657
0.336585 0.576458 0.262701
0.380011 0.583390 0.270705
0.422552 0.590305 0.278671
0.464299 0.597202 0.286600
0.505326 0.604083 0.294493
0.545690 0.610946 0.302351
0.585441 0.617792 0.310174
0.624622 0.624622 0.317964
0.663267 0.631435 0.325722
0.701407 0.638232 0.333447
0.739070 0.645013 0.341142
0.776278 0.651778 0.348806
0.813054 0.658527 0.356441
0.849416 0.665260 0.364047
0.885380 0.671979 0.371625
0.273610 0.618255 0.273610
0.318491 0.625084 0.281562
0.362311 0.631896 0.289478
0.405203 0.638692 0.297358
0.447266 0.645472 0.305203
0.488580 0.652235 0.313014
0.529209 0.658983 0.320792
0.569207 0.665716 0.328538
0.608617 0.672433 0.336252
0.647478 0.679135 0.343936
0.685821 0.685821 0.351589
0.723677 0.692493 0.359214
0.761069 0.699150 0.366809
0.798020 0.705792 0.374377
0.834549 0.712419 0.381916
0.870675 0.719032 0.389429
0.906413 0.725631 0.396916
0.300218 0.672887 0.300218
0.344455 0.679588 0.308051
0.387714 0.686274 0.315849
0.430107 0.692944 0.323616
0.471719 0.699600 0.331350
0.512623 0.706241 0.339053
0.552874 0.712868 0.346726
0.592520 0.719480 0.354369
0.631601 0.726077 0.361982
0.670154 0.732661 0.369567
0.708206 0.739230 0.377125
0.745786 0.745786 0.384655
0.782915 0.752327 0.392158
0.819615 0.758855 0.399635
0.855904 0.765370 0.407086
0.891799 0.771870 0.414512
0.927315 0.778358 0.421913
0.326435 0.726524 0.326435
0.370080 0.733106 0.334158
0.412816 0.739675 0.341850
0.454740 0.746229 0.349512
0.495926 0.752770 0.357144
0.536439 0.759297 0.364747
0.576327 0.765810 0.372322
0.615636 0.772310 0.379869
0.654402 0.778797 0.387389
0.692656 0.785270 0.394883
0.730426 0.791730 0.402350
0.767738 0.798177 0.409792
0.804612 0.804612 0.417209
0.841067 0.811033 0.424601
0.877122 0.817441 0.431969
0.912792 0.823837 0.439313
0.948091 0.830221 0.446633
0.352294 0.779236 0.352294
0.395389 0.785708 0.359915
0.437636 0.792167 0.367508
0.479117 0.798614 0.375073
0.519899 0.805047 0.382610
0.560038 0.811467 0.390121
0.599580 0.817875 0.397604
0.638564 0.824270 0.405063
0.677024 0.830653 0.412495
0.714990 0.837023 0.419903
0.752487 0.843380 0.427286
0.789538 0.849726 0.434645
0.826163 0.856059 0.441981
0.862380 0.862380 0.449293
0.898206 0.868689 0.456582
0.933655 0.874986 0.463849
0.968741 0.881271 0.471093
0.377820 0.831084 0.377820
0.420404 0.837454 0.385347
0.462190 0.843811 0.392848
0.503251 0.850155 0.400323
0.543648 0.856487 0.407771
0.583429 0.862808 0.415195
0.622638 0.869116 0.422594
0.661310 0.875412 0.429968
0.699475 0.881697 0.437318
0.737161 0.887969 0.444645
0.774392 0.894230 0.451949
0.811190 0.900480 0.459230
0.847572 0.906717 0.466489
0.883557 0.912944 0.473726
0.919159 0.919159 0.480941
0.954392 0.925362 0.488134
0.980000 0.931555 0.495307
0.403037 0.882122 0.403037
0.445141 0.888394 0.410477
0.486492 0.894654 0.417891
0.527154 0.900903 0.425281
0.567183 0.907140 0.432647
0.606622 0.913365 0.439989
0.645510 0.919579 0.447307
0.683879 0.925782 0.454603
0.721759 0.931974 0.461875
0.759174 0.938154 0.469126
0.796147 0.944324 0.476355
0.832697 0.950482 0.483562
0.868843 0.956629 0.490748
0.904600 0.962766 0.497913
0.939984 0.968891 0.505057
0.975006 0.975006 0.512181
0.980000 0.980000 0.519285
0.427966 0.932393 0.427966
0.469616 0.938572 0.435322
0.510554 0.944741 0.442656
0.550837 0.950899 0.449966
0.590513 0.957045 0.457253
0.629623 0.963181 0.464518
0.668201 0.969306 0.471760
0.706279 0.975420 0.478981
0.743881 0.980000 0.486180
0.781033 0.980000 0.493359
0.817755 0.980000 0.500516
0.854064 0.980000 0.507653
0.889979 0.980000 0.514770
0.925514 0.980000 0.521866
0.960683 0.980000 0.528943
0.980000 0.980000 0.536001
0.980000 0.980000 0.543040
0.000000 0.000000 0.021031
0.031388 0.000000 0.031388
0.086873 0.000000 0.041513
0.138507 0.002687 0.051441
0.187678 0.013576 0.061198
0.235031 0.024127 0.070806
0.280935 0.034411 0.080280
0.325634 0.044474 0.089633
0.369297 0.054349 0.098877
0.412048 0.064060 0.108019
0.453986 0.073627 0.117068
0.495185 0.083064 0.126030
0.535709 0.092383 0.134911
0.575609 0.101596 0.143716
0.614928 0.110710 0.152450
0.653703 0.119732 0.161116
0.691966 0.128670 0.169717
0.006696 0.055012 0.055012
0.064712 0.064712 0.064712
0.117678 0.074270 0.074270
0.167756 0.083698 0.083698
0.215799 0.093011 0.093011
0.262263 0.102216 0.102216
0.307433 0.111324 0.111324
0.351503 0.120340 0.120340
0.394615 0.129273 0.129273
0.436877 0.138126 0.138126
0.478371 0.146904 0.146904
0.519165 0.155613 0.155613
0.559315 0.164255 0.164255
0.598867 0.172833 0.172833
0.637861 0.181352 0.181352
0.676331 0.189814 0.189814
0.714306 0.198221 0.198221
0.041758 0.129875 0.087102
0.096374 0.138722 0.096374
0.147496 0.147496 0.105543
0.196304 0.156200 0.114617
0.243374 0.164838 0.123602
0.289047 0.173412 0.132505
0.333549 0.181927 0.141330
0.377040 0.190385 0.150082
0.419639 0.198789 0.158766
0.461438 0.207140 0.167385
0.502512 0.215441 0.175942
0.542920 0.223694 0.184440
0.582713 0.231900 0.192881
0.621932 0.240062 0.201269
0.660613 0.248180 0.209605
0.698787 0.256257 0.217892
0.736482 0.264293 0.226131
0.074502 0.199356 0.117898
0.126852 0.207704 0.126852
0.176519 0.216002 0.135726
0.224251 0.224251 0.144525
0.270465 0.232455 0.153252
0.315425 0.240613 0.161911
0.359314 0.248729 0.170507
0.402266 0.256802 0.179042
0.444384 0.264836 0.187519
0.485748 0.272830 0.195941
0.526422 0.280786 0.204310
0.566462 0.288705 0.212628
0.605911 0.296588 0.220897
0.644809 0.304437 0.229119
0.683188 0.312251 0.237295
0.721076 0.320033 0.245428
0.758499 0.327781 0.253519
0.105766 0.265378 0.147710
0.156412 0.273370 0.156412
0.204875 0.281324 0.165048
0.251673 0.289240 0.173621
0.297121 0.297121 0.182135
0.341431 0.304967 0.190592
0.384754 0.312779 0.198994
0.427203 0.320558 0.207344
0.468867 0.328305 0.215644
0.509818 0.336020 0.223895
0.550112 0.343705 0.232101
0.589798 0.351359 0.240261
0.628918 0.358985 0.248378
0.667506 0.366581 0.256454
0.705592 0.374149 0.264489
0.743203 0.381690 0.272485
0.780363 0.389203 0.280442
0.135942 0.328829 0.176728
0.185220 0.336542 0.185220
0.232655 0.344224 0.193657
0.278627 0.351877 0.202040
0.323382 0.359500 0.210371
0.367094 0.367094 0.218653
0.409890 0.374661 0.226888
0.451867 0.382200 0.235077
0.493102 0.389711 0.243221
0.533659 0.397197 0.251323
0.573590 0.404656 0.259384
0.612938 0.412090 0.267404
0.651740 0.419499 0.275386
0.690028 0.426884 0.283330
0.727831 0.434244 0.291238
0.765174 0.441581 0.299110
0.802077 0.448894 0.306947
0.165258 0.390219 0.205079
0.213392 0.397703 0.213392
0.259928 0.405161 0.221657
0.305159 0.412593 0.229874
0.349281 0.420000 0.238047
0.392440 0.427383 0.246176
0.434742 0.434742 0.254262
0.476273 0.442077 0.262308
0.517102 0.449389 0.270315
0.557284 0.456678 0.278283
0.596865 0.463944 0.286213
0.635887 0.471189 0.294108
0.674383 0.478411 0.301967
0.712382 0.485612 0.309792
0.749910 0.492792 0.317584
0.786991 0.499951 0.325343
0.823645 0.507090 0.333070
0.193862 0.449883 0.232855
0.241011 0.457171 0.241011
0.286749 0.464436 0.249125
0.331306 0.471679 0.257196
0.374845 0.478900 0.265228
0.417487 0.486099 0.273220
0.459326 0.493278 0.281174
0.500435 0.500435 0.289092
0.540876 0.507573 0.296973
0.580699 0.514689 0.304820
0.619946 0.521786 0.312633
0.658654 0.528864 0.320412
0.696853 0.535921 0.328160
0.734572 0.542960 0.335876
0.771834 0.549980 0.343561
0.808660 0.556981 0.351216
0.845071 0.563964 0.358841
0.221858 0.508055 0.260125
0.268142 0.515171 0.268142
0.313161 0.522266 0.276120
0.357101 0.529342 0.284061
0.400098 0.536399 0.291965
0.442256 0.543436 0.299834
0.483657 0.550455 0.307668
0.524365 0.557455 0.315469
0.564436 0.564436 0.323237
0.603915 0.571399 0.330972
0.642839 0.578345 0.338677
0.681244 0.585272 0.346351
0.719156 0.592182 0.353995
0.756603 0.599075 0.361610
0.793606 0.605950 0.369197
0.830185 0.612809 0.376756
0.866358 0.619650 0.384287
0.249323 0.564908 0.286943
0.294834 0.571870 0.294834
0.339198 0.578814 0.302690
0.382568 0.585741 0.310512
0.425059 0.592649 0.318300
0.466762 0.599541 0.326057
0.507747 0.606415 0.333781
0.548073 0.613273 0.341474
0.587790 0.620113 0.349137
0.626937 0.626937 0.356771
0.665551 0.633745 0.364376
0.703663 0.640537 0.371952
0.741298 0.647312 0.379501
0.778480 0.654072 0.387022
0.815230 0.660815 0.394517
0.851568 0.667544 0.401986
0.887509 0.674257 0.409429
0.276315 0.620576 0.313351
0.321128 0.627399 0.321128
0.364890 0.634206 0.328872
0.407729 0.640996 0.336585
0.449746 0.647770 0.344268
0.491018 0.654529 0.351920
0.531608 0.661272 0.359543
0.571569 0.667999 0.367137
0.610946 0.674711 0.374703
0.649775 0.681407 0.382242
0.688089 0.688089 0.389754
0.725916 0.694755 0.397239
0.763281 0.701407 0.404698
0.800207 0.708044 0.412132
0.836711 0.714667 0.419541
0.872813 0.721275 0.426925
0.908529 0.727868 0.434286
0.302882 0.675165 0.339386
0.347057 0.681860 0.347057
0.390262 0.688541 0.354699
0.432605 0.695206 0.362311
0.474174 0.701857 0.369895
0.515037 0.708493 0.377451
0.555251 0.715115 0.384980
0.594862 0.721722 0.392482
0.633911 0.728315 0.399958
0.672433 0.734893 0.407408
0.710457 0.741458 0.414832
0.748009 0.748009 0.422232
0.785112 0.754546 0.429608
0.821787 0.761069 0.436959
0.858052 0.767579 0.444288
0.893924 0.774075 0.451592
0.929418 0.780558 0.458875
0.329061 0.728761 0.365075
0.372649 0.735338 0.372649
0.415334 0.741902 0.380195
0.457212 0.748452 0.387714
0.498357 0.754988 0.395207
0.538831 0.761510 0.402673
0.578684 0.768019 0.410114
0.617959 0.774515 0.417529
0.656694 0.780997 0.424920
0.694918 0.787465 0.432287
0.732661 0.793921 0.439630
0.769945 0.800364 0.446950
0.806794 0.806794 0.454246
0.843225 0.813211 0.461520
0.879256 0.819615 0.468772
0.914904 0.826007 0.476002
0.950181 0.832386 0.483210
0.354885 0.781435 0.390445
0.397928 0.787903 0.397928
0.440127 0.794358 0.405385
0.481564 0.800800 0.412816
0.522306 0.807229 0.420223
0.562408 0.813645 0.427605
0.601916 0.820048 0.434963
0.640868 0.826439 0.442298
0.679298 0.832817 0.449609
0.717236 0.839183 0.456897
0.754705 0.845537 0.464163
0.791730 0.851878 0.471406
0.828330 0.858207 0.478628
0.864524 0.864524 0.485829
0.900327 0.870829 0.493008
0.935754 0.877122 0.500166
0.970819 0.883403 0.507304
0.380379 0.833249 0.415516
0.422913 0.839614 0.422913
0.464654 0.845967 0.430287
0.505674 0.852307 0.437636
0.546033 0.858635 0.444962
0.585780 0.864951 0.452265
0.624955 0.871256 0.459545
0.663596 0.877548 0.466803
0.701732 0.883828 0.474038
0.739391 0.890097 0.481252
0.776595 0.896354 0.488445
0.813367 0.902599 0.495617
0.849726 0.908833 0.502767
0.885687 0.915056 0.509898
0.921267 0.921267 0.517008
0.956479 0.927467 0.524099
0.980000 0.933655 0.531170
0.405567 0.884253 0.440306
0.447623 0.890521 0.447623
0.488931 0.896777 0.454918
0.529555 0.903022 0.462190
0.569547 0.909255 0.469439
0.608952 0.915477 0.476667
0.647809 0.921687 0.483873
0.686148 0.927886 0.491058
0.723999 0.934074 0.498222
0.761388 0.940251 0.505366
0.798335 0.946416 0.512489
0.834861 0.952571 0.519592
0.870983 0.958714 0.526675
0.906717 0.964847 0.533739
0.942079 0.970969 0.540784
0.977080 0.977080 0.547809
0.980000 0.980000 0.554816
0.430467 0.934493 0.464832
0.472073 0.940669 0.472073
0.512971 0.946833 0.479293
0.553216 0.952987 0.486492
0.592857 0.959130 0.493669
0.631934 0.965262 0.500825
0.670482 0.971383 0.507961
0.708530 0.977494 0.515077
0.746106 0.980000 0.522173
0.783231 0.980000 0.529249
0.819928 0.980000 0.536306
0.856214 0.980000 0.543344
0.892105 0.980000 0.550362
0.927618 0.980000 0.557363
0.962766 0.980000 0.564344
0.980000 0.980000 0.571308
0.980000 0.980000 0.578253
0.000000 0.000000 0.071219
0.034851 0.000000 0.080687
0.090035 0.000000 0.090035
0.141495 0.006428 0.099274
0.190544 0.017192 0.108412
0.237801 0.027647 0.117457
0.283629 0.037851 0.126416
0.328262 0.047847 0.135294
0.371867 0.057664 0.144096
0.414567 0.067324 0.152826
0.456459 0.076845 0.161489
0.497617 0.086241 0.170088
0.538102 0.095523 0.178626
0.577966 0.104702 0.187106
0.617252 0.113784 0.195530
0.655995 0.122777 0.203902
0.694229 0.131687 0.212222
0.010388 0.058323 0.102612
0.067973 0.067973 0.111716
0.120729 0.077486 0.120729
0.170668 0.086873 0.129657
0.218607 0.096148 0.138507
0.264986 0.105320 0.147282
0.310086 0.114396 0.155988
0.354096 0.123383 0.164627
0.397155 0.132288 0.173203
0.439368 0.141115 0.181720
0.480819 0.149869 0.190179
0.521573 0.158555 0.198584
0.561686 0.167175 0.206936
0.601204 0.175733 0.215239
0.640166 0.184232 0.223493
0.678606 0.192675 0.231700
0.716552 0.201064 0.239863
0.045148 0.132888 0.132888
0.099499 0.141710 0.141710
0.150460 0.150460 0.150460
0.199151 0.159141 0.159141
0.246130 0.167756 0.167756
0.291728 0.176311 0.176311
0.336165 0.184806 0.184806
0.379600 0.193245 0.193245
0.422149 0.201631 0.201631
0.463903 0.209965 0.209965
0.504936 0.218249 0.218249
0.545307 0.226486 0.226486
0.585064 0.234677 0.234677
0.624250 0.242824 0.242824
0.662899 0.250928 0.250928
0.701044 0.258990 0.258990
0.738711 0.267013 0.267013
0.077717 0.202197 0.162285
0.129875 0.210527 0.170878
0.179410 0.218809 0.179410
0.227042 0.227042 0.187885
0.273175 0.235230 0.196304
0.318066 0.243374 0.204671
0.361896 0.251475 0.212986
0.404796 0.259535 0.221253
0.446867 0.267555 0.229473
0.488188 0.275536 0.237648
0.528824 0.283479 0.245779
0.568827 0.291386 0.253868
0.608243 0.299258 0.261916
0.647108 0.307094 0.269924
0.685457 0.314897 0.277894
0.723317 0.322668 0.285826
0.760713 0.330406 0.293723
0.108857 0.268097 0.190956
0.159352 0.276075 0.199356
0.207704 0.284016 0.207704
0.254414 0.291921 0.216002
0.299790 0.299790 0.224251
0.344037 0.307624 0.232455
0.387305 0.315425 0.240613
0.429705 0.323193 0.248729
0.471325 0.330929 0.256802
0.512235 0.338634 0.264836
0.552491 0.346308 0.272830
0.592143 0.353952 0.280786
0.631230 0.361568 0.288705
0.669787 0.369154 0.296588
0.707844 0.376713 0.304437
0.745428 0.384244 0.312251
0.782562 0.391749 0.320033
0.138938 0.331452 0.219011
0.188091 0.339154 0.227243
0.235430 0.346827 0.235430
0.281324 0.354469 0.243573
0.326013 0.362082 0.251673
0.369667 0.369667 0.259732
0.412411 0.377224 0.267751
0.454342 0.384754 0.275731
0.495536 0.392256 0.283673
0.536054 0.399733 0.291579
0.575949 0.407184 0.299450
0.615263 0.414609 0.307286
0.654033 0.422010 0.315088
0.692292 0.429386 0.322857
0.730067 0.436739 0.330595
0.767383 0.444067 0.338301
0.804261 0.451373 0.345976
0.168176 0.392764 0.246527
0.216204 0.400238 0.254611
0.262656 0.407687 0.262656
0.307815 0.415111 0.270660
0.351877 0.422510 0.278627
0.394981 0.429885 0.286556
0.437236 0.437236 0.294449
0.478723 0.444563 0.302307
0.519512 0.451867 0.310130
0.559657 0.459148 0.317920
0.599204 0.466407 0.325678
0.638194 0.473644 0.333404
0.676659 0.480859 0.341099
0.714629 0.488053 0.348763
0.752130 0.495226 0.356398
0.789185 0.502378 0.364004
0.825814 0.509509 0.371582
0.196715 0.452361 0.273565
0.243771 0.459641 0.281518
0.289433 0.466898 0.289433
0.333926 0.474133 0.297313
0.377409 0.481347 0.305159
0.420000 0.488539 0.312970
0.461793 0.495711 0.320748
0.502862 0.502862 0.328494
0.543264 0.509992 0.336209
0.583052 0.517102 0.343893
0.622266 0.524192 0.351546
0.660942 0.531263 0.359171
0.699112 0.538314 0.366766
0.736803 0.545346 0.374334
0.774038 0.552360 0.381874
0.810840 0.559354 0.389387
0.847226 0.566331 0.396873
0.224654 0.510474 0.300174
0.270856 0.517583 0.308006
0.315806 0.524672 0.315806
0.359686 0.531741 0.323572
0.402631 0.538791 0.331306
0.444742 0.545822 0.339010
0.486099 0.552834 0.346682
0.526768 0.559828 0.354325
0.566803 0.566803 0.361939
0.606247 0.573760 0.369525
0.645140 0.580699 0.377082
0.683515 0.587621 0.384612
0.721399 0.594525 0.392116
0.758818 0.601412 0.399593
0.795795 0.608281 0.407044
0.832350 0.615134 0.414470
0.868499 0.621970 0.421871
0.252068 0.567275 0.326391
0.297506 0.574230 0.334114
0.341807 0.581169 0.341807
0.385121 0.588089 0.349468
0.427563 0.594992 0.357101
0.469221 0.601877 0.364704
0.510166 0.608746 0.372279
0.550455 0.615598 0.379827
0.590136 0.622433 0.387347
0.629251 0.629251 0.394841
0.667834 0.636053 0.402308
0.705917 0.642839 0.409750
0.743524 0.649609 0.417167
0.780680 0.656364 0.424559
0.817405 0.663102 0.431927
0.853719 0.669825 0.439271
0.889637 0.676533 0.446592
0.279015 0.622895 0.352250
0.323762 0.629712 0.359872
0.367465 0.636513 0.367465
0.410253 0.643298 0.375030
0.452224 0.650067 0.382568
0.493453 0.656820 0.390078
0.534005 0.663558 0.397562
0.573930 0.670280 0.405021
0.613273 0.676987 0.412453
0.652070 0.683678 0.419861
0.690354 0.690354 0.427244
0.728153 0.697016 0.434604
0.765492 0.703663 0.441939
0.802392 0.710295 0.449252
0.838872 0.716912 0.456541
0.874951 0.723516 0.463808
0.910643 0.730105 0.471053
0.305542 0.677440 0.377777
0.349655 0.684131 0.385305
0.392806 0.690806 0.392806
0.435101 0.697467 0.400281
0.476626 0.704112 0.407729
0.517449 0.710743 0.415153
0.557626 0.717360 0.422552
0.597202 0.723962 0.429926
0.636219 0.730550 0.437277
0.674711 0.737124 0.444604
0.712706 0.743684 0.451908
0.750230 0.750230 0.459189
0.787307 0.756763 0.466448
0.823958 0.763281 0.473685
0.860199 0.769786 0.480900
0.896048 0.776278 0.488094
0.931520 0.782757 0.495266
0.331684 0.730996 0.402995
0.375215 0.737569 0.410435
0.417850 0.744128 0.417850
0.459682 0.750673 0.425240
0.500785 0.757205 0.432605
0.541220 0.763722 0.439947
0.581038 0.770227 0.447266
0.620280 0.776717 0.454561
0.658983 0.783195 0.461834
0.697179 0.789659 0.469085
0.734893 0.796111 0.476314
0.772151 0.802549 0.483521
0.808974 0.808974 0.490707
0.845381 0.815387 0.497872
0.881390 0.821787 0.505017
0.917014 0.828174 0.512141
0.952270 0.834549 0.519245
0.357473 0.783633 0.427924
0.400463 0.790097 0.435281
0.442614 0.796547 0.442614
0.484009 0.802985 0.449925
0.524712 0.809409 0.457212
0.564777 0.815821 0.464477
0.604251 0.822220 0.471719
0.643171 0.828607 0.478940
0.681571 0.834981 0.486140
0.719480 0.841342 0.493318
0.756922 0.847692 0.500476
0.793921 0.854029 0.507613
0.830497 0.860354 0.514730
0.866666 0.866666 0.521826
0.902447 0.872967 0.528904
0.937852 0.879256 0.535961
0.972896 0.885534 0.543000
0.382936 0.835412 0.452580
0.425420 0.841773 0.459859
0.467116 0.848121 0.467116
0.508095 0.854457 0.474351
0.548416 0.860782 0.481564
0.588128 0.867094 0.488756
0.627271 0.873394 0.495926
0.665880 0.879682 0.503076
0.703987 0.885958 0.510206
0.741618 0.892223 0.517316
0.778797 0.898476 0.524405
0.815544 0.904718 0.531475
0.851878 0.910948 0.538526
0.887816 0.917166 0.545558
0.923374 0.923374 0.552570
0.958564 0.929570 0.559565
0.980000 0.935754 0.566541
0.408093 0.886383 0.476979
0.450103 0.892647 0.484185
0.491369 0.898899 0.491369
0.531953 0.905140 0.498532
0.571909 0.911369 0.505674
0.611281 0.917587 0.512797
0.650105 0.923794 0.519899
0.688415 0.929989 0.526981
0.726238 0.936173 0.534044
0.763600 0.942346 0.541088
0.800521 0.948508 0.548113
0.837023 0.954658 0.555119
0.873121 0.960798 0.562107
0.908833 0.966927 0.569076
0.944173 0.973046 0.576027
0.979153 0.979153 0.582961
0.980000 0.980000 0.589876
0.432965 0.936591 0.501135
0.474528 0.942763 0.508270
0.515385 0.948925 0.515385
0.555593 0.955075 0.522480
0.595199 0.961214 0.529555
0.634244 0.967342 0.536611
0.672761 0.973460 0.543648
0.710781 0.979566 0.550666
0.748329 0.980000 0.557665
0.785428 0.980000 0.564646
0.822100 0.980000 0.571609
0.858362 0.980000 0.578553
0.894230 0.980000 0.585480
0.929721 0.980000 0.592390
0.964847 0.980000 0.599282
0.980000 0.980000 0.606157
0.980000 0.980000 0.613015
0.000000 0.000000 0.117847
0.038288 0.000000 0.126802
0.093185 0.000000 0.135676
0.144475 0.010124 0.144475
0.193404 0.020774 0.153203
0.240567 0.031138 0.161863
0.286318 0.041268 0.170459
0.330885 0.051200 0.178994
0.374433 0.060961 0.187472
0.417084 0.070573 0.195894
0.458929 0.080050 0.204263
0.500045 0.089406 0.212581
0.540492 0.098652 0.220850
0.580321 0.107796 0.229072
0.619573 0.116848 0.237249
0.658286 0.125812 0.245382
0.696490 0.134695 0.253473
0.014038 0.061617 0.147661
