luts/creative/bleach_bypass.cube
TITLE "Bleach Bypass"
LUT_3D_SIZE 9
DOMAIN_MIN 0.0 0.0 0.0
DOMAIN_MAX 1.0 1.0 1.0
0.000000 0.000000 0.000000
0.083698 0.000000 0.000000
0.184806 0.009920 0.009920
0.278238 0.030945 0.030945
0.366724 0.051015 0.051015
0.451510 0.070393 0.070393
0.533314 0.089231 0.089231
0.612602 0.107625 0.107625
0.689702 0.125644 0.125644
0.038345 0.126852 0.038345
0.144525 0.144525 0.058140
0.240613 0.161911 0.077308
0.330929 0.179042 0.095975
0.417125 0.195941 0.114226
0.500086 0.212628 0.132121
0.580360 0.229119 0.149705
0.658324 0.245428 0.167013
0.734250 0.261568 0.184073
0.102664 0.262656 0.102664
0.202040 0.278627 0.120779
0.294449 0.294449 0.138557
0.382200 0.310130 0.156037
0.466407 0.325678 0.173252
0.547730 0.341099 0.190227
0.626604 0.356398 0.206983
0.703338 0.371582 0.223539
0.778163 0.386655 0.239909
0.162333 0.387672 0.162333
0.257196 0.402631 0.179458
0.346682 0.417487 0.196352
0.432246 0.432246 0.213033
0.514689 0.446908 0.229520
0.594525 0.461479 0.245825
0.672105 0.475961 0.261961
0.747689 0.490356 0.277939
0.821474 0.504668 0.293767
0.219057 0.505634 0.219057
0.310512 0.519859 0.235476
0.397562 0.534005 0.251718
0.481212 0.548073 0.267796
0.562067 0.562067 0.283718
0.640537 0.575988 0.299494
0.716912 0.589837 0.315132
0.791415 0.603617 0.330638
0.864215 0.617329 0.346020
0.273610 0.618255 0.273610
0.362311 0.631896 0.289478
0.447266 0.645472 0.305203
0.529209 0.658983 0.320792
0.608617 0.672433 0.336252
0.685821 0.685821 0.351589
0.761069 0.699150 0.366809
0.834549 0.712419 0.381916
0.906413 0.725631 0.396916
0.326435 0.726524 0.326435
0.412816 0.739675 0.341850
0.495926 0.752770 0.357144
0.576327 0.765810 0.372322
0.654402 0.778797 0.387389
0.730426 0.791730 0.402350
0.804612 0.804612 0.417209
0.877122 0.817441 0.431969
0.948091 0.830221 0.446633
0.377820 0.831084 0.377820
0.462190 0.843811 0.392848
0.543648 0.856487 0.407771
0.622638 0.869116 0.422594
0.699475 0.881697 0.437318
0.774392 0.894230 0.451949
0.847572 0.906717 0.466489
0.919159 0.919159 0.480941
0.980000 0.931555 0.495307
0.427966 0.932393 0.427966
0.510554 0.944741 0.442656
0.590513 0.957045 0.457253
0.668201 0.969306 0.471760
0.743881 0.980000 0.486180
0.817755 0.980000 0.500516
0.889979 0.980000 0.514770
0.960683 0.980000 0.528943
0.980000 0.980000 0.543040
0.000000 0.000000 0.071219
0.090035 0.000000 0.090035
0.190544 0.017192 0.108412
0.283629 0.037851 0.126416
0.371867 0.057664 0.144096
0.456459 0.076845 0.161489
0.538102 0.095523 0.178626
0.617252 0.113784 0.195530
0.694229 0.131687 0.212222
0.045148 0.132888 0.132888
0.150460 0.150460 0.150460
0.246130 0.167756 0.167756
0.336165 0.184806 0.184806
0.422149 0.201631 0.201631
0.504936 0.218249 0.218249
0.585064 0.234677 0.234677
0.662899 0.250928 0.250928
0.738711 0.267013 0.267013
0.108857 0.268097 0.190956
0.207704 0.284016 0.207704
0.299790 0.299790 0.224251
0.387305 0.315425 0.240613
0.471325 0.330929 0.256802
0.552491 0.346308 0.272830
0.631230 0.361568 0.288705
0.707844 0.376713 0.304437
0.782562 0.391749 0.320033
0.168176 0.392764 0.246527
0.262656 0.407687 0.262656
0.351877 0.422510 0.278627
0.437236 0.437236 0.294449
0.519512 0.451867 0.310130
0.599204 0.466407 0.325678
0.676659 0.480859 0.341099
0.752130 0.495226 0.356398
0.825814 0.509509 0.371582
0.224654 0.510474 0.300174
0.315806 0.524672 0.315806
0.402631 0.538791 0.331306
0.486099 0.552834 0.346682
0.566803 0.566803 0.361939
0.645140 0.580699 0.377082
0.721399 0.594525 0.392116
0.795795 0.608281 0.407044
0.868499 0.621970 0.421871
0.279015 0.622895 0.352250
0.367465 0.636513 0.367465
0.452224 0.650067 0.382568
0.534005 0.663558 0.397562
0.613273 0.676987 0.412453
0.690354 0.690354 0.427244
0.765492 0.703663 0.441939
0.838872 0.716912 0.456541
0.910643 0.730105 0.471053
0.331684 0.730996 0.402995
0.417850 0.744128 0.417850
0.500785 0.757205 0.432605
0.581038 0.770227 0.447266
0.658983 0.783195 0.461834
0.734893 0.796111 0.476314
0.808974 0.808974 0.490707
0.881390 0.821787 0.505017
0.952270 0.834549 0.519245
0.382936 0.835412 0.452580
0.467116 0.848121 0.467116
0.548416 0.860782 0.481564
0.627271 0.873394 0.495926
0.703987 0.885958 0.510206
0.778797 0.898476 0.524405
0.851878 0.910948 0.538526
0.923374 0.923374 0.552570
0.980000 0.935754 0.566541
0.432965 0.936591 0.501135
0.515385 0.948925 0.515385
0.595199 0.961214 0.529555
0.672761 0.973460 0.543648
0.748329 0.980000 0.557665
0.822100 0.980000 0.571609
0.894230 0.980000 0.585480
0.964847 0.980000 0.599282
0.980000 0.980000 0.613015
0.000000 0.000000 0.162236
0.096322 0.002895 0.179362
0.196257 0.024323 0.196257
0.289002 0.044661 0.212940
0.376997 0.064241 0.229427
0.461397 0.083240 0.245733
0.542881 0.101768 0.261870
0.621893 0.119901 0.277849
0.698749 0.137694 0.293678
0.051866 0.138888 0.218964
0.156363 0.156363 0.235384
0.251627 0.173573 0.251627
0.341388 0.190544 0.267705
0.427161 0.207297 0.283629
0.509777 0.223849 0.299405
0.589759 0.240215 0.315044
0.667468 0.256408 0.330551
0.743166 0.272440 0.345933
0.115007 0.273520 0.273520
0.213345 0.289389 0.289389
0.305115 0.305115 0.305115
0.392397 0.320704 0.320704
0.476233 0.336165 0.336165
0.557244 0.351503 0.351503
0.635849 0.366724 0.366724
0.712344 0.381831 0.381831
0.786955 0.396831 0.396831
0.173991 0.397843 0.326348
0.268097 0.412733 0.341763
0.357058 0.427522 0.357058
0.442215 0.442215 0.372237
0.524325 0.456815 0.387305
0.603876 0.471325 0.402266
0.681206 0.485748 0.417125
0.756566 0.500086 0.431886
0.830149 0.514342 0.446551
0.230229 0.515304 0.377735
0.321084 0.529475 0.392764
0.407687 0.543568 0.407687
0.490977 0.557586 0.422510
0.571530 0.571530 0.437236
0.649737 0.585402 0.451867
0.725879 0.599204 0.466407
0.800170 0.612938 0.480859
0.872778 0.626604 0.495226
0.284404 0.627527 0.427882
0.372606 0.641124 0.442573
0.457171 0.654656 0.457171
0.538791 0.668125 0.471679
0.617921 0.681533 0.486099
0.694881 0.694881 0.500435
0.769909 0.708169 0.514689
0.843189 0.721399 0.528864
0.914869 0.734572 0.542960
0.336918 0.735462 0.476939
0.422872 0.748575 0.491328
0.505634 0.761633 0.505634
0.585741 0.774637 0.519859
0.663558 0.787587 0.534005
0.739354 0.800485 0.548073
0.813331 0.813331 0.562067
0.885652 0.826127 0.575988
0.956444 0.838872 0.589837
0.388039 0.839734 0.525018
0.472032 0.852426 0.539135
0.553177 0.865070 0.553177
0.631896 0.877666 0.567144
0.708493 0.890215 0.581038
0.783195 0.902717 0.594862
0.856178 0.915173 0.608617
0.927583 0.927583 0.622304
0.980000 0.939949 0.635925
0.437954 0.940785 0.572210
0.520206 0.953103 0.586079
0.599878 0.965377 0.599878
0.677314 0.977609 0.613608
0.752770 0.980000 0.627271
0.826439 0.980000 0.640868
0.898476 0.980000 0.654402
0.969006 0.980000 0.667872
0.980000 0.980000 0.681281
0.000000 0.000000 0.246435
0.102561 0.010327 0.262565
0.201945 0.031331 0.278537
0.294360 0.051385 0.294360
0.382115 0.070752 0.310042
0.466325 0.089581 0.325590
0.547651 0.107968 0.341012
0.626527 0.125980 0.356312
0.703263 0.143667 0.371497
0.058506 0.144854 0.300085
0.162236 0.162236 0.315718
0.257105 0.179362 0.331219
0.346596 0.196257 0.346596
0.432163 0.212940 0.361854
0.514609 0.229427 0.376997
0.594447 0.245733 0.392031
0.672029 0.261870 0.406960
0.747615 0.277849 0.421787
0.121117 0.278926 0.352164
0.218964 0.294745 0.367380
0.310424 0.310424 0.382483
0.397478 0.325969 0.397478
0.481130 0.341388 0.412370
0.561988 0.356685 0.427161
0.640460 0.371867 0.441857
0.716838 0.386937 0.456459
0.791342 0.401901 0.470971
0.179778 0.402911 0.402911
0.273520 0.417766 0.417766
0.362225 0.432522 0.432522
0.447183 0.447183 0.447183
0.529130 0.461752 0.461752
0.608539 0.476233 0.476233
0.685746 0.490626 0.490626
0.760995 0.504936 0.504936
0.834477 0.519165 0.519165
0.235783 0.520126 0.452498
0.326348 0.534270 0.467034
0.412733 0.548337 0.481483
0.495846 0.562330 0.495846
0.576249 0.576249 0.510126
0.654326 0.590097 0.524325
0.730352 0.603876 0.538446
0.804539 0.617586 0.552491
0.877051 0.631230 0.566462
0.289775 0.632152 0.501054
0.377735 0.645726 0.515304
0.462108 0.659237 0.529475
0.543568 0.672685 0.543568
0.622561 0.686073 0.557586
0.699400 0.699400 0.571530
0.774319 0.712668 0.585402
0.847501 0.725879 0.599204
0.919089 0.739033 0.612938
0.342139 0.739921 0.548680
0.427882 0.753016 0.562671
0.510474 0.766055 0.576589
0.590435 0.779041 0.590435
0.668125 0.791973 0.604212
0.743807 0.804853 0.617921
0.817682 0.817682 0.631563
0.889908 0.830461 0.645140
0.960614 0.843189 0.658654
0.393130 0.844049 0.595459
0.476939 0.856725 0.609211
0.557928 0.869353 0.622895
0.636513 0.881933 0.636513
0.712992 0.894466 0.650067
0.787587 0.906952 0.663558
0.860472 0.919392 0.676987
0.931788 0.931788 0.690354
0.980000 0.944138 0.703663
0.442931 0.944973 0.641455
0.525018 0.957276 0.654986
0.604548 0.969536 0.668454
0.681860 0.980000 0.681860
0.757205 0.980000 0.695206
0.830773 0.980000 0.708493
0.902717 0.980000 0.721722
0.973161 0.980000 0.734893
0.980000 0.980000 0.748009
0.000000 0.000000 0.326260
0.108754 0.017591 0.341677
0.207610 0.038231 0.356972
0.299701 0.058030 0.372151
0.387220 0.077201 0.387220
0.471243 0.095871 0.402182
0.552412 0.114124 0.417042
0.631153 0.132021 0.431803
0.707770 0.149607 0.446468
0.065075 0.150787 0.377650
0.168079 0.168079 0.392679
0.262565 0.185125 0.407604
0.351791 0.201945 0.422427
0.437153 0.218560 0.437153
0.519432 0.234984 0.451785
0.599126 0.251232 0.466325
0.676583 0.267314 0.480778
0.752057 0.283241 0.495145
0.127188 0.284314 0.427799
0.224561 0.300085 0.442490
0.315718 0.315718 0.457089
0.402547 0.331219 0.471597
0.486018 0.346596 0.486018
0.566724 0.361854 0.500355
0.645064 0.376997 0.514609
0.721324 0.392031 0.528784
0.795723 0.406960 0.542881
0.185539 0.407967 0.476857
0.278926 0.422788 0.491247
0.367380 0.437512 0.505554
0.452141 0.452141 0.519779
0.533925 0.466680 0.533925
0.613195 0.481130 0.547994
0.690279 0.495495 0.561988
0.765418 0.509777 0.575910
0.838800 0.523979 0.589759
0.241317 0.524938 0.524938
0.331597 0.539056 0.539056
0.417766 0.553097 0.553097
0.500704 0.567065 0.567065
0.580960 0.580960 0.580960
0.658907 0.594784 0.594784
0.734819 0.608539 0.608539
0.808902 0.622227 0.622227
0.881319 0.635849 0.635849
0.295130 0.636769 0.572132
0.382851 0.650322 0.586001
0.467034 0.663811 0.599800
0.548337 0.677239 0.613530
0.627194 0.690605 0.627194
0.703912 0.703912 0.640792
0.778724 0.717161 0.654326
0.851806 0.730352 0.667797
0.923304 0.743487 0.681206
0.347345 0.744375 0.618512
0.432882 0.757450 0.632152
0.515304 0.770471 0.645726
0.595121 0.783438 0.659237
0.672685 0.796353 0.672685
0.748255 0.809216 0.686073
0.822028 0.822028 0.699400
0.894160 0.834789 0.712668
0.964778 0.847501 0.725879
0.398209 0.848360 0.664140
0.481835 0.861019 0.677566
0.562671 0.873631 0.690932
0.641124 0.886194 0.704237
0.717484 0.898711 0.717484
0.791973 0.911182 0.730674
0.864761 0.923607 0.743807
0.935987 0.935987 0.756885
0.980000 0.948322 0.769909
0.447898 0.949156 0.709067
0.529821 0.961445 0.722293
0.609211 0.973690 0.735462
0.686399 0.980000 0.748575
0.761633 0.980000 0.761633
0.835100 0.980000 0.774637
0.906952 0.980000 0.787587
0.977310 0.980000 0.800485
0.980000 0.980000 0.813331
0.003312 0.003312 0.402827
0.114905 0.024714 0.417682
0.213252 0.045036 0.432439
0.305026 0.064604 0.447101
0.392313 0.083593 0.461670
0.476151 0.102113 0.476151
0.557165 0.120239 0.490545
0.635772 0.138026 0.504856
0.712270 0.155515 0.519085
0.071577 0.156689 0.452416
0.173895 0.173895 0.466953
0.268006 0.190861 0.481401
0.356972 0.207610 0.495765
0.442132 0.224158 0.510045
0.524245 0.240521 0.524245
0.603798 0.256711 0.538367
0.681130 0.272740 0.552412
0.756492 0.288616 0.566383
0.133221 0.289686 0.500973
0.230136 0.305409 0.515224
0.320996 0.320996 0.529395
0.407604 0.336455 0.543489
0.490896 0.351791 0.557507
0.571452 0.367009 0.571452
0.649660 0.382115 0.585324
0.725804 0.397112 0.599126
0.800098 0.412007 0.612860
0.191273 0.413012 0.548601
0.284314 0.427799 0.562592
0.372521 0.442490 0.576510
0.457089 0.457089 0.590357
0.538711 0.471597 0.604134
0.617844 0.486018 0.617844
0.694805 0.500355 0.631486
0.769835 0.514609 0.645064
0.843117 0.528784 0.658578
0.246832 0.529741 0.595381
0.336832 0.543833 0.609133
0.422788 0.557849 0.622818
0.505554 0.571792 0.636437
0.585663 0.585663 0.649991
0.663482 0.599463 0.663482
0.739279 0.613195 0.676911
0.813259 0.626860 0.690279
0.885581 0.640460 0.703588
0.300469 0.641379 0.641379
0.387954 0.654910 0.654910
0.471951 0.668378 0.668378
0.553097 0.681785 0.681785
0.631819 0.695131 0.695131
0.708418 0.708418 0.708418
0.783122 0.721647 0.721647
0.856107 0.734819 0.734819
0.927513 0.747935 0.747935
0.352538 0.748821 0.686651
0.437871 0.761878 0.699975
0.520126 0.774881 0.713241
0.599800 0.787830 0.726449
0.677239 0.800727 0.739600
0.752696 0.813573 0.752696
0.826367 0.826367 0.765737
0.898406 0.839111 0.778724
0.968937 0.851806 0.791657
0.403276 0.852664 0.731244
0.486721 0.865308 0.744375
0.567406 0.877903 0.757450
0.645726 0.890450 0.770471
0.721970 0.902952 0.783438
0.796353 0.915407 0.796353
0.869045 0.927816 0.809216
0.940181 0.940181 0.822028
0.980000 0.952501 0.834789
0.452855 0.953334 0.775198
0.534615 0.965608 0.788146
0.613865 0.977838 0.801042
0.690932 0.980000 0.813886
0.766055 0.980000 0.826679
0.839422 0.980000 0.839422
0.911182 0.980000 0.852116
0.980000 0.980000 0.864761
0.980000 0.980000 0.877359
0.010734 0.010734 0.476776
0.121016 0.031716 0.491166
0.218871 0.051755 0.505473
0.310336 0.071111 0.519699
0.397394 0.089930 0.533845
0.481049 0.108310 0.547915
0.561910 0.126315 0.561910
0.640383 0.143997 0.575831
0.716763 0.161392 0.589681
0.078019 0.162560 0.524858
0.179682 0.179682 0.538976
0.273430 0.196573 0.553018
0.362139 0.213252 0.566986
0.447101 0.229736 0.580882
0.529050 0.246038 0.594706
0.608462 0.262172 0.608462
0.685671 0.278148 0.622150
0.760922 0.293975 0.635772
0.139220 0.295041 0.572053
0.235691 0.310717 0.585923
0.326260 0.326260 0.599722
0.412649 0.341677 0.613453
0.495765 0.356972 0.627117
0.576171 0.372151 0.640715
0.654249 0.387220 0.654249
0.730278 0.402182 0.667721
0.804466 0.417042 0.681130
0.196983 0.418045 0.618435
0.289686 0.432799 0.632075
0.377650 0.447458 0.645650
0.462026 0.462026 0.659161
0.543489 0.476504 0.672610
0.622484 0.490896 0.685997
0.699325 0.505205 0.699325
0.774246 0.519432 0.712594
0.847429 0.533580 0.725804
0.252326 0.534535 0.664064
0.342052 0.548601 0.677491
0.427799 0.562592 0.690856
0.510394 0.576510 0.704162
0.590357 0.590357 0.717410
0.668049 0.604134 0.730600
0.743733 0.617844 0.743733
0.817610 0.631486 0.756812
0.889838 0.645064 0.769835
0.305792 0.645981 0.708992
0.393045 0.659491 0.722218
0.476857 0.672938 0.735388
0.557849 0.686324 0.748501
0.636437 0.699650 0.761559
0.712917 0.712917 0.774563
0.787514 0.726127 0.787514
0.860401 0.739279 0.800412
0.931718 0.752376 0.813259
0.357717 0.753261 0.753261
0.442849 0.766300 0.766300
0.524938 0.779284 0.779284
0.604470 0.792216 0.792216
0.681785 0.805095 0.805095
0.757131 0.817923 0.817923
0.830701 0.830701 0.830701
0.902646 0.843428 0.843428
0.973092 0.856107 0.856107
0.408331 0.856964 0.796911
0.491598 0.869590 0.809771
0.572132 0.882169 0.822581
0.650322 0.894701 0.835340
0.726449 0.907186 0.848050
0.800727 0.919626 0.860710
0.873323 0.932020 0.873323
0.944370 0.944370 0.885888
0.980000 0.956675 0.898406
0.457800 0.957507 0.839973
0.539400 0.969766 0.852664
0.618512 0.980000 0.865308
0.695457 0.980000 0.877903
0.770471 0.980000 0.890450
0.843739 0.980000 0.902952
0.915407 0.980000 0.915407
0.980000 0.980000 0.927816
0.980000 0.980000 0.940181
0.017989 0.017989 0.548522
0.127087 0.038610 0.562514
0.224468 0.058396 0.576432
0.315630 0.077557 0.590279
0.402463 0.096218 0.604057
0.485937 0.114464 0.617766
0.566646 0.132354 0.631409
0.644987 0.149935 0.644987
0.721250 0.167240 0.658502
0.084403 0.168402 0.595303
0.185443 0.185443 0.609056
0.278836 0.202260 0.622741
0.367294 0.218871 0.636360
0.452059 0.235292 0.649915
0.533845 0.251536 0.663406
0.613118 0.267615 0.676835
0.690204 0.283539 0.690204
0.765345 0.299317 0.703513
0.145184 0.300380 0.641302
0.241225 0.316011 0.654834
0.331510 0.331510 0.668302
0.417682 0.346884 0.681709
0.500624 0.362139 0.695056
0.580882 0.377281 0.708343
0.658831 0.392313 0.721573
0.734745 0.407240 0.734745
0.808829 0.422066 0.747861
0.202668 0.423066 0.686575
0.295041 0.437788 0.699900
0.382766 0.452416 0.713166
0.466953 0.466953 0.726375
0.548258 0.481401 0.739526
0.627117 0.495765 0.752622
0.703837 0.510045 0.765663
0.778650 0.524245 0.778650
0.851735 0.538367 0.791585
0.257802 0.539321 0.731169
0.347259 0.553361 0.744301
0.432799 0.567327 0.757376
0.515224 0.581221 0.770398
0.595044 0.595044 0.783365
0.672610 0.608798 0.796280
0.748181 0.622484 0.809143
0.821955 0.636104 0.821955
0.894089 0.649660 0.834717
0.311099 0.650576 0.775125
0.398125 0.664064 0.788073
0.481754 0.677491 0.800969
0.562592 0.690856 0.813814
0.641047 0.704162 0.826607
0.717410 0.717410 0.839351
0.791900 0.730600 0.852045
0.864690 0.743733 0.864690
0.935917 0.756812 0.877288
0.362883 0.757695 0.818477
0.447816 0.770716 0.831252
0.529741 0.783682 0.843978
0.609133 0.796596 0.856654
0.686324 0.809457 0.869282
0.761559 0.822268 0.881862
0.835029 0.835029 0.894395
0.906882 0.847739 0.906882
0.977241 0.860401 0.919322
0.413375 0.861257 0.861257
0.496465 0.873867 0.873867
0.576850 0.886430 0.886430
0.654910 0.898946 0.898946
0.730922 0.911416 0.911416
0.805095 0.923840 0.923840
0.877595 0.936219 0.936219
0.948554 0.948554 0.948554
0.980000 0.960844 0.960844
0.462736 0.961675 0.903491
0.544177 0.973920 0.915945
0.623152 0.980000 0.928352
0.699975 0.980000 0.940715
0.774881 0.980000 0.953033
0.848050 0.980000 0.965308
0.919626 0.980000 0.977540
0.980000 0.980000 0.980000
0.980000 0.980000 0.980000
0.025105 0.025105 0.618358
0.133121 0.045411 0.631998
0.230044 0.064966 0.645573
0.320909 0.083945 0.659085
0.407520 0.102457 0.672534
0.490815 0.120577 0.685922
0.571373 0.138358 0.699250
0.649584 0.155841 0.712519
0.725730 0.173059 0.725730
0.090734 0.174216 0.663988
0.191178 0.191178 0.677415
0.284225 0.207923 0.690781
0.372436 0.224468 0.704087
0.457007 0.240828 0.717335
0.538632 0.257015 0.730526
0.617766 0.273040 0.743659
0.694730 0.288913 0.756738
0.769762 0.304643 0.769762
0.151115 0.305704 0.708917
0.246740 0.321288 0.722144
0.336745 0.336745 0.735314
0.422705 0.352078 0.748427
0.505473 0.367294 0.761486
0.585584 0.382398 0.774490
0.663406 0.397394 0.787441
0.739205 0.412286 0.800340
0.813187 0.427078 0.813187
0.208330 0.428076 0.753188
0.300380 0.442766 0.766226
0.387869 0.457362 0.779211
0.471869 0.471869 0.792143
0.553018 0.486289 0.805023
0.631742 0.500624 0.817851
0.708343 0.514877 0.830629
0.783049 0.529050 0.843356
0.856035 0.543145 0.856035
0.263259 0.544097 0.796838
0.352452 0.558112 0.809699
0.437788 0.572053 0.822509
0.520046 0.585923 0.835268
0.599722 0.599722 0.847978
0.677163 0.613453 0.860639
0.752622 0.627117 0.873252
0.826295 0.640715 0.885817
0.898335 0.654249 0.898335
0.316391 0.655164 0.839901
0.403192 0.668631 0.852593
0.486640 0.682036 0.865236
0.567327 0.695382 0.877832
0.645650 0.708668 0.890380
0.721896 0.721896 0.902881
0.796280 0.735066 0.915336
0.868974 0.748181 0.927746
0.940111 0.761241 0.940111
0.368036 0.762123 0.882405
0.452772 0.775125 0.894936
0.534535 0.788073 0.907421
0.613788 0.800969 0.919860
0.690856 0.813814 0.932253
0.765982 0.826607 0.944602
0.839351 0.839351 0.956907
0.911112 0.852045 0.969168
0.980000 0.864690 0.980000
0.418407 0.865545 0.924377
0.501323 0.878139 0.936754
0.581560 0.890686 0.949087
0.659491 0.903186 0.961375
0.735388 0.915641 0.973621
0.809457 0.928049 0.980000
0.881862 0.940413 0.980000
0.952733 0.952733 0.980000
0.980000 0.965008 0.980000
0.467661 0.965838 0.965838
0.548944 0.978068 0.978068
0.627784 0.980000 0.980000
0.704487 0.980000 0.980000
0.779284 0.980000 0.980000
0.852355 0.980000 0.980000
0.923840 0.980000 0.980000
0.980000 0.980000 0.980000
0.980000 0.980000 0.980000
