luts/creative/cross_process.cube
TITLE "Cross Processing"
LUT_3D_SIZE 5
DOMAIN_MIN 0.0 0.0 0.0
DOMAIN_MAX 1.0 1.0 1.0
0.036004 0.000000 0.062004
0.449357 0.000000 0.040678
0.775195 0.000000 0.023867
1.000000 0.000000 0.009502
1.000000 0.000000 0.001413
0.000000 0.253729 0.011257
0.398610 0.232402 0.000000
0.724448 0.215592 0.000000
1.000000 0.201227 0.000000
1.000000 0.193138 0.000000
0.000000 0.543707 0.000000
0.341290 0.522381 0.000000
0.667128 0.505570 0.000000
0.945556 0.491205 0.000000
1.000000 0.483116 0.000000
0.000000 0.831899 0.000000
0.284323 0.810573 0.000000
0.610161 0.793762 0.000000
0.888589 0.779397 0.000000
1.000000 0.771308 0.000000
0.000000 1.000000 0.000000
0.234797 1.000000 0.000000
0.560635 1.000000 0.000000
0.839063 1.000000 0.000000
0.995853 1.000000 0.000000
0.032263 0.000000 0.282740
0.445617 0.000000 0.261414
0.771455 0.000000 0.244603
1.000000 0.000000 0.230238
1.000000 0.000000 0.222149
0.000000 0.249988 0.231993
0.394870 0.228662 0.210667
0.720708 0.211851 0.193856
0.999136 0.197487 0.179491
1.000000 0.189397 0.171402
0.000000 0.539967 0.174672
0.337550 0.518641 0.153346
0.663388 0.501830 0.136535
0.941816 0.487465 0.122171
1.000000 0.479376 0.114081
0.000000 0.828159 0.117705
0.280583 0.806833 0.096379
0.606421 0.790022 0.079568
0.884849 0.775657 0.065203
1.000000 0.767568 0.057114
0.000000 1.000000 0.068180
0.231057 1.000000 0.046854
0.556895 1.000000 0.030043
0.835323 1.000000 0.015678
0.992112 1.000000 0.007589
0.027625 0.000000 0.556476
0.440979 0.000000 0.535150
0.766817 0.000000 0.518339
1.000000 0.000000 0.503975
1.000000 0.000000 0.495885
0.000000 0.245350 0.505729
0.390232 0.224024 0.484403
0.716070 0.207213 0.467592
0.994498 0.192848 0.453227
1.000000 0.184759 0.445138
0.000000 0.535329 0.448409
0.332911 0.514003 0.427083
0.658750 0.497192 0.410272
0.937178 0.482827 0.395907
1.000000 0.474738 0.387818
0.000000 0.823521 0.391442
0.275944 0.802194 0.370116
0.601783 0.785384 0.353305
0.880211 0.771019 0.338940
1.000000 0.762930 0.330851
0.000000 1.000000 0.341916
0.226419 1.000000 0.320590
0.552257 1.000000 0.303779
0.830685 1.000000 0.289415
0.987474 1.000000 0.281325
0.022360 0.000000 0.867251
0.435713 0.000000 0.845925
0.761551 0.000000 0.829114
1.000000 0.000000 0.814749
1.000000 0.000000 0.806660
0.000000 0.240085 0.816504
0.384966 0.218758 0.795178
0.710804 0.201948 0.778367
0.989232 0.187583 0.764002
1.000000 0.179494 0.755913
0.000000 0.530063 0.759183
0.327646 0.508737 0.737857
0.653484 0.491926 0.721046
0.931912 0.477561 0.706681
1.000000 0.469472 0.698592
0.000000 0.818255 0.702216
0.270679 0.796929 0.680890
0.596517 0.780118 0.664079
0.874945 0.765753 0.649714
1.000000 0.757664 0.641625
0.000000 1.000000 0.652691
0.221153 1.000000 0.631365
0.546991 1.000000 0.614554
0.825419 1.000000 0.600189
0.982209 1.000000 0.592100
0.016510 0.000000 1.000000
0.429863 0.000000 1.000000
0.755701 0.000000 1.000000
1.000000 0.000000 1.000000
1.000000 0.000000 1.000000
0.000000 0.234235 1.000000
0.379116 0.212908 1.000000
0.704954 0.196098 1.000000
0.983382 0.181733 1.000000
1.000000 0.173644 1.000000
0.000000 0.524213 1.000000
0.321796 0.502887 1.000000
0.647634 0.486076 1.000000
0.926062 0.471711 1.000000
1.000000 0.463622 1.000000
0.000000 0.812405 1.000000
0.264829 0.791079 1.000000
0.590667 0.774268 1.000000
0.869095 0.759903 0.994973
1.000000 0.751814 0.986884
0.000000 1.000000 0.997950
0.215303 1.000000 0.976624
0.541141 1.000000 0.959813
0.819569 1.000000 0.945448
0.976359 1.000000 0.937359
