luts/creative/cross_process.cube
TITLE "Cross Processing"
LUT_3D_SIZE 9
DOMAIN_MIN 0.0 0.0 0.0
DOMAIN_MAX 1.0 1.0 1.0
0.036004 0.000000 0.062004
0.261715 0.000000 0.050359
0.449357 0.000000 0.040678
0.619121 0.000000 0.031919
0.775195 0.000000 0.023867
0.919618 0.000000 0.016416
1.000000 0.000000 0.009502
1.000000 0.000000 0.003082
1.000000 0.000000 0.001413
0.013559 0.110549 0.039559
0.239270 0.098904 0.027914
0.426913 0.089223 0.018233
0.596677 0.080464 0.009474
0.752751 0.072412 0.001422
0.897173 0.064961 0.000000
1.000000 0.058047 0.000000
1.000000 0.051628 0.000000
1.000000 0.049958 0.000000
0.000000 0.253729 0.011257
0.210968 0.242083 0.000000
0.398610 0.232402 0.000000
0.568374 0.223644 0.000000
0.724448 0.215592 0.000000
0.868871 0.208140 0.000000
1.000000 0.201227 0.000000
1.000000 0.194807 0.000000
1.000000 0.193138 0.000000
0.000000 0.398606 0.000000
0.182330 0.386961 0.000000
0.369972 0.377280 0.000000
0.539736 0.368521 0.000000
0.695810 0.360469 0.000000
0.840232 0.353018 0.000000
0.974238 0.346104 0.000000
1.000000 0.339685 0.000000
1.000000 0.338015 0.000000
0.000000 0.543707 0.000000
0.153647 0.532062 0.000000
0.341290 0.522381 0.000000
0.511054 0.513622 0.000000
0.667128 0.505570 0.000000
0.811550 0.498119 0.000000
0.945556 0.491205 0.000000
1.000000 0.484786 0.000000
1.000000 0.483116 0.000000
0.000000 0.688291 0.000000
0.125067 0.676646 0.000000
0.312710 0.666965 0.000000
0.482474 0.658206 0.000000
0.638548 0.650154 0.000000
0.782970 0.642703 0.000000
0.916976 0.635789 0.000000
1.000000 0.629369 0.000000
1.000000 0.627700 0.000000
0.000000 0.831899 0.000000
0.096680 0.820254 0.000000
0.284323 0.810573 0.000000
0.454087 0.801814 0.000000
0.610161 0.793762 0.000000
0.754583 0.786311 0.000000
0.888589 0.779397 0.000000
1.000000 0.772977 0.000000
1.000000 0.771308 0.000000
0.000000 0.974215 0.000000
0.068548 0.962570 0.000000
0.256191 0.952889 0.000000
0.425955 0.944131 0.000000
0.582029 0.936079 0.000000
0.726451 0.928627 0.000000
0.860457 0.921714 0.000000
0.984888 0.915294 0.000000
1.000000 0.913624 0.000000
0.000000 1.000000 0.000000
0.047155 1.000000 0.000000
0.234797 1.000000 0.000000
0.404561 1.000000 0.000000
0.560635 1.000000 0.000000
0.705058 1.000000 0.000000
0.839063 1.000000 0.000000
0.963494 1.000000 0.000000
0.995853 1.000000 0.000000
0.034302 0.000000 0.162439
0.260013 0.000000 0.150794
0.447655 0.000000 0.141113
0.617419 0.000000 0.132354
0.773494 0.000000 0.124302
0.917916 0.000000 0.116851
1.000000 0.000000 0.109937
1.000000 0.000000 0.103517
1.000000 0.000000 0.101848
0.011857 0.108847 0.139994
0.237568 0.097202 0.128349
0.425211 0.087521 0.118668
0.594975 0.078763 0.109910
0.751049 0.070710 0.101857
0.895471 0.063259 0.094406
1.000000 0.056345 0.087492
1.000000 0.049926 0.081073
1.000000 0.048256 0.079403
0.000000 0.252027 0.111692
0.209266 0.240382 0.100047
0.396908 0.230701 0.090366
0.566672 0.221942 0.081607
0.722747 0.213890 0.073555
0.867169 0.206439 0.066104
1.000000 0.199525 0.059190
1.000000 0.193105 0.052770
1.000000 0.191436 0.051101
0.000000 0.396904 0.083054
0.180628 0.385259 0.071409
0.368270 0.375578 0.061728
0.538034 0.366820 0.052969
0.694108 0.358767 0.044917
0.838531 0.351316 0.037466
0.972537 0.344403 0.030552
1.000000 0.337983 0.024132
1.000000 0.336313 0.022463
0.000000 0.542005 0.054371
0.151946 0.530360 0.042726
0.339588 0.520679 0.033045
0.509352 0.511921 0.024287
0.665426 0.503868 0.016235
0.809848 0.496417 0.008783
0.943854 0.489504 0.001870
1.000000 0.483084 0.000000
1.000000 0.481414 0.000000
0.000000 0.686589 0.025792
0.123366 0.674944 0.014146
0.311008 0.665263 0.004465
0.480772 0.656504 0.000000
0.636846 0.648452 0.000000
0.781268 0.641001 0.000000
0.915274 0.634087 0.000000
1.000000 0.627667 0.000000
1.000000 0.625998 0.000000
0.000000 0.830197 0.000000
0.094978 0.818552 0.000000
0.282621 0.808871 0.000000
0.452385 0.800112 0.000000
0.608459 0.792060 0.000000
0.752881 0.784609 0.000000
0.886887 0.777695 0.000000
1.000000 0.771275 0.000000
1.000000 0.769606 0.000000
0.000000 0.972514 0.000000
0.066846 0.960869 0.000000
0.254489 0.951188 0.000000
0.424253 0.942429 0.000000
0.580327 0.934377 0.000000
0.724749 0.926926 0.000000
0.858755 0.920012 0.000000
0.983186 0.913592 0.000000
1.000000 0.911923 0.000000
0.000000 1.000000 0.000000
0.045453 1.000000 0.000000
0.233095 1.000000 0.000000
0.402859 1.000000 0.000000
0.558934 1.000000 0.000000
0.703356 1.000000 0.000000
0.837362 1.000000 0.000000
0.961792 1.000000 0.000000
0.994151 1.000000 0.000000
0.032263 0.000000 0.282740
0.257975 0.000000 0.271095
0.445617 0.000000 0.261414
0.615381 0.000000 0.252655
0.771455 0.000000 0.244603
0.915878 0.000000 0.237152
1.000000 0.000000 0.230238
1.000000 0.000000 0.223818
1.000000 0.000000 0.222149
0.009819 0.106809 0.260295
0.235530 0.095164 0.248650
0.423172 0.085483 0.238969
0.592936 0.076724 0.230210
0.749011 0.068672 0.222158
0.893433 0.061221 0.214707
1.000000 0.054307 0.207793
1.000000 0.047887 0.201374
1.000000 0.046218 0.199704
0.000000 0.249988 0.231993
0.207228 0.238343 0.220348
0.394870 0.228662 0.210667
0.564634 0.219904 0.201908
0.720708 0.211851 0.193856
0.865130 0.204400 0.186405
0.999136 0.197487 0.179491
1.000000 0.191067 0.173071
1.000000 0.189397 0.171402
0.000000 0.394866 0.203355
0.178589 0.383221 0.191710
0.366232 0.373540 0.182029
0.535996 0.364781 0.173270
0.692070 0.356729 0.165218
0.836492 0.349278 0.157767
0.970498 0.342364 0.150853
1.000000 0.335944 0.144433
1.000000 0.334275 0.142764
0.000000 0.539967 0.174672
0.149907 0.528322 0.163027
0.337550 0.518641 0.153346
0.507314 0.509882 0.144588
0.663388 0.501830 0.136535
0.807810 0.494379 0.129084
0.941816 0.487465 0.122171
1.000000 0.481045 0.115751
1.000000 0.479376 0.114081
0.000000 0.684551 0.146092
0.121327 0.672905 0.134447
0.308970 0.663224 0.124766
0.478734 0.654466 0.116008
0.634808 0.646414 0.107955
0.779230 0.638962 0.100504
0.913236 0.632049 0.093591
1.000000 0.625629 0.087171
1.000000 0.623960 0.085501
0.000000 0.828159 0.117705
0.092940 0.816514 0.106060
0.280583 0.806833 0.096379
0.450347 0.798074 0.087621
0.606421 0.790022 0.079568
0.750843 0.782571 0.072117
0.884849 0.775657 0.065203
1.000000 0.769237 0.058784
1.000000 0.767568 0.057114
0.000000 0.970475 0.089573
0.064808 0.958830 0.077928
0.252451 0.949149 0.068247
0.422215 0.940391 0.059489
0.578289 0.932338 0.051436
0.722711 0.924887 0.043985
0.856717 0.917974 0.037072
0.981147 0.911554 0.030652
1.000000 0.909884 0.028982
0.000000 1.000000 0.068180
0.043415 1.000000 0.056535
0.231057 1.000000 0.046854
0.400821 1.000000 0.038095
0.556895 1.000000 0.030043
0.701318 1.000000 0.022592
0.835323 1.000000 0.015678
0.959754 1.000000 0.009258
0.992112 1.000000 0.007589
0.030028 0.000000 0.414658
0.255739 0.000000 0.403013
0.443382 0.000000 0.393332
0.613146 0.000000 0.384573
0.769220 0.000000 0.376521
0.913642 0.000000 0.369070
1.000000 0.000000 0.362156
1.000000 0.000000 0.355736
1.000000 0.000000 0.354067
0.007584 0.104574 0.392213
0.233295 0.092929 0.380568
0.420937 0.083248 0.370887
0.590701 0.074489 0.362128
0.746775 0.066437 0.354076
0.891198 0.058986 0.346625
1.000000 0.052072 0.339711
1.000000 0.045652 0.333291
1.000000 0.043983 0.331622
0.000000 0.247753 0.363911
0.204992 0.236108 0.352266
0.392635 0.226427 0.342585
0.562399 0.217669 0.333826
0.718473 0.209616 0.325774
0.862895 0.202165 0.318323
0.996901 0.195251 0.311409
1.000000 0.188832 0.304989
1.000000 0.187162 0.303320
0.000000 0.392631 0.335273
0.176354 0.380986 0.323627
0.363997 0.371305 0.313946
0.533761 0.362546 0.305188
0.689835 0.354494 0.297136
0.834257 0.347043 0.289684
0.968263 0.340129 0.282771
1.000000 0.333709 0.276351
1.000000 0.332040 0.274682
0.000000 0.537732 0.306590
0.147672 0.526087 0.294945
0.335314 0.516406 0.285264
0.505079 0.507647 0.276506
0.661153 0.499595 0.268453
0.805575 0.492144 0.261002
0.939581 0.485230 0.254088
1.000000 0.478810 0.247669
1.000000 0.477141 0.245999
0.000000 0.682315 0.278010
0.119092 0.670670 0.266365
0.306734 0.660989 0.256684
0.476499 0.652231 0.247926
0.632573 0.644178 0.239873
0.776995 0.636727 0.232422
0.911001 0.629813 0.225508
1.000000 0.623394 0.219089
1.000000 0.621724 0.217419
0.000000 0.825923 0.249623
0.090705 0.814278 0.237978
0.278347 0.804597 0.228297
0.448111 0.795839 0.219538
0.604185 0.787787 0.211486
0.748608 0.780335 0.204035
0.882614 0.773422 0.197121
1.000000 0.767002 0.190702
1.000000 0.765332 0.189032
0.000000 0.968240 0.221491
0.062573 0.956595 0.209846
0.250215 0.946914 0.200165
0.419979 0.938156 0.191407
0.576054 0.930103 0.183354
0.720476 0.922652 0.175903
0.854482 0.915738 0.168989
0.978912 0.909319 0.162570
1.000000 0.907649 0.160900
0.000000 1.000000 0.200098
0.041179 1.000000 0.188453
0.228822 1.000000 0.178772
0.398586 1.000000 0.170013
0.554660 1.000000 0.161961
0.699082 1.000000 0.154510
0.833088 1.000000 0.147596
0.957519 1.000000 0.141176
0.989877 1.000000 0.139507
0.027625 0.000000 0.556476
0.253336 0.000000 0.544831
0.440979 0.000000 0.535150
0.610743 0.000000 0.526392
0.766817 0.000000 0.518339
0.911239 0.000000 0.510888
1.000000 0.000000 0.503975
1.000000 0.000000 0.497555
1.000000 0.000000 0.495885
0.005181 0.102171 0.534032
0.230892 0.090526 0.522387
0.418534 0.080845 0.512706
0.588298 0.072086 0.503947
0.744372 0.064034 0.495895
0.888795 0.056583 0.488444
1.000000 0.049669 0.481530
1.000000 0.043249 0.475110
1.000000 0.041580 0.473441
0.000000 0.245350 0.505729
0.202589 0.233705 0.494084
0.390232 0.224024 0.484403
0.559996 0.215266 0.475645
0.716070 0.207213 0.467592
0.860492 0.199762 0.460141
0.994498 0.192848 0.453227
1.000000 0.186429 0.446808
1.000000 0.184759 0.445138
0.000000 0.390228 0.477091
0.173951 0.378583 0.465446
0.361594 0.368902 0.455765
0.531358 0.360143 0.447007
0.687432 0.352091 0.438954
0.831854 0.344640 0.431503
0.965860 0.337726 0.424589
1.000000 0.331306 0.418170
1.000000 0.329637 0.416500
0.000000 0.535329 0.448409
0.145269 0.523684 0.436764
0.332911 0.514003 0.427083
0.502676 0.505244 0.418324
0.658750 0.497192 0.410272
0.803172 0.489741 0.402821
0.937178 0.482827 0.395907
1.000000 0.476407 0.389487
1.000000 0.474738 0.387818
0.000000 0.679912 0.419829
0.116689 0.668267 0.408184
0.304332 0.658586 0.398503
0.474096 0.649828 0.389744
0.630170 0.641775 0.381692
0.774592 0.634324 0.374241
0.908598 0.627411 0.367327
1.000000 0.620991 0.360907
1.000000 0.619321 0.359238
0.000000 0.823521 0.391442
0.088302 0.811875 0.379797
0.275944 0.802194 0.370116
0.445708 0.793436 0.361357
0.601783 0.785384 0.353305
0.746205 0.777932 0.345854
0.880211 0.771019 0.338940
1.000000 0.764599 0.332520
1.000000 0.762930 0.330851
0.000000 0.965837 0.363310
0.060170 0.954192 0.351665
0.247812 0.944511 0.341984
0.417577 0.935753 0.333225
0.573651 0.927700 0.325173
0.718073 0.920249 0.317722
0.852079 0.913335 0.310808
0.976509 0.906916 0.304388
1.000000 0.905246 0.302719
0.000000 1.000000 0.341916
0.038776 1.000000 0.330271
0.226419 1.000000 0.320590
0.396183 1.000000 0.311832
0.552257 1.000000 0.303779
0.696679 1.000000 0.296328
0.830685 1.000000 0.289415
0.955116 1.000000 0.282995
0.987474 1.000000 0.281325
0.025067 0.000000 0.707464
0.250778 0.000000 0.695819
0.438421 0.000000 0.686138
0.608185 0.000000 0.677380
0.764259 0.000000 0.669327
0.908681 0.000000 0.661876
1.000000 0.000000 0.654962
1.000000 0.000000 0.648543
1.000000 0.000000 0.646873
0.002622 0.099612 0.685020
0.228333 0.087967 0.673375
0.415976 0.078286 0.663694
0.585740 0.069528 0.654935
0.741814 0.061476 0.646883
0.886236 0.054024 0.639431
1.000000 0.047111 0.632518
1.000000 0.040691 0.626098
1.000000 0.039021 0.624429
0.000000 0.242792 0.656717
0.200031 0.231147 0.645072
0.387674 0.221466 0.635391
0.557438 0.212707 0.626633
0.713512 0.204655 0.618580
0.857934 0.197204 0.611129
0.991940 0.190290 0.604215
1.000000 0.183870 0.597796
1.000000 0.182201 0.596126
0.000000 0.387669 0.628079
0.171393 0.376024 0.616434
0.359035 0.366343 0.606753
0.528799 0.357585 0.597994
0.684874 0.349533 0.589942
0.829296 0.342081 0.582491
0.963302 0.335168 0.575577
1.000000 0.328748 0.569158
1.000000 0.327078 0.567488
0.000000 0.532771 0.599397
0.142711 0.521125 0.587752
0.330353 0.511444 0.578071
0.500117 0.502686 0.569312
0.656191 0.494634 0.561260
0.800614 0.487182 0.553809
0.934619 0.480269 0.546895
1.000000 0.473849 0.540475
1.000000 0.472180 0.538806
0.000000 0.677354 0.570817
0.114131 0.665709 0.559172
0.301773 0.656028 0.549491
0.471537 0.647269 0.540732
0.627611 0.639217 0.532680
0.772034 0.631766 0.525229
0.906039 0.624852 0.518315
1.000000 0.618433 0.511895
1.000000 0.616763 0.510226
0.000000 0.820962 0.542430
0.085744 0.809317 0.530785
0.273386 0.799636 0.521104
0.443150 0.790878 0.512345
0.599224 0.782825 0.504293
0.743646 0.775374 0.496842
0.877652 0.768460 0.489928
1.000000 0.762041 0.483508
1.000000 0.760371 0.481839
0.000000 0.963279 0.514298
0.057612 0.951634 0.502653
0.245254 0.941953 0.492972
0.415018 0.933194 0.484213
0.571092 0.925142 0.476161
0.715515 0.917691 0.468710
0.849520 0.910777 0.461796
0.973951 0.904357 0.455376
1.000000 0.902688 0.453707
0.000000 1.000000 0.492904
0.036218 1.000000 0.481259
0.223861 1.000000 0.471578
0.393625 1.000000 0.462820
0.549699 1.000000 0.454767
0.694121 1.000000 0.447316
0.828127 1.000000 0.440402
0.952557 1.000000 0.433983
0.984916 1.000000 0.432313
0.022360 0.000000 0.867251
0.248071 0.000000 0.855606
0.435713 0.000000 0.845925
0.605477 0.000000 0.837166
0.761551 0.000000 0.829114
0.905974 0.000000 0.821663
1.000000 0.000000 0.814749
1.000000 0.000000 0.808329
1.000000 0.000000 0.806660
0.000000 0.096905 0.844806
0.225626 0.085260 0.833161
0.413269 0.075579 0.823480
0.583033 0.066820 0.814721
0.739107 0.058768 0.806669
0.883529 0.051317 0.799218
1.000000 0.044403 0.792304
1.000000 0.037984 0.785884
1.000000 0.036314 0.784215
0.000000 0.240085 0.816504
0.197324 0.228439 0.804859
0.384966 0.218758 0.795178
0.554730 0.210000 0.786419
0.710804 0.201948 0.778367
0.855227 0.194496 0.770915
0.989232 0.187583 0.764002
1.000000 0.181163 0.757582
1.000000 0.179494 0.755913
0.000000 0.384962 0.787865
0.168686 0.373317 0.776220
0.356328 0.363636 0.766539
0.526092 0.354877 0.757781
0.682166 0.346825 0.749729
0.826588 0.339374 0.742277
0.960594 0.332460 0.735364
1.000000 0.326041 0.728944
1.000000 0.324371 0.727274
0.000000 0.530063 0.759183
0.140003 0.518418 0.747538
0.327646 0.508737 0.737857
0.497410 0.499978 0.729099
0.653484 0.491926 0.721046
0.797906 0.484475 0.713595
0.931912 0.477561 0.706681
1.000000 0.471142 0.700262
1.000000 0.469472 0.698592
0.000000 0.674647 0.730603
0.111423 0.663002 0.718958
0.299066 0.653321 0.709277
0.468830 0.644562 0.700519
0.624904 0.636510 0.692466
0.769326 0.629059 0.685015
0.903332 0.622145 0.678101
1.000000 0.615725 0.671682
1.000000 0.614056 0.670012
0.000000 0.818255 0.702216
0.083036 0.806610 0.690571
0.270679 0.796929 0.680890
0.440443 0.788170 0.672131
0.596517 0.780118 0.664079
0.740939 0.772667 0.656628
0.874945 0.765753 0.649714
0.999375 0.759333 0.643295
1.000000 0.757664 0.641625
0.000000 0.960572 0.674084
0.054904 0.948926 0.662439
0.242547 0.939245 0.652758
0.412311 0.930487 0.644000
0.568385 0.922435 0.635947
0.712807 0.914983 0.628496
0.846813 0.908070 0.621582
0.971244 0.901650 0.615163
1.000000 0.899981 0.613493
0.000000 1.000000 0.652691
0.033511 1.000000 0.641046
0.221153 1.000000 0.631365
0.390917 1.000000 0.622606
0.546991 1.000000 0.614554
0.691414 1.000000 0.607103
0.825419 1.000000 0.600189
0.949850 1.000000 0.593769
0.982209 1.000000 0.592100
0.019507 0.000000 1.000000
0.245218 0.000000 1.000000
0.432860 0.000000 1.000000
0.602624 0.000000 1.000000
0.758698 0.000000 0.997498
0.903121 0.000000 0.990047
1.000000 0.000000 0.983133
1.000000 0.000000 0.976714
1.000000 0.000000 0.975044
0.000000 0.094052 1.000000
0.222773 0.082407 1.000000
0.410415 0.072726 0.991864
0.580180 0.063967 0.983106
0.736254 0.055915 0.975054
0.880676 0.048464 0.967602
1.000000 0.041550 0.960689
1.000000 0.035130 0.954269
1.000000 0.033461 0.952600
0.000000 0.237231 0.984888
0.194471 0.225586 0.973243
0.382113 0.215905 0.963562
0.551877 0.207147 0.954803
0.707951 0.199095 0.946751
0.852373 0.191643 0.939300
0.986379 0.184730 0.932386
1.000000 0.178310 0.925967
1.000000 0.176640 0.924297
0.000000 0.382109 0.956250
0.165832 0.370464 0.944605
0.353475 0.360783 0.934924
0.523239 0.352024 0.926165
0.679313 0.343972 0.918113
0.823735 0.336521 0.910662
0.957741 0.329607 0.903748
1.000000 0.323187 0.897328
1.000000 0.321518 0.895659
0.000000 0.527210 0.927568
0.137150 0.515565 0.915923
0.324793 0.505884 0.906242
0.494557 0.497125 0.897483
0.650631 0.489073 0.889431
0.795053 0.481622 0.881980
0.929059 0.474708 0.875066
1.000000 0.468289 0.868646
1.000000 0.466619 0.866977
0.000000 0.671794 0.898988
0.108570 0.660149 0.887343
0.296213 0.650468 0.877662
0.465977 0.641709 0.868903
0.622051 0.633657 0.860851
0.766473 0.626205 0.853400
0.900479 0.619292 0.846486
1.000000 0.612872 0.840066
1.000000 0.611203 0.838397
0.000000 0.815402 0.870601
0.080183 0.803757 0.858956
0.267826 0.794076 0.849275
0.437590 0.785317 0.840516
0.593664 0.777265 0.832464
0.738086 0.769814 0.825013
0.872092 0.762900 0.818099
0.996522 0.756480 0.811679
1.000000 0.754811 0.810010
0.000000 0.957718 0.842469
0.052051 0.946073 0.830824
0.239694 0.936392 0.821143
0.409458 0.927634 0.812384
0.565532 0.919581 0.804332
0.709954 0.912130 0.796881
0.843960 0.905217 0.789967
0.968390 0.898797 0.783547
1.000000 0.897127 0.781878
0.000000 1.000000 0.821075
0.030658 1.000000 0.809430
0.218300 1.000000 0.799749
0.388064 1.000000 0.790991
0.544138 1.000000 0.782938
0.688561 1.000000 0.775487
0.822566 1.000000 0.768573
0.946997 1.000000 0.762154
0.979356 1.000000 0.760484
0.016510 0.000000 1.000000
0.242221 0.000000 1.000000
0.429863 0.000000 1.000000
0.599627 0.000000 1.000000
0.755701 0.000000 1.000000
0.900124 0.000000 1.000000
1.000000 0.000000 1.000000
1.000000 0.000000 1.000000
1.000000 0.000000 1.000000
0.000000 0.091055 1.000000
0.219776 0.079410 1.000000
0.407419 0.069729 1.000000
0.577183 0.060970 1.000000
0.733257 0.052918 1.000000
0.877679 0.045467 1.000000
1.000000 0.038553 1.000000
1.000000 0.032134 1.000000
1.000000 0.030464 1.000000
0.000000 0.234235 1.000000
0.191474 0.222589 1.000000
0.379116 0.212908 1.000000
0.548880 0.204150 1.000000
0.704954 0.196098 1.000000
0.849377 0.188646 1.000000
0.983382 0.181733 1.000000
1.000000 0.175313 1.000000
1.000000 0.173644 1.000000
0.000000 0.379112 1.000000
0.162836 0.367467 1.000000
0.350478 0.357786 1.000000
0.520242 0.349027 1.000000
0.676316 0.340975 1.000000
0.820738 0.333524 1.000000
0.954744 0.326610 1.000000
1.000000 0.320191 1.000000
1.000000 0.318521 1.000000
0.000000 0.524213 1.000000
0.134153 0.512568 1.000000
0.321796 0.502887 1.000000
0.491560 0.494128 1.000000
0.647634 0.486076 1.000000
0.792056 0.478625 1.000000
0.926062 0.471711 1.000000
1.000000 0.465292 1.000000
1.000000 0.463622 1.000000
0.000000 0.668797 1.000000
0.105573 0.657152 1.000000
0.293216 0.647471 1.000000
0.462980 0.638712 1.000000
0.619054 0.630660 1.000000
0.763476 0.623209 1.000000
0.897482 0.616295 1.000000
1.000000 0.609875 1.000000
1.000000 0.608206 1.000000
0.000000 0.812405 1.000000
0.077186 0.800760 1.000000
0.264829 0.791079 1.000000
0.434593 0.782320 1.000000
0.590667 0.774268 1.000000
0.735089 0.766817 1.000000
0.869095 0.759903 0.994973
0.993525 0.753483 0.988554
1.000000 0.751814 0.986884
0.000000 0.954721 1.000000
0.049054 0.943076 1.000000
0.236697 0.933395 0.998017
0.406461 0.924637 0.989259
0.562535 0.916585 0.981206
0.706957 0.909133 0.973755
0.840963 0.902220 0.966841
0.965394 0.895800 0.960422
0.997752 0.894130 0.958752
0.000000 1.000000 0.997950
0.027661 1.000000 0.986305
0.215303 1.000000 0.976624
0.385067 1.000000 0.967865
0.541141 1.000000 0.959813
0.685564 1.000000 0.952362
0.819569 1.000000 0.945448
0.944000 1.000000 0.939028
0.976359 1.000000 0.937359
