luts/creative/cross_process.cube
TITLE "Cross Processing"
LUT_3D_SIZE 17
DOMAIN_MIN 0.0 0.0 0.0
DOMAIN_MAX 1.0 1.0 1.0
0.036004 0.000000 0.062004
0.157785 0.000000 0.055721
0.261715 0.000000 0.050359
0.358213 0.000000 0.045380
0.449357 0.000000 0.040678
0.536132 0.000000 0.036201
0.619121 0.000000 0.031919
0.698716 0.000000 0.027812
0.775195 0.000000 0.023867
0.848774 0.000000 0.020071
0.919618 0.000000 0.016416
0.987863 0.000000 0.012895
1.000000 0.000000 0.009502
1.000000 0.000000 0.006232
1.000000 0.000000 0.003082
1.000000 0.000000 0.001413
1.000000 0.000000 0.001413
0.027359 0.040737 0.053359
0.149140 0.034454 0.047076
0.253070 0.029092 0.041714
0.349568 0.024114 0.036735
0.440712 0.019411 0.032033
0.527487 0.014934 0.027556
0.610476 0.010653 0.023274
0.690071 0.006546 0.019168
0.766550 0.002600 0.015222
0.840129 0.000000 0.011426
0.910973 0.000000 0.007771
0.979218 0.000000 0.004250
1.000000 0.000000 0.000857
1.000000 0.000000 0.000000
1.000000 0.000000 0.000000
1.000000 0.000000 0.000000
1.000000 0.000000 0.000000
0.013559 0.110549 0.039559
0.135340 0.104266 0.033276
0.239270 0.098904 0.027914
0.335769 0.093925 0.022935
0.426913 0.089223 0.018233
0.513687 0.084746 0.013756
0.596677 0.080464 0.009474
0.676271 0.076358 0.005368
0.752751 0.072412 0.001422
0.826329 0.068616 0.000000
0.897173 0.064961 0.000000
0.965419 0.061440 0.000000
1.000000 0.058047 0.000000
1.000000 0.054778 0.000000
1.000000 0.051628 0.000000
1.000000 0.049958 0.000000
1.000000 0.049958 0.000000
0.000000 0.181774 0.025480
0.121261 0.175491 0.019197
0.225191 0.170129 0.013835
0.321689 0.165150 0.008856
0.412833 0.160448 0.004154
0.499608 0.155971 0.000000
0.582597 0.151690 0.000000
0.662192 0.147583 0.000000
0.738672 0.143637 0.000000
0.812250 0.139841 0.000000
0.883094 0.136186 0.000000
0.951340 0.132665 0.000000
1.000000 0.129272 0.000000
1.000000 0.126003 0.000000
1.000000 0.122853 0.000000
1.000000 0.121183 0.000000
1.000000 0.121183 0.000000
0.000000 0.253729 0.011257
0.107038 0.247445 0.004973
0.210968 0.242083 0.000000
0.307466 0.237105 0.000000
0.398610 0.232402 0.000000
0.485385 0.227926 0.000000
0.568374 0.223644 0.000000
0.647968 0.219537 0.000000
0.724448 0.215592 0.000000
0.798026 0.211795 0.000000
0.868871 0.208140 0.000000
0.937116 0.204619 0.000000
1.000000 0.201227 0.000000
1.000000 0.197957 0.000000
1.000000 0.194807 0.000000
1.000000 0.193138 0.000000
1.000000 0.193138 0.000000
0.000000 0.326074 0.000000
0.092737 0.319791 0.000000
0.196667 0.314429 0.000000
0.293165 0.309451 0.000000
0.384309 0.304748 0.000000
0.471084 0.300271 0.000000
0.554074 0.295990 0.000000
0.633668 0.291883 0.000000
0.710148 0.287937 0.000000
0.783726 0.284141 0.000000
0.854570 0.280486 0.000000
0.922816 0.276965 0.000000
0.988576 0.273572 0.000000
1.000000 0.270303 0.000000
1.000000 0.267153 0.000000
1.000000 0.265483 0.000000
1.000000 0.265483 0.000000
0.000000 0.398606 0.000000
0.078400 0.392323 0.000000
0.182330 0.386961 0.000000
0.278828 0.381982 0.000000
0.369972 0.377280 0.000000
0.456747 0.372803 0.000000
0.539736 0.368521 0.000000
0.619330 0.364415 0.000000
0.695810 0.360469 0.000000
0.769388 0.356673 0.000000
0.840232 0.353018 0.000000
0.908478 0.349497 0.000000
0.974238 0.346104 0.000000
1.000000 0.342835 0.000000
1.000000 0.339685 0.000000
1.000000 0.338015 0.000000
1.000000 0.338015 0.000000
0.000000 0.471184 0.000000
0.064053 0.464901 0.000000
0.167983 0.459539 0.000000
0.264481 0.454561 0.000000
0.355625 0.449858 0.000000
0.442400 0.445381 0.000000
0.525389 0.441100 0.000000
0.604984 0.436993 0.000000
0.681464 0.433047 0.000000
0.755042 0.429251 0.000000
0.825886 0.425596 0.000000
0.894132 0.422075 0.000000
0.959892 0.418682 0.000000
1.000000 0.415413 0.000000
1.000000 0.412263 0.000000
1.000000 0.410593 0.000000
1.000000 0.410593 0.000000
0.000000 0.543707 0.000000
0.049718 0.537424 0.000000
0.153647 0.532062 0.000000
0.250146 0.527083 0.000000
0.341290 0.522381 0.000000
0.428064 0.517904 0.000000
0.511054 0.513622 0.000000
0.590648 0.509516 0.000000
0.667128 0.505570 0.000000
0.740706 0.501774 0.000000
0.811550 0.498119 0.000000
0.879796 0.494598 0.000000
0.945556 0.491205 0.000000
1.000000 0.487936 0.000000
1.000000 0.484786 0.000000
1.000000 0.483116 0.000000
1.000000 0.483116 0.000000
0.000000 0.616097 0.000000
0.035408 0.609813 0.000000
0.139338 0.604451 0.000000
0.235836 0.599473 0.000000
0.326980 0.594770 0.000000
0.413755 0.590294 0.000000
0.496745 0.586012 0.000000
0.576339 0.581905 0.000000
0.652819 0.577960 0.000000
0.726397 0.574163 0.000000
0.797241 0.570508 0.000000
0.865487 0.566987 0.000000
0.931247 0.563595 0.000000
0.994616 0.560325 0.000000
1.000000 0.557175 0.000000
1.000000 0.555506 0.000000
1.000000 0.555506 0.000000
0.000000 0.688291 0.000000
0.021138 0.682008 0.000000
0.125067 0.676646 0.000000
0.221566 0.671667 0.000000
0.312710 0.666965 0.000000
0.399484 0.662488 0.000000
0.482474 0.658206 0.000000
0.562068 0.654099 0.000000
0.638548 0.650154 0.000000
0.712126 0.646358 0.000000
0.782970 0.642703 0.000000
0.851216 0.639182 0.000000
0.916976 0.635789 0.000000
0.980346 0.632519 0.000000
1.000000 0.629369 0.000000
1.000000 0.627700 0.000000
1.000000 0.627700 0.000000
0.000000 0.760239 0.000000
0.006916 0.753956 0.000000
0.110845 0.748594 0.000000
0.207344 0.743615 0.000000
0.298488 0.738913 0.000000
0.385262 0.734436 0.000000
0.468252 0.730154 0.000000
0.547846 0.726048 0.000000
0.624326 0.722102 0.000000
0.697904 0.718306 0.000000
0.768748 0.714651 0.000000
0.836994 0.711130 0.000000
0.902754 0.707737 0.000000
0.966124 0.704468 0.000000
1.000000 0.701317 0.000000
1.000000 0.699648 0.000000
1.000000 0.699648 0.000000
0.000000 0.831899 0.000000
0.000000 0.825616 0.000000
0.096680 0.820254 0.000000
0.193179 0.815275 0.000000
0.284323 0.810573 0.000000
0.371097 0.806096 0.000000
0.454087 0.801814 0.000000
0.533681 0.797708 0.000000
0.610161 0.793762 0.000000
0.683739 0.789966 0.000000
0.754583 0.786311 0.000000
0.822829 0.782790 0.000000
0.888589 0.779397 0.000000
0.951959 0.776128 0.000000
1.000000 0.772977 0.000000
1.000000 0.771308 0.000000
1.000000 0.771308 0.000000
0.000000 0.903235 0.000000
0.000000 0.896952 0.000000
0.082579 0.891590 0.000000
0.179078 0.886611 0.000000
0.270222 0.881909 0.000000
0.356996 0.877432 0.000000
0.439986 0.873150 0.000000
0.519580 0.869044 0.000000
0.596060 0.865098 0.000000
0.669638 0.861302 0.000000
0.740482 0.857647 0.000000
0.808728 0.854126 0.000000
0.874488 0.850733 0.000000
0.937858 0.847463 0.000000
0.998918 0.844313 0.000000
1.000000 0.842644 0.000000
1.000000 0.842644 0.000000
0.000000 0.974215 0.000000
0.000000 0.967932 0.000000
0.068548 0.962570 0.000000
0.165047 0.957592 0.000000
0.256191 0.952889 0.000000
0.342965 0.948412 0.000000
0.425955 0.944131 0.000000
0.505549 0.940024 0.000000
0.582029 0.936079 0.000000
0.655607 0.932282 0.000000
0.726451 0.928627 0.000000
0.794697 0.925106 0.000000
0.860457 0.921714 0.000000
0.923827 0.918444 0.000000
0.984888 0.915294 0.000000
1.000000 0.913624 0.000000
1.000000 0.913624 0.000000
0.000000 1.000000 0.000000
0.000000 1.000000 0.000000
0.054593 1.000000 0.000000
0.151091 1.000000 0.000000
0.242235 1.000000 0.000000
0.329010 1.000000 0.000000
0.411999 1.000000 0.000000
0.491594 1.000000 0.000000
0.568074 1.000000 0.000000
0.641652 1.000000 0.000000
0.712496 0.999226 0.000000
0.780742 0.995705 0.000000
0.846502 0.992312 0.000000
0.909871 0.989043 0.000000
0.970932 0.985893 0.000000
1.000000 0.984223 0.000000
1.000000 0.984223 0.000000
0.000000 1.000000 0.000000
0.000000 1.000000 0.000000
0.047155 1.000000 0.000000
0.143653 1.000000 0.000000
0.234797 1.000000 0.000000
0.321572 1.000000 0.000000
0.404561 1.000000 0.000000
0.484156 1.000000 0.000000
0.560635 1.000000 0.000000
0.634214 1.000000 0.000000
0.705058 1.000000 0.000000
0.773303 1.000000 0.000000
0.839063 1.000000 0.000000
0.902433 1.000000 0.000000
0.963494 1.000000 0.000000
0.995853 1.000000 0.000000
0.995853 1.000000 0.000000
0.035222 0.000000 0.108123
0.157004 0.000000 0.101840
0.260933 0.000000 0.096478
0.357432 0.000000 0.091500
0.448576 0.000000 0.086797
0.535350 0.000000 0.082320
0.618340 0.000000 0.078039
0.697934 0.000000 0.073932
0.774414 0.000000 0.069987
0.847992 0.000000 0.066190
0.918836 0.000000 0.062535
0.987082 0.000000 0.059014
1.000000 0.000000 0.055622
1.000000 0.000000 0.052352
1.000000 0.000000 0.049202
1.000000 0.000000 0.047532
1.000000 0.000000 0.047532
0.026577 0.039956 0.099479
0.148359 0.033673 0.093195
0.252288 0.028311 0.087833
0.348787 0.023332 0.082855
0.439931 0.018630 0.078152
0.526705 0.014153 0.073676
0.609695 0.009871 0.069394
0.689289 0.005765 0.065287
0.765769 0.001819 0.061342
0.839347 0.000000 0.057545
0.910191 0.000000 0.053890
0.978437 0.000000 0.050369
1.000000 0.000000 0.046977
1.000000 0.000000 0.043707
1.000000 0.000000 0.040557
1.000000 0.000000 0.038888
1.000000 0.000000 0.038888
0.012778 0.109768 0.085679
0.134559 0.103485 0.079396
0.238489 0.098123 0.074034
0.334987 0.093144 0.069055
0.426131 0.088442 0.064353
0.512906 0.083965 0.059876
0.595895 0.079683 0.055594
0.675489 0.075576 0.051488
0.751969 0.071631 0.047542
0.825547 0.067835 0.043746
0.896392 0.064180 0.040091
0.964637 0.060659 0.036570
1.000000 0.057266 0.033177
1.000000 0.053996 0.029908
1.000000 0.050846 0.026757
1.000000 0.049177 0.025088
1.000000 0.049177 0.025088
0.000000 0.180993 0.071600
0.120480 0.174710 0.065317
0.224409 0.169348 0.059955
0.320908 0.164369 0.054976
0.412052 0.159667 0.050274
0.498827 0.155190 0.045797
0.581816 0.150908 0.041515
0.661410 0.146802 0.037409
0.737890 0.142856 0.033463
0.811468 0.139060 0.029667
0.882312 0.135405 0.026012
0.950558 0.131884 0.022491
1.000000 0.128491 0.019098
1.000000 0.125221 0.015828
1.000000 0.122071 0.012678
1.000000 0.120402 0.011009
1.000000 0.120402 0.011009
0.000000 0.252947 0.057376
0.106257 0.246664 0.051093
0.210186 0.241302 0.045731
0.306685 0.236323 0.040753
0.397829 0.231621 0.036050
0.484603 0.227144 0.031573
0.567593 0.222862 0.027292
0.647187 0.218756 0.023185
0.723667 0.214810 0.019239
0.797245 0.211014 0.015443
0.868089 0.207359 0.011788
0.936335 0.203838 0.008267
1.000000 0.200445 0.004875
1.000000 0.197176 0.001605
1.000000 0.194026 0.000000
1.000000 0.192356 0.000000
1.000000 0.192356 0.000000
0.000000 0.325293 0.043076
0.091956 0.319010 0.036793
0.195886 0.313648 0.031431
0.292384 0.308669 0.026452
0.383528 0.303967 0.021750
0.470303 0.299490 0.017273
0.553292 0.295208 0.012991
0.632886 0.291102 0.008885
0.709366 0.287156 0.004939
0.782944 0.283360 0.001143
0.853788 0.279705 0.000000
0.922034 0.276184 0.000000
0.987794 0.272791 0.000000
1.000000 0.269522 0.000000
1.000000 0.266371 0.000000
1.000000 0.264702 0.000000
1.000000 0.264702 0.000000
0.000000 0.397825 0.028738
0.077619 0.391542 0.022455
0.181548 0.386180 0.017093
0.278047 0.381201 0.012115
0.369191 0.376499 0.007412
0.455965 0.372022 0.002935
0.538955 0.367740 0.000000
0.618549 0.363634 0.000000
0.695029 0.359688 0.000000
0.768607 0.355892 0.000000
0.839451 0.352237 0.000000
0.907697 0.348716 0.000000
0.973457 0.345323 0.000000
1.000000 0.342053 0.000000
1.000000 0.338903 0.000000
1.000000 0.337234 0.000000
1.000000 0.337234 0.000000
0.000000 0.470403 0.014392
0.063272 0.464120 0.008109
0.167201 0.458758 0.002747
0.263700 0.453779 0.000000
0.354844 0.449077 0.000000
0.441619 0.444600 0.000000
0.524608 0.440318 0.000000
0.604202 0.436212 0.000000
0.680682 0.432266 0.000000
0.754260 0.428470 0.000000
0.825104 0.424815 0.000000
0.893350 0.421294 0.000000
0.959110 0.417901 0.000000
1.000000 0.414632 0.000000
1.000000 0.411481 0.000000
1.000000 0.409812 0.000000
1.000000 0.409812 0.000000
0.000000 0.542926 0.000056
0.048936 0.536643 0.000000
0.152866 0.531281 0.000000
0.249364 0.526302 0.000000
0.340508 0.521600 0.000000
0.427283 0.517123 0.000000
0.510272 0.512841 0.000000
0.589867 0.508735 0.000000
0.666346 0.504789 0.000000
0.739925 0.500993 0.000000
0.810769 0.497338 0.000000
0.879015 0.493817 0.000000
0.944775 0.490424 0.000000
1.000000 0.487154 0.000000
1.000000 0.484004 0.000000
1.000000 0.482335 0.000000
1.000000 0.482335 0.000000
0.000000 0.615315 0.000000
0.034627 0.609032 0.000000
0.138557 0.603670 0.000000
0.235055 0.598691 0.000000
0.326199 0.593989 0.000000
0.412974 0.589512 0.000000
0.495963 0.585230 0.000000
0.575557 0.581124 0.000000
0.652037 0.577178 0.000000
0.725615 0.573382 0.000000
0.796459 0.569727 0.000000
0.864705 0.566206 0.000000
0.930465 0.562813 0.000000
0.993835 0.559544 0.000000
1.000000 0.556394 0.000000
1.000000 0.554724 0.000000
1.000000 0.554724 0.000000
0.000000 0.687509 0.000000
0.020356 0.681226 0.000000
0.124286 0.675864 0.000000
0.220784 0.670886 0.000000
0.311928 0.666183 0.000000
0.398703 0.661706 0.000000
0.481692 0.657425 0.000000
0.561287 0.653318 0.000000
0.637767 0.649372 0.000000
0.711345 0.645576 0.000000
0.782189 0.641921 0.000000
0.850435 0.638400 0.000000
0.916195 0.635007 0.000000
0.979564 0.631738 0.000000
1.000000 0.628588 0.000000
1.000000 0.626918 0.000000
1.000000 0.626918 0.000000
0.000000 0.759457 0.000000
0.006134 0.753174 0.000000
0.110064 0.747812 0.000000
0.206562 0.742834 0.000000
0.297706 0.738131 0.000000
0.384481 0.733654 0.000000
0.467470 0.729373 0.000000
0.547065 0.725266 0.000000
0.623544 0.721320 0.000000
0.697123 0.717524 0.000000
0.767967 0.713869 0.000000
0.836212 0.710348 0.000000
0.901973 0.706956 0.000000
0.965342 0.703686 0.000000
1.000000 0.700536 0.000000
1.000000 0.698866 0.000000
1.000000 0.698866 0.000000
0.000000 0.831117 0.000000
0.000000 0.824834 0.000000
0.095899 0.819472 0.000000
0.192397 0.814494 0.000000
0.283541 0.809791 0.000000
0.370316 0.805314 0.000000
0.453305 0.801033 0.000000
0.532900 0.796926 0.000000
0.609379 0.792980 0.000000
0.682958 0.789184 0.000000
0.753802 0.785529 0.000000
0.822047 0.782008 0.000000
0.887807 0.778616 0.000000
0.951177 0.775346 0.000000
1.000000 0.772196 0.000000
1.000000 0.770526 0.000000
1.000000 0.770526 0.000000
0.000000 0.902453 0.000000
0.000000 0.896170 0.000000
0.081798 0.890808 0.000000
0.178296 0.885830 0.000000
0.269440 0.881127 0.000000
0.356215 0.876650 0.000000
0.439204 0.872369 0.000000
0.518798 0.868262 0.000000
0.595278 0.864316 0.000000
0.668857 0.860520 0.000000
0.739701 0.856865 0.000000
0.807946 0.853344 0.000000
0.873706 0.849951 0.000000
0.937076 0.846682 0.000000
0.998137 0.843532 0.000000
1.000000 0.841862 0.000000
1.000000 0.841862 0.000000
0.000000 0.973434 0.000000
0.000000 0.967151 0.000000
0.067767 0.961789 0.000000
0.164265 0.956810 0.000000
0.255409 0.952108 0.000000
0.342184 0.947631 0.000000
0.425173 0.943349 0.000000
0.504768 0.939243 0.000000
0.581247 0.935297 0.000000
0.654826 0.931501 0.000000
0.725670 0.927846 0.000000
0.793916 0.924325 0.000000
0.859676 0.920932 0.000000
0.923045 0.917663 0.000000
0.984106 0.914513 0.000000
1.000000 0.912843 0.000000
1.000000 0.912843 0.000000
0.000000 1.000000 0.000000
0.000000 1.000000 0.000000
0.053811 1.000000 0.000000
0.150310 1.000000 0.000000
0.241454 1.000000 0.000000
0.328229 1.000000 0.000000
0.411218 1.000000 0.000000
0.490812 1.000000 0.000000
0.567292 1.000000 0.000000
0.640870 1.000000 0.000000
0.711714 0.998445 0.000000
0.779960 0.994924 0.000000
0.845720 0.991531 0.000000
0.909090 0.988261 0.000000
0.970151 0.985111 0.000000
1.000000 0.983442 0.000000
1.000000 0.983442 0.000000
0.000000 1.000000 0.000000
0.000000 1.000000 0.000000
0.046373 1.000000 0.000000
0.142872 1.000000 0.000000
0.234016 1.000000 0.000000
0.320790 1.000000 0.000000
0.403780 1.000000 0.000000
0.483374 1.000000 0.000000
0.559854 1.000000 0.000000
0.633432 1.000000 0.000000
0.704276 1.000000 0.000000
0.772522 1.000000 0.000000
0.838282 1.000000 0.000000
0.901652 1.000000 0.000000
0.962713 1.000000 0.000000
0.995071 1.000000 0.000000
0.995071 1.000000 0.000000
0.034302 0.000000 0.162439
0.156083 0.000000 0.156156
0.260013 0.000000 0.150794
0.356511 0.000000 0.145815
0.447655 0.000000 0.141113
0.534430 0.000000 0.136636
0.617419 0.000000 0.132354
0.697014 0.000000 0.128248
0.773494 0.000000 0.124302
0.847072 0.000000 0.120506
0.917916 0.000000 0.116851
0.986162 0.000000 0.113330
1.000000 0.000000 0.109937
1.000000 0.000000 0.106668
1.000000 0.000000 0.103517
1.000000 0.000000 0.101848
1.000000 0.000000 0.101848
0.025657 0.039036 0.153794
0.147438 0.032753 0.147511
0.251368 0.027391 0.142149
0.347866 0.022412 0.137170
0.439011 0.017710 0.132468
0.525785 0.013233 0.127991
0.608775 0.008951 0.123709
0.688369 0.004845 0.119603
0.764849 0.000899 0.115657
0.838427 0.000000 0.111861
0.909271 0.000000 0.108206
0.977517 0.000000 0.104685
1.000000 0.000000 0.101292
1.000000 0.000000 0.098023
1.000000 0.000000 0.094872
1.000000 0.000000 0.093203
1.000000 0.000000 0.093203
0.011857 0.108847 0.139994
0.133639 0.102564 0.133711
0.237568 0.097202 0.128349
0.334067 0.092224 0.123371
0.425211 0.087521 0.118668
0.511985 0.083044 0.114191
0.594975 0.078763 0.109910
0.674569 0.074656 0.105803
0.751049 0.070710 0.101857
0.824627 0.066914 0.098061
0.895471 0.063259 0.094406
0.963717 0.059738 0.090885
1.000000 0.056345 0.087492
1.000000 0.053076 0.084223
1.000000 0.049926 0.081073
1.000000 0.048256 0.079403
1.000000 0.048256 0.079403
0.000000 0.180072 0.125915
0.119560 0.173789 0.119632
0.223489 0.168427 0.114270
0.319988 0.163449 0.109291
0.411132 0.158746 0.104589
0.497906 0.154269 0.100112
0.580896 0.149988 0.095830
0.660490 0.145881 0.091724
0.736970 0.141935 0.087778
0.810548 0.138139 0.083982
0.881392 0.134484 0.080327
0.949638 0.130963 0.076806
1.000000 0.127571 0.073413
1.000000 0.124301 0.070144
1.000000 0.121151 0.066994
1.000000 0.119481 0.065324
1.000000 0.119481 0.065324
0.000000 0.252027 0.111692
0.105336 0.245744 0.105409
0.209266 0.240382 0.100047
0.305764 0.235403 0.095068
0.396908 0.230701 0.090366
0.483683 0.226224 0.085889
0.566672 0.221942 0.081607
0.646267 0.217836 0.077501
0.722747 0.213890 0.073555
0.796325 0.210094 0.069759
0.867169 0.206439 0.066104
0.935415 0.202918 0.062583
1.000000 0.199525 0.059190
1.000000 0.196256 0.055921
1.000000 0.193105 0.052770
1.000000 0.191436 0.051101
1.000000 0.191436 0.051101
0.000000 0.324373 0.097391
0.091036 0.318089 0.091108
0.194965 0.312727 0.085746
0.291464 0.307749 0.080767
0.382608 0.303046 0.076065
0.469382 0.298570 0.071588
0.552372 0.294288 0.067307
0.631966 0.290181 0.063200
0.708446 0.286236 0.059254
0.782024 0.282440 0.055458
0.852868 0.278784 0.051803
0.921114 0.275263 0.048282
0.986874 0.271871 0.044889
1.000000 0.268601 0.041620
1.000000 0.265451 0.038470
1.000000 0.263782 0.036800
1.000000 0.263782 0.036800
0.000000 0.396904 0.083054
0.076698 0.390621 0.076771
0.180628 0.385259 0.071409
0.277126 0.380281 0.066430
0.368270 0.375578 0.061728
0.455045 0.371101 0.057251
0.538034 0.366820 0.052969
0.617629 0.362713 0.048863
0.694108 0.358767 0.044917
0.767687 0.354971 0.041121
0.838531 0.351316 0.037466
0.906776 0.347795 0.033945
0.972537 0.344403 0.030552
1.000000 0.341133 0.027283
1.000000 0.337983 0.024132
1.000000 0.336313 0.022463
1.000000 0.336313 0.022463
0.000000 0.469483 0.068707
0.062352 0.463199 0.062424
0.166281 0.457837 0.057062
0.262780 0.452859 0.052083
0.353924 0.448156 0.047381
0.440698 0.443680 0.042904
0.523688 0.439398 0.038622
0.603282 0.435291 0.034516
0.679762 0.431346 0.030570
0.753340 0.427549 0.026774
0.824184 0.423894 0.023119
0.892430 0.420373 0.019598
0.958190 0.416981 0.016205
1.000000 0.413711 0.012936
1.000000 0.410561 0.009786
1.000000 0.408892 0.008116
1.000000 0.408892 0.008116
0.000000 0.542005 0.054371
0.048016 0.535722 0.048088
0.151946 0.530360 0.042726
0.248444 0.525382 0.037748
0.339588 0.520679 0.033045
0.426363 0.516202 0.028568
0.509352 0.511921 0.024287
0.588946 0.507814 0.020180
0.665426 0.503868 0.016235
0.739004 0.500072 0.012438
0.809848 0.496417 0.008783
0.878094 0.492896 0.005262
0.943854 0.489504 0.001870
1.000000 0.486234 0.000000
1.000000 0.483084 0.000000
1.000000 0.481414 0.000000
1.000000 0.481414 0.000000
0.000000 0.614395 0.040062
0.033707 0.608112 0.033779
0.137636 0.602750 0.028417
0.234135 0.597771 0.023439
0.325279 0.593069 0.018736
0.412053 0.588592 0.014259
0.495043 0.584310 0.009978
0.574637 0.580204 0.005871
0.651117 0.576258 0.001925
0.724695 0.572462 0.000000
0.795539 0.568807 0.000000
0.863785 0.565286 0.000000
0.929545 0.561893 0.000000
0.992915 0.558624 0.000000
1.000000 0.555473 0.000000
1.000000 0.553804 0.000000
1.000000 0.553804 0.000000
0.000000 0.686589 0.025792
0.019436 0.680306 0.019508
0.123366 0.674944 0.014146
0.219864 0.669965 0.009168
0.311008 0.665263 0.004465
0.397783 0.660786 0.000000
0.480772 0.656504 0.000000
0.560366 0.652398 0.000000
0.636846 0.648452 0.000000
0.710424 0.644656 0.000000
0.781268 0.641001 0.000000
0.849514 0.637480 0.000000
0.915274 0.634087 0.000000
0.978644 0.630818 0.000000
1.000000 0.627667 0.000000
1.000000 0.625998 0.000000
1.000000 0.625998 0.000000
0.000000 0.758537 0.011569
0.005214 0.752254 0.005286
0.109143 0.746892 0.000000
0.205642 0.741913 0.000000
0.296786 0.737211 0.000000
0.383561 0.732734 0.000000
0.466550 0.728452 0.000000
0.546144 0.724346 0.000000
0.622624 0.720400 0.000000
0.696202 0.716604 0.000000
0.767046 0.712949 0.000000
0.835292 0.709428 0.000000
0.901052 0.706035 0.000000
0.964422 0.702766 0.000000
1.000000 0.699616 0.000000
1.000000 0.697946 0.000000
1.000000 0.697946 0.000000
0.000000 0.830197 0.000000
0.000000 0.823914 0.000000
0.094978 0.818552 0.000000
0.191477 0.813573 0.000000
0.282621 0.808871 0.000000
0.369396 0.804394 0.000000
0.452385 0.800112 0.000000
0.531979 0.796006 0.000000
0.608459 0.792060 0.000000
0.682037 0.788264 0.000000
0.752881 0.784609 0.000000
0.821127 0.781088 0.000000
0.886887 0.777695 0.000000
0.950257 0.774426 0.000000
1.000000 0.771275 0.000000
1.000000 0.769606 0.000000
1.000000 0.769606 0.000000
0.000000 0.901533 0.000000
0.000000 0.895250 0.000000
0.080877 0.889888 0.000000
0.177376 0.884909 0.000000
0.268520 0.880207 0.000000
0.355294 0.875730 0.000000
0.438284 0.871448 0.000000
0.517878 0.867342 0.000000
0.594358 0.863396 0.000000
0.667936 0.859600 0.000000
0.738780 0.855945 0.000000
0.807026 0.852424 0.000000
0.872786 0.849031 0.000000
0.936156 0.845762 0.000000
0.997217 0.842611 0.000000
1.000000 0.840942 0.000000
1.000000 0.840942 0.000000
0.000000 0.972514 0.000000
0.000000 0.966231 0.000000
0.066846 0.960869 0.000000
0.163345 0.955890 0.000000
0.254489 0.951188 0.000000
0.341264 0.946711 0.000000
0.424253 0.942429 0.000000
0.503847 0.938323 0.000000
0.580327 0.934377 0.000000
0.653905 0.930581 0.000000
0.724749 0.926926 0.000000
0.792995 0.923405 0.000000
0.858755 0.920012 0.000000
0.922125 0.916743 0.000000
0.983186 0.913592 0.000000
1.000000 0.911923 0.000000
1.000000 0.911923 0.000000
0.000000 1.000000 0.000000
0.000000 1.000000 0.000000
0.052891 1.000000 0.000000
0.149390 1.000000 0.000000
0.240534 1.000000 0.000000
0.327308 1.000000 0.000000
0.410298 1.000000 0.000000
0.489892 1.000000 0.000000
0.566372 1.000000 0.000000
0.639950 1.000000 0.000000
0.710794 0.997524 0.000000
0.779040 0.994003 0.000000
0.844800 0.990611 0.000000
0.908170 0.987341 0.000000
0.969230 0.984191 0.000000
1.000000 0.982521 0.000000
1.000000 0.982521 0.000000
0.000000 1.000000 0.000000
0.000000 1.000000 0.000000
0.045453 1.000000 0.000000
0.141951 1.000000 0.000000
0.233095 1.000000 0.000000
0.319870 1.000000 0.000000
0.402859 1.000000 0.000000
0.482454 1.000000 0.000000
0.558934 1.000000 0.000000
0.632512 1.000000 0.000000
0.703356 1.000000 0.000000
0.771602 1.000000 0.000000
0.837362 1.000000 0.000000
0.900731 1.000000 0.000000
0.961792 1.000000 0.000000
0.994151 1.000000 0.000000
0.994151 1.000000 0.000000
0.033310 0.000000 0.220947
0.155092 0.000000 0.214664
0.259022 0.000000 0.209302
0.355520 0.000000 0.204324
0.446664 0.000000 0.199621
0.533439 0.000000 0.195144
0.616428 0.000000 0.190863
0.696022 0.000000 0.186756
0.772502 0.000000 0.182810
0.846080 0.000000 0.179014
0.916925 0.000000 0.175359
0.985170 0.000000 0.171838
1.000000 0.000000 0.168446
1.000000 0.000000 0.165176
1.000000 0.000000 0.162026
1.000000 0.000000 0.160356
1.000000 0.000000 0.160356
0.024666 0.038044 0.212302
