luts/creative/day_for_night.cube
TITLE "Day for Night"
LUT_3D_SIZE 9
DOMAIN_MIN 0.0 0.0 0.0
DOMAIN_MAX 1.0 1.0 1.0
0.000272 0.000272 0.004032
0.011820 0.002296 0.006057
0.031357 0.005722 0.009482
0.055749 0.009998 0.013759
0.083948 0.014942 0.018703
0.115363 0.020450 0.024211
0.149606 0.026454 0.030214
0.186394 0.032904 0.036664
0.225511 0.039762 0.043522
0.010343 0.024425 0.014104
0.021891 0.026450 0.016128
0.041429 0.029875 0.019554
0.065821 0.034152 0.023830
0.094019 0.039096 0.028774
0.125435 0.044604 0.034282
0.159678 0.050607 0.040286
0.196466 0.057057 0.046736
0.235583 0.063915 0.053594
0.025650 0.061135 0.029411
0.037198 0.063159 0.031435
0.056736 0.066585 0.034861
0.081128 0.070861 0.039137
0.109326 0.075805 0.044081
0.140742 0.081313 0.049589
0.174985 0.087317 0.055593
0.211773 0.093767 0.062043
0.250890 0.100625 0.068901
0.043848 0.104778 0.047609
0.055397 0.106803 0.049634
0.074934 0.110228 0.053059
0.099326 0.114505 0.057336
0.127525 0.119449 0.062280
0.158940 0.124957 0.067788
0.193183 0.130960 0.073791
0.229971 0.137410 0.080241
0.269088 0.144268 0.087099
0.064222 0.153637 0.067982
0.075770 0.155662 0.070007
0.095307 0.159087 0.073432
0.119699 0.163364 0.077709
0.147898 0.168308 0.082653
0.179313 0.173816 0.088161
0.213556 0.179819 0.094164
0.250344 0.186269 0.100614
0.289461 0.193128 0.107472
0.086382 0.206782 0.090142
0.097930 0.208807 0.092167
0.117467 0.212232 0.095592
0.141859 0.216508 0.099869
0.170058 0.221452 0.104813
0.201474 0.226960 0.110321
0.235716 0.232964 0.116325
0.272504 0.239414 0.122774
0.311621 0.246272 0.129633
0.110078 0.263611 0.113839
0.121627 0.265636 0.115864
0.141164 0.269062 0.119289
0.165556 0.273338 0.123566
0.193755 0.278282 0.128510
0.225170 0.283790 0.134018
0.259413 0.289794 0.140021
0.296201 0.296244 0.146471
0.335318 0.303102 0.153329
0.135134 0.323701 0.138895
0.146682 0.325725 0.140920
0.166220 0.329151 0.144345
0.190612 0.333427 0.148621
0.218810 0.338371 0.153565
0.250226 0.343879 0.159073
0.284469 0.349883 0.165077
0.321257 0.356333 0.171527
0.360374 0.363191 0.178385
0.161416 0.386729 0.165176
0.172964 0.388754 0.167201
0.192501 0.392179 0.170626
0.216893 0.396456 0.174903
0.245092 0.401400 0.179847
0.276508 0.406908 0.185355
0.310750 0.412911 0.191358
0.347538 0.419361 0.197808
0.386655 0.426219 0.204667
0.002222 0.002222 0.032999
0.013770 0.004247 0.035024
0.033308 0.007672 0.038450
0.057700 0.011949 0.042726
0.085898 0.016893 0.047670
0.117314 0.022401 0.053178
0.151557 0.028404 0.059182
0.188345 0.034854 0.065632
0.227462 0.041712 0.072490
0.012294 0.026376 0.043071
0.023842 0.028400 0.045096
0.043379 0.031826 0.048521
0.067771 0.036102 0.052798
0.095970 0.041046 0.057742
0.127386 0.046554 0.063250
0.161628 0.052558 0.069253
0.198416 0.059008 0.075703
0.237533 0.065866 0.082561
0.027601 0.063085 0.058378
0.039149 0.065110 0.060403
0.058686 0.068535 0.063828
0.083078 0.072812 0.068105
0.111277 0.077756 0.073049
0.142693 0.083264 0.078557
0.176935 0.089268 0.084560
0.213723 0.095717 0.091010
0.252840 0.102576 0.097868
0.045799 0.106729 0.076576
0.057347 0.108753 0.078601
0.076885 0.112179 0.082026
0.101277 0.116455 0.086303
0.129475 0.121399 0.091247
0.160891 0.126907 0.096755
0.195134 0.132911 0.102759
0.231922 0.139361 0.109208
0.271039 0.146219 0.116067
0.066172 0.155588 0.096950
0.077720 0.157613 0.098974
0.097258 0.161038 0.102400
0.121650 0.165315 0.106676
0.149848 0.170258 0.111620
0.181264 0.175766 0.117128
0.215507 0.181770 0.123132
0.252295 0.188220 0.129582
0.291412 0.195078 0.136440
0.088332 0.208732 0.119110
0.099881 0.210757 0.121134
0.119418 0.214183 0.124560
0.143810 0.218459 0.128836
0.172008 0.223403 0.133780
0.203424 0.228911 0.139288
0.237667 0.234915 0.145292
0.274455 0.241365 0.151742
0.313572 0.248223 0.158600
0.112029 0.265562 0.142806
0.123577 0.267587 0.144831
0.143115 0.271012 0.148256
0.167507 0.275289 0.152533
0.195705 0.280233 0.157477
0.227121 0.285741 0.162985
0.261364 0.291744 0.168989
0.298152 0.298194 0.175438
0.337269 0.305052 0.182297
0.137085 0.325651 0.167862
0.148633 0.327676 0.169887
0.168170 0.331101 0.173312
0.192562 0.335378 0.177589
0.220761 0.340322 0.182533
0.252177 0.345830 0.188041
0.286420 0.351833 0.194044
0.323207 0.358283 0.200494
0.362324 0.365142 0.207352
0.163366 0.388680 0.194144
0.174914 0.390704 0.196168
0.194452 0.394130 0.199594
0.218844 0.398406 0.203870
0.247042 0.403350 0.208814
0.278458 0.408858 0.214322
0.312701 0.414862 0.220326
0.349489 0.421312 0.226776
0.388606 0.428170 0.233634
0.004678 0.004678 0.069469
0.016226 0.006703 0.071493
0.035763 0.010128 0.074919
0.060156 0.014405 0.079195
0.088354 0.019348 0.084139
0.119770 0.024856 0.089647
0.154013 0.030860 0.095651
0.190800 0.037310 0.102101
0.229917 0.044168 0.108959
0.014749 0.028831 0.079540
0.026298 0.030856 0.081565
0.045835 0.034282 0.084990
0.070227 0.038558 0.089267
0.098426 0.043502 0.094211
0.129841 0.049010 0.099719
0.164084 0.055014 0.105722
0.200872 0.061464 0.112172
0.239989 0.068322 0.119030
0.030057 0.065541 0.094847
0.041605 0.067566 0.096872
0.061142 0.070991 0.100297
0.085534 0.075268 0.104574
0.113733 0.080212 0.109518
0.145148 0.085720 0.115026
0.179391 0.091723 0.121030
0.216179 0.098173 0.127479
0.255296 0.105031 0.134338
0.048255 0.109184 0.113046
0.059803 0.111209 0.115070
0.079340 0.114635 0.118496
0.103732 0.118911 0.122772
0.131931 0.123855 0.127716
0.163347 0.129363 0.133224
0.197589 0.135367 0.139228
0.234377 0.141816 0.145678
0.273494 0.148675 0.152536
0.068628 0.158044 0.133419
0.080176 0.160068 0.135443
0.099714 0.163494 0.138869
0.124106 0.167770 0.143145
0.152304 0.172714 0.148089
0.183720 0.178222 0.153597
0.217963 0.184226 0.159601
0.254751 0.190676 0.166051
0.293868 0.197534 0.172909
0.090788 0.211188 0.155579
0.102336 0.213213 0.157604
0.121874 0.216638 0.161029
0.146266 0.220915 0.165306
0.174464 0.225859 0.170249
0.205880 0.231367 0.175757
0.240123 0.237370 0.181761
0.276911 0.243820 0.188211
0.316028 0.250678 0.195069
0.114485 0.268018 0.179276
0.126033 0.270043 0.181300
0.145570 0.273468 0.184726
0.169962 0.277744 0.189002
0.198161 0.282688 0.193946
0.229577 0.288196 0.199454
0.263819 0.294200 0.205458
0.300607 0.300650 0.211908
0.339724 0.307508 0.218766
0.139541 0.328107 0.204331
0.151089 0.330132 0.206356
0.170626 0.333557 0.209781
0.195018 0.337834 0.214058
0.223217 0.342778 0.219002
0.254632 0.348286 0.224510
0.288875 0.354289 0.230514
0.325663 0.360739 0.236963
0.364780 0.367597 0.243822
0.165822 0.391135 0.230613
0.177370 0.393160 0.232637
0.196908 0.396585 0.236063
0.221300 0.400862 0.240339
0.249498 0.405806 0.245283
0.280914 0.411314 0.250791
0.315157 0.417318 0.256795
0.351945 0.423767 0.263245
0.391062 0.430626 0.270103
0.007435 0.007435 0.110413
0.018983 0.009460 0.112437
0.038521 0.012885 0.115863
0.062913 0.017162 0.120139
0.091111 0.022106 0.125083
0.122527 0.027614 0.130591
0.156770 0.033617 0.136595
0.193558 0.040067 0.143045
0.232675 0.046925 0.149903
0.017506 0.031589 0.120484
0.029055 0.033613 0.122509
0.048592 0.037039 0.125934
0.072984 0.041315 0.130211
0.101183 0.046259 0.135155
0.132598 0.051767 0.140663
0.166841 0.057771 0.146666
0.203629 0.064221 0.153116
0.242746 0.071079 0.159974
0.032814 0.068298 0.135791
0.044362 0.070323 0.137816
0.063899 0.073748 0.141241
0.088291 0.078025 0.145518
0.116490 0.082969 0.150462
0.147905 0.088477 0.155970
0.182148 0.094480 0.161973
0.218936 0.100930 0.168423
0.258053 0.107789 0.175282
0.051012 0.111942 0.153990
0.062560 0.113966 0.156014
0.082097 0.117392 0.159440
0.106490 0.121668 0.163716
0.134688 0.126612 0.168660
0.166104 0.132120 0.174168
0.200347 0.138124 0.180172
0.237134 0.144574 0.186622
0.276251 0.151432 0.193480
0.071385 0.160801 0.174363
0.082933 0.162825 0.176387
0.102471 0.166251 0.179813
0.126863 0.170527 0.184089
0.155061 0.175471 0.189033
0.186477 0.180979 0.194541
0.220720 0.186983 0.200545
0.257508 0.193433 0.206995
0.296625 0.200291 0.213853
0.093545 0.213945 0.196523
0.105093 0.215970 0.198548
0.124631 0.219395 0.201973
0.149023 0.223672 0.206249
0.177221 0.228616 0.211193
0.208637 0.234124 0.216701
0.242880 0.240128 0.222705
0.279668 0.246577 0.229155
0.318785 0.253436 0.236013
0.117242 0.270775 0.220220
0.128790 0.272800 0.222244
0.148327 0.276225 0.225670
0.172719 0.280502 0.229946
0.200918 0.285446 0.234890
0.232334 0.290953 0.240398
0.266577 0.296957 0.246402
0.303364 0.303407 0.252852
0.342481 0.310265 0.259710
0.142298 0.330864 0.245275
0.153846 0.332889 0.247300
0.173383 0.336314 0.250725
0.197775 0.340591 0.255002
0.225974 0.345535 0.259946
0.257390 0.351043 0.265454
0.291632 0.357046 0.271458
0.328420 0.363496 0.277907
0.367537 0.370354 0.284766
0.168579 0.393892 0.271557
0.180127 0.395917 0.273581
0.199665 0.399343 0.277007
0.224057 0.403619 0.281283
0.252255 0.408563 0.286227
0.283671 0.414071 0.291735
0.317914 0.420075 0.297739
0.354702 0.426525 0.304189
0.393819 0.433383 0.311047
0.010417 0.010417 0.154703
0.021966 0.012442 0.156727
0.041503 0.015868 0.160153
0.065895 0.020144 0.164429
0.094094 0.025088 0.169373
0.125509 0.030596 0.174881
0.159752 0.036600 0.180885
0.196540 0.043049 0.187335
0.235657 0.049908 0.194193
0.020489 0.034571 0.164774
0.032037 0.036596 0.166799
0.051574 0.040021 0.170224
0.075967 0.044298 0.174501
0.104165 0.049242 0.179445
0.135581 0.054750 0.184953
0.169824 0.060753 0.190956
0.206611 0.067203 0.197406
0.245728 0.074061 0.204265
0.035796 0.071281 0.180081
0.047344 0.073305 0.182106
0.066882 0.076731 0.185531
0.091274 0.081007 0.189808
0.119472 0.085951 0.194752
0.150888 0.091459 0.200260
0.185131 0.097463 0.206264
0.221919 0.103913 0.212713
0.261036 0.110771 0.219572
0.053994 0.114924 0.198280
0.065543 0.116949 0.200304
0.085080 0.120374 0.203730
0.109472 0.124651 0.208006
0.137670 0.129595 0.212950
0.169086 0.135102 0.218458
0.203329 0.141106 0.224462
0.240117 0.147556 0.230912
0.279234 0.154414 0.237770
0.074367 0.163783 0.218653
0.085916 0.165808 0.220678
0.105453 0.169233 0.224103
0.129845 0.173510 0.228379
0.158044 0.178454 0.233323
0.189459 0.183962 0.238831
0.223702 0.189965 0.244835
0.260490 0.196415 0.251285
0.299607 0.203273 0.258143
0.096528 0.216928 0.240813
0.108076 0.218952 0.242838
0.127613 0.222378 0.246263
0.152005 0.226654 0.250540
0.180204 0.231598 0.255483
0.211619 0.237106 0.260991
0.245862 0.243110 0.266995
0.282650 0.249560 0.273445
0.321767 0.256418 0.280303
0.120224 0.273757 0.264510
0.131773 0.275782 0.266534
0.151310 0.279207 0.269960
0.175702 0.283484 0.274236
0.203900 0.288428 0.279180
0.235316 0.293936 0.284688
0.269559 0.299940 0.290692
0.306347 0.306389 0.297142
0.345464 0.313248 0.304000
0.145280 0.333847 0.289565
0.156828 0.335871 0.291590
0.176366 0.339297 0.295016
0.200758 0.343573 0.299292
0.228956 0.348517 0.304236
0.260372 0.354025 0.309744
0.294615 0.360029 0.315748
0.331403 0.366479 0.322198
0.370520 0.373337 0.329056
0.171562 0.396875 0.315847
0.183110 0.398900 0.317872
0.202647 0.402325 0.321297
0.227039 0.406602 0.325573
0.255238 0.411545 0.330517
0.286653 0.417053 0.336025
0.320896 0.423057 0.342029
0.357684 0.429507 0.348479
0.396801 0.436365 0.355337
0.013583 0.013583 0.201713
0.025131 0.015608 0.203738
0.044669 0.019033 0.207163
0.069061 0.023310 0.211440
0.097259 0.028254 0.216384
0.128675 0.033762 0.221892
0.162918 0.039765 0.227896
0.199706 0.046215 0.234345
0.238823 0.053073 0.241204
0.023655 0.037737 0.211785
0.035203 0.039761 0.213810
0.054740 0.043187 0.217235
0.079132 0.047463 0.221512
0.107331 0.052407 0.226455
0.138746 0.057915 0.231963
0.172989 0.063919 0.237967
0.209777 0.070369 0.244417
0.248894 0.077227 0.251275
0.038962 0.074446 0.227092
0.050510 0.076471 0.229117
0.070047 0.079896 0.232542
0.094439 0.084173 0.236819
0.122638 0.089117 0.241763
0.154054 0.094625 0.247271
0.188296 0.100628 0.253274
0.225084 0.107078 0.259724
0.264201 0.113937 0.266582
0.057160 0.118090 0.245290
0.068708 0.120114 0.247315
0.088245 0.123540 0.250740
0.112638 0.127816 0.255017
0.140836 0.132760 0.259961
0.172252 0.138268 0.265469
0.206495 0.144272 0.271472
0.243282 0.150722 0.277922
0.282399 0.157580 0.284781
0.077533 0.166949 0.265663
0.089081 0.168973 0.267688
0.108619 0.172399 0.271114
0.133011 0.176675 0.275390
0.161209 0.181619 0.280334
0.192625 0.187127 0.285842
0.226868 0.193131 0.291846
0.263656 0.199581 0.298296
0.302773 0.206439 0.305154
0.099693 0.220093 0.287824
0.111241 0.222118 0.289848
0.130779 0.225543 0.293274
0.155171 0.229820 0.297550
0.183369 0.234764 0.302494
0.214785 0.240272 0.308002
0.249028 0.246276 0.314006
0.285816 0.252725 0.320456
0.324933 0.259584 0.327314
0.123390 0.276923 0.311520
0.134938 0.278948 0.313545
0.154475 0.282373 0.316970
0.178868 0.286650 0.321247
0.207066 0.291594 0.326191
0.238482 0.297102 0.331699
0.272725 0.303105 0.337702
0.309512 0.309555 0.344152
0.348629 0.316413 0.351011
0.148446 0.337012 0.336576
0.159994 0.339037 0.338601
0.179531 0.342462 0.342026
0.203923 0.346739 0.346303
0.232122 0.351683 0.351247
0.263538 0.357191 0.356755
0.297780 0.363194 0.362758
0.334568 0.369644 0.369208
0.373685 0.376502 0.376066
0.174727 0.400040 0.362857
0.186275 0.402065 0.364882
0.205813 0.405491 0.368308
0.230205 0.409767 0.372584
0.258403 0.414711 0.377528
0.289819 0.420219 0.383036
0.324062 0.426223 0.389040
0.360850 0.432673 0.395490
0.399967 0.439531 0.402348
0.016905 0.016905 0.251039
0.028453 0.018929 0.253064
0.047990 0.022355 0.256489
0.072382 0.026631 0.260766
0.100581 0.031575 0.265710
0.131996 0.037083 0.271218
0.166239 0.043087 0.277221
0.203027 0.049537 0.283671
0.242144 0.056395 0.290529
0.026976 0.041058 0.261111
0.038524 0.043083 0.263135
0.058062 0.046508 0.266561
0.082454 0.050785 0.270837
0.110652 0.055729 0.275781
0.142068 0.061237 0.281289
0.176311 0.067240 0.287293
0.213099 0.073690 0.293743
0.252216 0.080548 0.300601
0.042283 0.077768 0.276418
0.053831 0.079792 0.278442
0.073369 0.083218 0.281868
0.097761 0.087494 0.286144
0.125959 0.092438 0.291088
0.157375 0.097946 0.296596
0.191618 0.103950 0.302600
0.228406 0.110400 0.309050
0.267523 0.117258 0.315908
0.060481 0.121411 0.294616
0.072030 0.123436 0.296641
0.091567 0.126861 0.300066
0.115959 0.131138 0.304343
0.144158 0.136082 0.309287
0.175573 0.141590 0.314795
0.209816 0.147593 0.320798
0.246604 0.154043 0.327248
0.285721 0.160901 0.334106
0.080855 0.170270 0.314989
0.092403 0.172295 0.317014
0.111940 0.175720 0.320439
0.136332 0.179997 0.324716
0.164531 0.184941 0.329660
0.195946 0.190449 0.335168
0.230189 0.196452 0.341171
0.266977 0.202902 0.347621
0.306094 0.209761 0.354480
0.103015 0.223415 0.337149
0.114563 0.225440 0.339174
0.134100 0.228865 0.342599
0.158492 0.233141 0.346876
0.186691 0.238085 0.351820
0.218107 0.243593 0.357328
0.252349 0.249597 0.363332
0.289137 0.256047 0.369781
0.328254 0.262905 0.376640
0.126711 0.280244 0.360846
0.138260 0.282269 0.362871
0.157797 0.285695 0.366296
0.182189 0.289971 0.370573
0.210388 0.294915 0.375517
0.241803 0.300423 0.381025
0.276046 0.306427 0.387028
0.312834 0.312877 0.393478
0.351951 0.319735 0.400336
0.151767 0.340334 0.385902
0.163315 0.342358 0.387927
0.182853 0.345784 0.391352
0.207245 0.350060 0.395628
0.235443 0.355004 0.400572
0.266859 0.360512 0.406080
0.301102 0.366516 0.412084
0.337890 0.372966 0.418534
0.377007 0.379824 0.425392
0.178049 0.403362 0.412183
0.189597 0.405387 0.414208
0.209134 0.408812 0.417633
0.233526 0.413089 0.421910
0.261725 0.418033 0.426854
0.293141 0.423541 0.432362
0.327383 0.429544 0.438365
0.364171 0.435994 0.444815
0.403288 0.442852 0.451674
0.020363 0.020363 0.302393
0.031911 0.022387 0.304418
0.051448 0.025813 0.307843
0.075840 0.030089 0.312119
0.104039 0.035033 0.317063
0.135454 0.040541 0.322571
0.169697 0.046545 0.328575
0.206485 0.052995 0.335025
0.245602 0.059853 0.341883
0.030434 0.044516 0.312464
0.041982 0.046541 0.314489
0.061520 0.049966 0.317914
0.085912 0.054243 0.322191
0.114110 0.059187 0.327135
0.145526 0.064695 0.332643
0.179769 0.070698 0.338647
0.216557 0.077148 0.345096
0.255674 0.084006 0.351955
0.045741 0.081226 0.327771
0.057289 0.083251 0.329796
0.076827 0.086676 0.333222
0.101219 0.090952 0.337498
0.129417 0.095896 0.342442
0.160833 0.101404 0.347950
0.195076 0.107408 0.353954
0.231864 0.113858 0.360404
0.270981 0.120716 0.367262
0.063939 0.124869 0.345970
0.075488 0.126894 0.347994
0.095025 0.130319 0.351420
0.119417 0.134596 0.355696
0.147616 0.139540 0.360640
0.179031 0.145048 0.366148
0.213274 0.151051 0.372152
0.250062 0.157501 0.378602
0.289179 0.164359 0.385460
0.084313 0.173728 0.366343
0.095861 0.175753 0.368368
0.115398 0.179178 0.371793
0.139790 0.183455 0.376070
0.167989 0.188399 0.381013
0.199405 0.193907 0.386521
0.233647 0.199911 0.392525
0.270435 0.206360 0.398975
0.309552 0.213219 0.405833
0.106473 0.226873 0.388503
0.118021 0.228898 0.390528
0.137558 0.232323 0.393953
0.161950 0.236600 0.398230
0.190149 0.241543 0.403174
0.221565 0.247051 0.408682
0.255807 0.253055 0.414685
0.292595 0.259505 0.421135
0.331712 0.266363 0.427993
0.130169 0.283703 0.412200
0.141718 0.285727 0.414224
0.161255 0.289153 0.417650
0.185647 0.293429 0.421926
0.213846 0.298373 0.426870
0.245261 0.303881 0.432378
0.279504 0.309885 0.438382
0.316292 0.316335 0.444832
0.355409 0.323193 0.451690
0.155225 0.343792 0.437256
0.166774 0.345816 0.439280
0.186311 0.349242 0.442706
0.210703 0.353518 0.446982
0.238901 0.358462 0.451926
0.270317 0.363970 0.457434
0.304560 0.369974 0.463438
0.341348 0.376424 0.469888
0.380465 0.383282 0.476746
0.181507 0.406820 0.463537
0.193055 0.408845 0.465562
0.212592 0.412270 0.468987
0.236984 0.416547 0.473264
0.265183 0.421491 0.478208
0.296599 0.426999 0.483715
0.330841 0.433002 0.489719
0.367629 0.439452 0.496169
0.406746 0.446310 0.503027
0.023943 0.023943 0.355559
0.035491 0.025967 0.357584
0.055028 0.029393 0.361009
0.079420 0.033669 0.365285
0.107619 0.038613 0.370229
0.139035 0.044121 0.375737
0.173277 0.050125 0.381741
0.210065 0.056575 0.388191
0.249182 0.063433 0.395049
0.034014 0.048096 0.365630
0.045562 0.050121 0.367655
0.065100 0.053546 0.371080
0.089492 0.057823 0.375357
0.117690 0.062767 0.380301
0.149106 0.068275 0.385809
0.183349 0.074278 0.391813
0.220137 0.080728 0.398262
0.259254 0.087587 0.405121
0.049321 0.084806 0.380937
0.060870 0.086831 0.382962
0.080407 0.090256 0.386388
0.104799 0.094533 0.390664
0.132997 0.099477 0.395608
0.164413 0.104984 0.401116
0.198656 0.110988 0.407120
0.235444 0.117438 0.413569
0.274561 0.124296 0.420428
0.067520 0.128449 0.399136
0.079068 0.130474 0.401160
0.098605 0.133899 0.404586
0.122997 0.138176 0.408862
0.151196 0.143120 0.413806
0.182611 0.148628 0.419314
0.216854 0.154631 0.425318
0.253642 0.161081 0.431768
0.292759 0.167940 0.438626
0.087893 0.177308 0.419509
0.099441 0.179333 0.421534
0.118978 0.182759 0.424959
0.143370 0.187035 0.429236
0.171569 0.191979 0.434179
0.202985 0.197487 0.439687
0.237227 0.203491 0.445691
0.274015 0.209941 0.452141
0.313132 0.216799 0.458999
0.110053 0.230453 0.441669
0.121601 0.232478 0.443694
0.141138 0.235903 0.447119
0.165530 0.240180 0.451396
0.193729 0.245124 0.456340
0.225145 0.250632 0.461848
0.259388 0.256635 0.467851
0.296175 0.263085 0.474301
0.335292 0.269943 0.481159
0.133750 0.287283 0.465366
0.145298 0.289307 0.467390
0.164835 0.292733 0.470816
0.189227 0.297009 0.475092
0.217426 0.301953 0.480036
0.248841 0.307461 0.485544
0.283084 0.313465 0.491548
0.319872 0.319915 0.497998
0.358989 0.326773 0.504856
0.158805 0.347372 0.490421
0.170354 0.349396 0.492446
0.189891 0.352822 0.495872
0.214283 0.357098 0.500148
0.242482 0.362042 0.505092
0.273897 0.367550 0.510600
0.308140 0.373554 0.516604
0.344928 0.380004 0.523054
0.384045 0.386862 0.529912
0.185087 0.410400 0.516703
0.196635 0.412425 0.518728
0.216172 0.415850 0.522153
0.240564 0.420127 0.526430
0.268763 0.425071 0.531373
0.300179 0.430579 0.536881
0.334422 0.436582 0.542885
0.371209 0.443032 0.549335
0.410326 0.449890 0.556193
