luts/creative/day_for_night.cube
TITLE "Day for Night"
LUT_3D_SIZE 5
DOMAIN_MIN 0.0 0.0 0.0
DOMAIN_MAX 1.0 1.0 1.0
0.000272 0.000272 0.004032
0.031357 0.005722 0.009482
0.083948 0.014942 0.018703
0.149606 0.026454 0.030214
0.225511 0.039762 0.043522
0.025650 0.061135 0.029411
0.056736 0.066585 0.034861
0.109326 0.075805 0.044081
0.174985 0.087317 0.055593
0.250890 0.100625 0.068901
0.064222 0.153637 0.067982
0.095307 0.159087 0.073432
0.147898 0.168308 0.082653
0.213556 0.179819 0.094164
0.289461 0.193128 0.107472
0.110078 0.263611 0.113839
0.141164 0.269062 0.119289
0.193755 0.278282 0.128510
0.259413 0.289794 0.140021
0.335318 0.303102 0.153329
0.161416 0.386729 0.165176
0.192501 0.392179 0.170626
0.245092 0.401400 0.179847
0.310750 0.412911 0.191358
0.386655 0.426219 0.204667
0.004678 0.004678 0.069469
0.035763 0.010128 0.074919
0.088354 0.019348 0.084139
0.154013 0.030860 0.095651
0.229917 0.044168 0.108959
0.030057 0.065541 0.094847
0.061142 0.070991 0.100297
0.113733 0.080212 0.109518
0.179391 0.091723 0.121030
0.255296 0.105031 0.134338
0.068628 0.158044 0.133419
0.099714 0.163494 0.138869
0.152304 0.172714 0.148089
0.217963 0.184226 0.159601
0.293868 0.197534 0.172909
0.114485 0.268018 0.179276
0.145570 0.273468 0.184726
0.198161 0.282688 0.193946
0.263819 0.294200 0.205458
0.339724 0.307508 0.218766
0.165822 0.391135 0.230613
0.196908 0.396585 0.236063
0.249498 0.405806 0.245283
0.315157 0.417318 0.256795
0.391062 0.430626 0.270103
0.010417 0.010417 0.154703
0.041503 0.015868 0.160153
0.094094 0.025088 0.169373
0.159752 0.036600 0.180885
0.235657 0.049908 0.194193
0.035796 0.071281 0.180081
0.066882 0.076731 0.185531
0.119472 0.085951 0.194752
0.185131 0.097463 0.206264
0.261036 0.110771 0.219572
0.074367 0.163783 0.218653
0.105453 0.169233 0.224103
0.158044 0.178454 0.233323
0.223702 0.189965 0.244835
0.299607 0.203273 0.258143
0.120224 0.273757 0.264510
0.151310 0.279207 0.269960
0.203900 0.288428 0.279180
0.269559 0.299940 0.290692
0.345464 0.313248 0.304000
0.171562 0.396875 0.315847
0.202647 0.402325 0.321297
0.255238 0.411545 0.330517
0.320896 0.423057 0.342029
0.396801 0.436365 0.355337
0.016905 0.016905 0.251039
0.047990 0.022355 0.256489
0.100581 0.031575 0.265710
0.166239 0.043087 0.277221
0.242144 0.056395 0.290529
0.042283 0.077768 0.276418
0.073369 0.083218 0.281868
0.125959 0.092438 0.291088
0.191618 0.103950 0.302600
0.267523 0.117258 0.315908
0.080855 0.170270 0.314989
0.111940 0.175720 0.320439
0.164531 0.184941 0.329660
0.230189 0.196452 0.341171
0.306094 0.209761 0.354480
0.126711 0.280244 0.360846
0.157797 0.285695 0.366296
0.210388 0.294915 0.375517
0.276046 0.306427 0.387028
0.351951 0.319735 0.400336
0.178049 0.403362 0.412183
0.209134 0.408812 0.417633
0.261725 0.418033 0.426854
0.327383 0.429544 0.438365
0.403288 0.442852 0.451674
0.023943 0.023943 0.355559
0.055028 0.029393 0.361009
0.107619 0.038613 0.370229
0.173277 0.050125 0.381741
0.249182 0.063433 0.395049
0.049321 0.084806 0.380937
0.080407 0.090256 0.386388
0.132997 0.099477 0.395608
0.198656 0.110988 0.407120
0.274561 0.124296 0.420428
0.087893 0.177308 0.419509
0.118978 0.182759 0.424959
0.171569 0.191979 0.434179
0.237227 0.203491 0.445691
0.313132 0.216799 0.458999
0.133750 0.287283 0.465366
0.164835 0.292733 0.470816
0.217426 0.301953 0.480036
0.283084 0.313465 0.491548
0.358989 0.326773 0.504856
0.185087 0.410400 0.516703
0.216172 0.415850 0.522153
0.268763 0.425071 0.531373
0.334422 0.436582 0.542885
0.410326 0.449890 0.556193
