luts/creative/day_for_night.cube
TITLE "Day for Night"
LUT_3D_SIZE 17
DOMAIN_MIN 0.0 0.0 0.0
DOMAIN_MAX 1.0 1.0 1.0
0.000272 0.000272 0.004032
0.004562 0.001024 0.004784
0.011820 0.002296 0.006057
0.020881 0.003885 0.007646
0.031357 0.005722 0.009482
0.043028 0.007768 0.011528
0.055749 0.009998 0.013759
0.069416 0.012394 0.016155
0.083948 0.014942 0.018703
0.099281 0.017630 0.021391
0.115363 0.020450 0.024211
0.132151 0.023393 0.027154
0.149606 0.026454 0.030214
0.167697 0.029625 0.033386
0.186394 0.032904 0.036664
0.205673 0.036284 0.040044
0.225511 0.039762 0.043522
0.004268 0.009857 0.008029
0.008559 0.010609 0.008781
0.015817 0.011882 0.010054
0.024878 0.013470 0.011642
0.035354 0.015307 0.013479
0.047025 0.017353 0.015525
0.059746 0.019584 0.017756
0.073413 0.021980 0.020152
0.087945 0.024527 0.022700
0.103278 0.027216 0.025388
0.119360 0.030035 0.028208
0.136148 0.032979 0.031151
0.153603 0.036039 0.034211
0.171694 0.039211 0.037383
0.190391 0.042489 0.040661
0.209670 0.045869 0.044041
0.229508 0.049347 0.047519
0.010343 0.024425 0.014104
0.014633 0.025177 0.014856
0.021891 0.026450 0.016128
0.030953 0.028039 0.017717
0.041429 0.029875 0.019554
0.053099 0.031921 0.021600
0.065821 0.034152 0.023830
0.079487 0.036548 0.026226
0.094019 0.039096 0.028774
0.109353 0.041784 0.031463
0.125435 0.044604 0.034282
0.142222 0.047547 0.037225
0.159678 0.050607 0.040286
0.177768 0.053779 0.043458
0.196466 0.057057 0.046736
0.215745 0.060437 0.050116
0.235583 0.063915 0.053594
0.017565 0.041745 0.021326
0.021855 0.042497 0.022078
0.029113 0.043770 0.023350
0.038175 0.045358 0.024939
0.048651 0.047195 0.026776
0.060321 0.049241 0.028822
0.073043 0.051472 0.031052
0.086709 0.053868 0.033448
0.101241 0.056416 0.035996
0.116575 0.059104 0.038685
0.132657 0.061924 0.041504
0.149444 0.064867 0.044447
0.166900 0.067927 0.047508
0.184990 0.071099 0.050680
0.203688 0.074377 0.053958
0.222967 0.077757 0.057338
0.242805 0.081235 0.060816
0.025650 0.061135 0.029411
0.029940 0.061887 0.030163
0.037198 0.063159 0.031435
0.046260 0.064748 0.033024
0.056736 0.066585 0.034861
0.068407 0.068631 0.036907
0.081128 0.070861 0.039137
0.094794 0.073258 0.041533
0.109326 0.075805 0.044081
0.124660 0.078494 0.046770
0.140742 0.081313 0.049589
0.157530 0.084257 0.052533
0.174985 0.087317 0.055593
0.193075 0.090489 0.058765
0.211773 0.093767 0.062043
0.231052 0.097147 0.065423
0.250890 0.100625 0.068901
0.034444 0.082225 0.038205
0.038735 0.082977 0.038957
0.045993 0.084250 0.040230
0.055054 0.085839 0.041818
0.065530 0.087675 0.043655
0.077201 0.089721 0.045701
0.089922 0.091952 0.047932
0.103589 0.094348 0.050328
0.118121 0.096896 0.052876
0.133454 0.099584 0.055564
0.149536 0.102404 0.058384
0.166324 0.105347 0.061327
0.183779 0.108407 0.064387
0.201870 0.111579 0.067559
0.220567 0.114857 0.070837
0.239846 0.118237 0.074217
0.259684 0.121715 0.077695
0.043848 0.104778 0.047609
0.048139 0.105530 0.048361
0.055397 0.106803 0.049634
0.064458 0.108391 0.051222
0.074934 0.110228 0.053059
0.086605 0.112274 0.055105
0.099326 0.114505 0.057336
0.112993 0.116901 0.059732
0.127525 0.119449 0.062280
0.142858 0.122137 0.064968
0.158940 0.124957 0.067788
0.175728 0.127900 0.070731
0.193183 0.130960 0.073791
0.211274 0.134132 0.076963
0.229971 0.137410 0.080241
0.249250 0.140790 0.083621
0.269088 0.144268 0.087099
0.053792 0.128624 0.057552
0.058082 0.129377 0.058305
0.065340 0.130649 0.059577
0.074402 0.132238 0.061166
0.084877 0.134075 0.063003
0.096548 0.136121 0.065049
0.109269 0.138351 0.067279
0.122936 0.140747 0.069675
0.137468 0.143295 0.072223
0.152801 0.145983 0.074911
0.168884 0.148803 0.077731
0.185671 0.151746 0.080674
0.203127 0.154807 0.083735
0.221217 0.157978 0.086906
0.239914 0.161257 0.090184
0.259193 0.164637 0.093565
0.279031 0.168115 0.097043
0.064222 0.153637 0.067982
0.068512 0.154389 0.068734
0.075770 0.155662 0.070007
0.084831 0.157251 0.071596
0.095307 0.159087 0.073432
0.106978 0.161134 0.075479
0.119699 0.163364 0.077709
0.133366 0.165760 0.080105
0.147898 0.168308 0.082653
0.163231 0.170996 0.085341
0.179313 0.173816 0.088161
0.196101 0.176759 0.091104
0.213556 0.179819 0.094164
0.231647 0.182991 0.097336
0.250344 0.186269 0.100614
0.269623 0.189649 0.103994
0.289461 0.193128 0.107472
0.075096 0.179717 0.078857
0.079386 0.180469 0.079609
0.086644 0.181741 0.080881
0.095706 0.183330 0.082470
0.106182 0.185167 0.084307
0.117853 0.187213 0.086353
0.130574 0.189443 0.088583
0.144240 0.191839 0.090980
0.158772 0.194387 0.093527
0.174106 0.197076 0.096216
0.190188 0.199895 0.099035
0.206976 0.202839 0.101979
0.224431 0.205899 0.105039
0.242521 0.209071 0.108211
0.261219 0.212349 0.111489
0.280498 0.215729 0.114869
0.300336 0.219207 0.118347
0.086382 0.206782 0.090142
0.090672 0.207534 0.090894
0.097930 0.208807 0.092167
0.106992 0.210395 0.093756
0.117467 0.212232 0.095592
0.129138 0.214278 0.097639
0.141859 0.216508 0.099869
0.155526 0.218905 0.102265
0.170058 0.221452 0.104813
0.185391 0.224141 0.107501
0.201474 0.226960 0.110321
0.218261 0.229904 0.113264
0.235716 0.232964 0.116325
0.253807 0.236136 0.119496
0.272504 0.239414 0.122774
0.291783 0.242794 0.126154
0.311621 0.246272 0.129633
0.098050 0.234766 0.101811
0.102340 0.235518 0.102563
0.109599 0.236790 0.103836
0.118660 0.238379 0.105424
0.129136 0.240216 0.107261
0.140807 0.242262 0.109307
0.153528 0.244492 0.111538
0.167195 0.246888 0.113934
0.181726 0.249436 0.116482
0.197060 0.252125 0.119170
0.213142 0.254944 0.121989
0.229930 0.257888 0.124933
0.247385 0.260948 0.127993
0.265476 0.264120 0.131165
0.284173 0.267398 0.134443
0.303452 0.270778 0.137823
0.323290 0.274256 0.141301
0.110078 0.263611 0.113839
0.114369 0.264364 0.114591
0.121627 0.265636 0.115864
0.130688 0.267225 0.117452
0.141164 0.269062 0.119289
0.152835 0.271108 0.121335
0.165556 0.273338 0.123566
0.179223 0.275734 0.125962
0.193755 0.278282 0.128510
0.209088 0.280970 0.131198
0.225170 0.283790 0.134018
0.241958 0.286733 0.136961
0.259413 0.289794 0.140021
0.277504 0.292965 0.143193
0.296201 0.296244 0.146471
0.315480 0.299624 0.149851
0.335318 0.303102 0.153329
0.122446 0.293271 0.126206
0.126736 0.294023 0.126958
0.133994 0.295295 0.128231
0.143055 0.296884 0.129820
0.153531 0.298721 0.131656
0.165202 0.300767 0.133702
0.177923 0.302997 0.135933
0.191590 0.305393 0.138329
0.206122 0.307941 0.140877
0.221455 0.310629 0.143565
0.237537 0.313449 0.146385
0.254325 0.316392 0.149328
0.271780 0.319453 0.152388
0.289871 0.322625 0.155560
0.308568 0.325903 0.158838
0.327847 0.329283 0.162218
0.347685 0.332761 0.165696
0.135134 0.323701 0.138895
0.139424 0.324453 0.139647
0.146682 0.325725 0.140920
0.155744 0.327314 0.142508
0.166220 0.329151 0.144345
0.177891 0.331197 0.146391
0.190612 0.333427 0.148621
0.204278 0.335823 0.151018
0.218810 0.338371 0.153565
0.234144 0.341060 0.156254
0.250226 0.343879 0.159073
0.267014 0.346822 0.162017
0.284469 0.349883 0.165077
0.302559 0.353055 0.168249
0.321257 0.356333 0.171527
0.340536 0.359713 0.174907
0.360374 0.363191 0.178385
0.148129 0.354864 0.151889
0.152419 0.355617 0.152642
0.159677 0.356889 0.153914
0.168739 0.358478 0.155503
0.179214 0.360315 0.157340
0.190885 0.362361 0.159386
0.203606 0.364591 0.161616
0.217273 0.366987 0.164012
0.231805 0.369535 0.166560
0.247138 0.372223 0.169248
0.263221 0.375043 0.172068
0.280008 0.377986 0.175011
0.297464 0.381047 0.178072
0.315554 0.384218 0.181243
0.334251 0.387497 0.184522
0.353530 0.390877 0.187902
0.373368 0.394355 0.191380
0.161416 0.386729 0.165176
0.165706 0.387481 0.165928
0.172964 0.388754 0.167201
0.182025 0.390342 0.168790
0.192501 0.392179 0.170626
0.204172 0.394225 0.172673
0.216893 0.396456 0.174903
0.230560 0.398852 0.177299
0.245092 0.401400 0.179847
0.260425 0.404088 0.182535
0.276508 0.406908 0.185355
0.293295 0.409851 0.188298
0.310750 0.412911 0.191358
0.328841 0.416083 0.194530
0.347538 0.419361 0.197808
0.366817 0.422741 0.201188
0.386655 0.426219 0.204667
0.001156 0.001156 0.017173
0.005447 0.001909 0.017925
0.012705 0.003181 0.019198
0.021766 0.004770 0.020786
0.032242 0.006607 0.022623
0.043913 0.008653 0.024669
0.056634 0.010883 0.026900
0.070301 0.013279 0.029296
0.084833 0.015827 0.031844
0.100166 0.018515 0.034532
0.116248 0.021335 0.037352
0.133036 0.024278 0.040295
0.150491 0.027339 0.043355
0.168582 0.030510 0.046527
0.187279 0.033788 0.049805
0.206558 0.037169 0.053185
0.226396 0.040647 0.056663
0.005153 0.010742 0.021170
0.009443 0.011494 0.021922
0.016702 0.012766 0.023195
0.025763 0.014355 0.024783
0.036239 0.016192 0.026620
0.047910 0.018238 0.028666
0.060631 0.020468 0.030897
0.074298 0.022865 0.033293
0.088829 0.025412 0.035840
0.104163 0.028101 0.038529
0.120245 0.030920 0.041348
0.137033 0.033864 0.044292
0.154488 0.036924 0.047352
0.172579 0.040096 0.050524
0.191276 0.043374 0.053802
0.210555 0.046754 0.057182
0.230393 0.050232 0.060660
0.011228 0.025310 0.027245
0.015518 0.026062 0.027997
0.022776 0.027335 0.029269
0.031838 0.028923 0.030858
0.042313 0.030760 0.032695
0.053984 0.032806 0.034741
0.066706 0.035037 0.036971
0.080372 0.037433 0.039367
0.094904 0.039981 0.041915
0.110237 0.042669 0.044603
0.126320 0.045489 0.047423
0.143107 0.048432 0.050366
0.160563 0.051492 0.053427
0.178653 0.054664 0.056598
0.197350 0.057942 0.059877
0.216629 0.061322 0.063257
0.236467 0.064800 0.066735
0.018450 0.042630 0.034466
0.022740 0.043382 0.035219
0.029998 0.044655 0.036491
0.039060 0.046243 0.038080
0.049535 0.048080 0.039917
0.061206 0.050126 0.041963
0.073928 0.052356 0.044193
0.087594 0.054753 0.046589
0.102126 0.057300 0.049137
0.117459 0.059989 0.051825
0.133542 0.062808 0.054645
0.150329 0.065752 0.057588
0.167785 0.068812 0.060649
0.185875 0.071984 0.063820
0.204572 0.075262 0.067099
0.223851 0.078642 0.070479
0.243689 0.082120 0.073957
0.026535 0.062020 0.042552
0.030825 0.062772 0.043304
0.038083 0.064044 0.044576
0.047145 0.065633 0.046165
0.057621 0.067470 0.048002
0.069291 0.069516 0.050048
0.082013 0.071746 0.052278
0.095679 0.074142 0.054674
0.110211 0.076690 0.057222
0.125545 0.079379 0.059911
0.141627 0.082198 0.062730
0.158414 0.085141 0.065673
0.175870 0.088202 0.068734
0.193960 0.091374 0.071906
0.212658 0.094652 0.075184
0.231937 0.098032 0.078564
0.251775 0.101510 0.082042
0.035329 0.083110 0.051346
0.039619 0.083862 0.052098
0.046877 0.085135 0.053371
0.055939 0.086724 0.054959
0.066415 0.088560 0.056796
0.078086 0.090606 0.058842
0.090807 0.092837 0.061072
0.104474 0.095233 0.063469
0.119005 0.097781 0.066016
0.134339 0.100469 0.068705
0.150421 0.103289 0.071524
0.167209 0.106232 0.074468
0.184664 0.109292 0.077528
0.202754 0.112464 0.080700
0.221452 0.115742 0.083978
0.240731 0.119122 0.087358
0.260569 0.122600 0.090836
0.044733 0.105663 0.060750
0.049023 0.106415 0.061502
0.056282 0.107688 0.062775
0.065343 0.109276 0.064363
0.075819 0.111113 0.066200
0.087490 0.113159 0.068246
0.100211 0.115390 0.070477
0.113878 0.117786 0.072873
0.128409 0.120334 0.075420
0.143743 0.123022 0.078109
0.159825 0.125841 0.080928
0.176613 0.128785 0.083872
0.194068 0.131845 0.086932
0.212159 0.135017 0.090104
0.230856 0.138295 0.093382
0.250135 0.141675 0.096762
0.269973 0.145153 0.100240
0.054677 0.129509 0.070693
0.058967 0.130261 0.071445
0.066225 0.131534 0.072718
0.075287 0.133123 0.074307
0.085762 0.134959 0.076143
0.097433 0.137006 0.078190
0.110154 0.139236 0.080420
0.123821 0.141632 0.082816
0.138353 0.144180 0.085364
0.153686 0.146868 0.088052
0.169769 0.149688 0.090872
0.186556 0.152631 0.093815
0.204011 0.155692 0.096876
0.222102 0.158863 0.100047
0.240799 0.162141 0.103325
0.260078 0.165522 0.106705
0.279916 0.169000 0.110184
0.065106 0.154522 0.081123
0.069397 0.155274 0.081875
0.076655 0.156547 0.083148
0.085716 0.158136 0.084737
0.096192 0.159972 0.086573
0.107863 0.162018 0.088619
0.120584 0.164249 0.090850
0.134251 0.166645 0.093246
0.148783 0.169193 0.095794
0.164116 0.171881 0.098482
0.180198 0.174701 0.101302
0.196986 0.177644 0.104245
0.214441 0.180704 0.107305
0.232532 0.183876 0.110477
0.251229 0.187154 0.113755
0.270508 0.190534 0.117135
0.290346 0.194012 0.120613
0.075981 0.180602 0.091998
0.080271 0.181354 0.092750
0.087529 0.182626 0.094022
0.096591 0.184215 0.095611
0.107067 0.186052 0.097448
0.118737 0.188098 0.099494
0.131459 0.190328 0.101724
0.145125 0.192724 0.104120
0.159657 0.195272 0.106668
0.174991 0.197960 0.109357
0.191073 0.200780 0.112176
0.207860 0.203723 0.115119
0.225316 0.206784 0.118180
0.243406 0.209956 0.121352
0.262104 0.213234 0.124630
0.281383 0.216614 0.128010
0.301221 0.220092 0.131488
0.087267 0.207667 0.103283
0.091557 0.208419 0.104035
0.098815 0.209691 0.105308
0.107876 0.211280 0.106897
0.118352 0.213117 0.108733
0.130023 0.215163 0.110779
0.142744 0.217393 0.113010
0.156411 0.219789 0.115406
0.170943 0.222337 0.117954
0.186276 0.225026 0.120642
0.202358 0.227845 0.123462
0.219146 0.230789 0.126405
0.236601 0.233849 0.129465
0.254692 0.237021 0.132637
0.273389 0.240299 0.135915
0.292668 0.243679 0.139295
0.312506 0.247157 0.142773
0.098935 0.235651 0.114952
0.103225 0.236403 0.115704
0.110483 0.237675 0.116976
0.119545 0.239264 0.118565
0.130021 0.241101 0.120402
0.141692 0.243147 0.122448
0.154413 0.245377 0.124678
0.168079 0.247773 0.127075
0.182611 0.250321 0.129622
0.197945 0.253009 0.132311
0.214027 0.255829 0.135130
0.230815 0.258772 0.138074
0.248270 0.261833 0.141134
0.266360 0.265004 0.144306
0.285058 0.268283 0.147584
0.304337 0.271663 0.150964
0.324175 0.275141 0.154442
0.110963 0.264496 0.126980
0.115253 0.265248 0.127732
0.122512 0.266521 0.129005
0.131573 0.268110 0.130593
0.142049 0.269946 0.132430
0.153720 0.271993 0.134476
0.166441 0.274223 0.136707
0.180108 0.276619 0.139103
0.194639 0.279167 0.141650
0.209973 0.281855 0.144339
0.226055 0.284675 0.147158
0.242843 0.287618 0.150102
0.260298 0.290679 0.153162
0.278389 0.293850 0.156334
0.297086 0.297128 0.159612
0.316365 0.300509 0.162992
0.336203 0.303987 0.166470
0.123330 0.294155 0.139347
0.127621 0.294908 0.140099
0.134879 0.296180 0.141372
0.143940 0.297769 0.142960
0.154416 0.299606 0.144797
0.166087 0.301652 0.146843
0.178808 0.303882 0.149074
0.192475 0.306278 0.151470
0.207007 0.308826 0.154018
0.222340 0.311514 0.156706
0.238422 0.314334 0.159526
0.255210 0.317277 0.162469
0.272665 0.320338 0.165529
0.290756 0.323509 0.168701
0.309453 0.326788 0.171979
0.328732 0.330168 0.175359
0.348570 0.333646 0.178837
0.136019 0.324586 0.152036
0.140309 0.325338 0.152788
0.147567 0.326610 0.154060
0.156629 0.328199 0.155649
0.167105 0.330036 0.157486
0.178776 0.332082 0.159532
0.191497 0.334312 0.161762
0.205163 0.336708 0.164158
0.219695 0.339256 0.166706
0.235029 0.341944 0.169395
0.251111 0.344764 0.172214
0.267899 0.347707 0.175158
0.285354 0.350768 0.178218
0.303444 0.353939 0.181390
0.322142 0.357218 0.184668
0.341421 0.360598 0.188048
0.361259 0.364076 0.191526
0.149014 0.355749 0.165030
0.153304 0.356501 0.165782
0.160562 0.357774 0.167055
0.169624 0.359363 0.168644
0.180099 0.361199 0.170480
0.191770 0.363246 0.172527
0.204491 0.365476 0.174757
0.218158 0.367872 0.177153
0.232690 0.370420 0.179701
0.248023 0.373108 0.182389
0.264106 0.375928 0.185209
0.280893 0.378871 0.188152
0.298348 0.381932 0.191213
0.316439 0.385103 0.194384
0.335136 0.388381 0.197662
0.354415 0.391761 0.201042
0.374253 0.395240 0.204521
0.162301 0.387614 0.178317
0.166591 0.388366 0.179069
0.173849 0.389639 0.180342
0.182910 0.391227 0.181931
0.193386 0.393064 0.183767
0.205057 0.395110 0.185813
0.217778 0.397341 0.188044
0.231445 0.399737 0.190440
0.245977 0.402284 0.192988
0.261310 0.404973 0.195676
0.277392 0.407792 0.198496
0.294180 0.410736 0.201439
0.311635 0.413796 0.204499
0.329726 0.416968 0.207671
0.348423 0.420246 0.210949
0.367702 0.423626 0.214329
0.387540 0.427104 0.217807
0.002222 0.002222 0.032999
0.006512 0.002974 0.033752
0.013770 0.004247 0.035024
0.022832 0.005836 0.036613
0.033308 0.007672 0.038450
0.044979 0.009718 0.040496
0.057700 0.011949 0.042726
0.071366 0.014345 0.045122
0.085898 0.016893 0.047670
0.101232 0.019581 0.050358
0.117314 0.022401 0.053178
0.134102 0.025344 0.056121
0.151557 0.028404 0.059182
0.169647 0.031576 0.062353
0.188345 0.034854 0.065632
0.207624 0.038234 0.069012
0.227462 0.041712 0.072490
0.006219 0.011807 0.036996
0.010509 0.012560 0.037748
0.017767 0.013832 0.039021
0.026829 0.015421 0.040610
0.037305 0.017258 0.042446
0.048975 0.019304 0.044493
0.061697 0.021534 0.046723
0.075363 0.023930 0.049119
0.089895 0.026478 0.051667
0.105229 0.029166 0.054355
0.121311 0.031986 0.057175
0.138098 0.034929 0.060118
0.155554 0.037990 0.063179
0.173644 0.041161 0.066350
0.192342 0.044440 0.069628
0.211621 0.047820 0.073008
0.231459 0.051298 0.076487
0.012294 0.026376 0.043071
0.016584 0.027128 0.043823
0.023842 0.028400 0.045096
0.032903 0.029989 0.046684
0.043379 0.031826 0.048521
0.055050 0.033872 0.050567
0.067771 0.036102 0.052798
0.081438 0.038498 0.055194
0.095970 0.041046 0.057742
0.111303 0.043735 0.060430
0.127386 0.046554 0.063250
0.144173 0.049498 0.066193
0.161628 0.052558 0.069253
0.179719 0.055730 0.072425
0.198416 0.059008 0.075703
0.217695 0.062388 0.079083
0.237533 0.065866 0.082561
0.019516 0.043696 0.050293
0.023806 0.044448 0.051045
0.031064 0.045720 0.052318
0.040125 0.047309 0.053906
0.050601 0.049146 0.055743
0.062272 0.051192 0.057789
0.074993 0.053422 0.060020
0.088660 0.055818 0.062416
0.103192 0.058366 0.064964
0.118525 0.061054 0.067652
0.134608 0.063874 0.070471
0.151395 0.066817 0.073415
0.168850 0.069878 0.076475
0.186941 0.073050 0.079647
0.205638 0.076328 0.082925
0.224917 0.079708 0.086305
0.244755 0.083186 0.089783
0.027601 0.063085 0.058378
0.031891 0.063838 0.059130
0.039149 0.065110 0.060403
0.048211 0.066699 0.061991
0.058686 0.068535 0.063828
0.070357 0.070582 0.065874
0.083078 0.072812 0.068105
0.096745 0.075208 0.070501
0.111277 0.077756 0.073049
0.126610 0.080444 0.075737
0.142693 0.083264 0.078557
0.159480 0.086207 0.081500
0.176935 0.089268 0.084560
0.195026 0.092439 0.087732
0.213723 0.095717 0.091010
0.233002 0.099098 0.094390
0.252840 0.102576 0.097868
0.036395 0.084176 0.067172
0.040685 0.084928 0.067924
0.047943 0.086200 0.069197
0.057005 0.087789 0.070786
0.067481 0.089626 0.072622
0.079151 0.091672 0.074669
0.091873 0.093902 0.076899
0.105539 0.096299 0.079295
0.120071 0.098846 0.081843
0.135404 0.101535 0.084531
0.151487 0.104354 0.087351
0.168274 0.107298 0.090294
0.185730 0.110358 0.093354
0.203820 0.113530 0.096526
0.222518 0.116808 0.099804
0.241796 0.120188 0.103184
0.261635 0.123666 0.106663
0.045799 0.106729 0.076576
0.050089 0.107481 0.077328
0.057347 0.108753 0.078601
0.066409 0.110342 0.080190
0.076885 0.112179 0.082026
0.088555 0.114225 0.084073
0.101277 0.116455 0.086303
0.114943 0.118851 0.088699
0.129475 0.121399 0.091247
0.144809 0.124088 0.093935
0.160891 0.126907 0.096755
0.177678 0.129851 0.099698
0.195134 0.132911 0.102759
0.213224 0.136083 0.105930
0.231922 0.139361 0.109208
0.251201 0.142741 0.112588
0.271039 0.146219 0.116067
0.055742 0.130575 0.086520
0.060033 0.131327 0.087272
0.067291 0.132600 0.088544
0.076352 0.134188 0.090133
0.086828 0.136025 0.091970
0.098499 0.138071 0.094016
0.111220 0.140302 0.096246
0.124887 0.142698 0.098642
0.139419 0.145246 0.101190
0.154752 0.147934 0.103879
0.170834 0.150754 0.106698
0.187622 0.153697 0.109642
0.205077 0.156757 0.112702
0.223168 0.159929 0.115874
0.241865 0.163207 0.119152
0.261144 0.166587 0.122532
0.280982 0.170065 0.126010
0.066172 0.155588 0.096950
0.070462 0.156340 0.097702
0.077720 0.157613 0.098974
0.086782 0.159201 0.100563
0.097258 0.161038 0.102400
0.108929 0.163084 0.104446
0.121650 0.165315 0.106676
0.135316 0.167711 0.109072
0.149848 0.170258 0.111620
0.165182 0.172947 0.114308
0.181264 0.175766 0.117128
0.198052 0.178710 0.120071
0.215507 0.181770 0.123132
0.233597 0.184942 0.126303
0.252295 0.188220 0.129582
0.271574 0.191600 0.132962
0.291412 0.195078 0.136440
0.077047 0.181667 0.107824
0.081337 0.182419 0.108576
0.088595 0.183692 0.109849
0.097657 0.185281 0.111437
0.108132 0.187117 0.113274
0.119803 0.189164 0.115320
0.132524 0.191394 0.117551
0.146191 0.193790 0.119947
0.160723 0.196338 0.122495
0.176056 0.199026 0.125183
0.192139 0.201846 0.128003
0.208926 0.204789 0.130946
0.226381 0.207849 0.134006
0.244472 0.211021 0.137178
0.263169 0.214299 0.140456
0.282448 0.217679 0.143836
0.302286 0.221158 0.147314
0.088332 0.208732 0.119110
0.092622 0.209485 0.119862
0.099881 0.210757 0.121134
0.108942 0.212346 0.122723
0.119418 0.214183 0.124560
0.131089 0.216229 0.126606
0.143810 0.218459 0.128836
0.157477 0.220855 0.131232
0.172008 0.223403 0.133780
0.187342 0.226091 0.136469
0.203424 0.228911 0.139288
0.220212 0.231854 0.142231
0.237667 0.234915 0.145292
0.255758 0.238086 0.148464
0.274455 0.241365 0.151742
0.293734 0.244745 0.155122
0.313572 0.248223 0.158600
0.100001 0.236716 0.130778
0.104291 0.237468 0.131530
0.111549 0.238741 0.132803
0.120611 0.240330 0.134392
0.131087 0.242166 0.136228
0.142757 0.244213 0.138275
0.155479 0.246443 0.140505
0.169145 0.248839 0.142901
0.183677 0.251387 0.145449
0.199010 0.254075 0.148137
0.215093 0.256895 0.150957
0.231880 0.259838 0.153900
0.249336 0.262898 0.156960
0.267426 0.266070 0.160132
0.286124 0.269348 0.163410
0.305402 0.272728 0.166790
0.325241 0.276207 0.170269
0.112029 0.265562 0.142806
0.116319 0.266314 0.143558
0.123577 0.267587 0.144831
0.132639 0.269175 0.146420
0.143115 0.271012 0.148256
0.154785 0.273058 0.150303
0.167507 0.275289 0.152533
0.181173 0.277685 0.154929
0.195705 0.280233 0.157477
0.211038 0.282921 0.160165
0.227121 0.285741 0.162985
0.243908 0.288684 0.165928
0.261364 0.291744 0.168989
0.279454 0.294916 0.172160
0.298152 0.298194 0.175438
0.317431 0.301574 0.178818
0.337269 0.305052 0.182297
0.124396 0.295221 0.155173
0.128686 0.295973 0.155926
0.135944 0.297246 0.157198
0.145006 0.298835 0.158787
0.155482 0.300671 0.160624
0.167153 0.302717 0.162670
0.179874 0.304948 0.164900
0.193540 0.307344 0.167296
0.208072 0.309892 0.169844
0.223406 0.312580 0.172532
0.239488 0.315400 0.175352
0.256276 0.318343 0.178295
0.273731 0.321403 0.181356
0.291821 0.324575 0.184527
0.310519 0.327853 0.187806
0.329798 0.331233 0.191186
0.349636 0.334711 0.194664
0.137085 0.325651 0.167862
0.141375 0.326403 0.168614
0.148633 0.327676 0.169887
0.157695 0.329265 0.171476
0.168170 0.331101 0.173312
0.179841 0.333148 0.175358
0.192562 0.335378 0.177589
0.206229 0.337774 0.179985
0.220761 0.340322 0.182533
0.236094 0.343010 0.185221
0.252177 0.345830 0.188041
0.268964 0.348773 0.190984
0.286420 0.351833 0.194044
0.304510 0.355005 0.197216
0.323207 0.358283 0.200494
0.342486 0.361663 0.203874
0.362324 0.365142 0.207352
0.150079 0.356815 0.180857
0.154370 0.357567 0.181609
0.161628 0.358840 0.182881
0.170689 0.360428 0.184470
0.181165 0.362265 0.186307
0.192836 0.364311 0.188353
0.205557 0.366542 0.190583
0.219224 0.368938 0.192980
0.233756 0.371486 0.195527
0.249089 0.374174 0.198216
0.265171 0.376994 0.201035
0.281959 0.379937 0.203979
0.299414 0.382997 0.207039
0.317505 0.386169 0.210211
0.336202 0.389447 0.213489
0.355481 0.392827 0.216869
0.375319 0.396305 0.220347
0.163366 0.388680 0.194144
0.167656 0.389432 0.194896
0.174914 0.390704 0.196168
0.183976 0.392293 0.197757
0.194452 0.394130 0.199594
0.206123 0.396176 0.201640
0.218844 0.398406 0.203870
0.232511 0.400802 0.206266
0.247042 0.403350 0.208814
0.262376 0.406038 0.211502
0.278458 0.408858 0.214322
0.295246 0.411801 0.217265
0.312701 0.414862 0.220326
0.330791 0.418034 0.223497
0.349489 0.421312 0.226776
0.368768 0.424692 0.230156
0.388606 0.428170 0.233634
0.003405 0.003405 0.050567
0.007695 0.004157 0.051319
0.014953 0.005430 0.052591
0.024015 0.007019 0.054180
0.034491 0.008855 0.056017
0.046162 0.010901 0.058063
0.058883 0.013132 0.060293
0.072549 0.015528 0.062690
0.087081 0.018076 0.065237
0.102415 0.020764 0.067926
0.118497 0.023584 0.070745
0.135285 0.026527 0.073689
0.152740 0.029587 0.076749
0.170830 0.032759 0.079921
0.189528 0.036037 0.083199
0.208807 0.039417 0.086579
0.228645 0.042895 0.090057
0.007402 0.012990 0.054564
