luts/creative/desaturated_moody.cube
TITLE "Desaturated Moody"
LUT_3D_SIZE 17
DOMAIN_MIN 0.0 0.0 0.0
DOMAIN_MAX 1.0 1.0 1.0
0.045512 0.044939 0.044376
0.084324 0.049757 0.049194
0.124033 0.054687 0.054124
0.164255 0.059680 0.059117
0.204841 0.064718 0.064155
0.245710 0.069791 0.069228
0.286812 0.074894 0.074331
0.328111 0.080021 0.079457
0.369582 0.085169 0.084606
0.411205 0.090336 0.089773
0.452964 0.095520 0.094957
0.494846 0.100719 0.100156
0.536842 0.105932 0.105369
0.578942 0.111159 0.110595
0.621139 0.116397 0.115834
0.663426 0.121646 0.121083
0.685449 0.124380 0.123817
0.061398 0.094143 0.060262
0.100210 0.098961 0.065080
0.139919 0.103890 0.070009
0.180141 0.108883 0.075003
0.220727 0.113922 0.080041
0.261596 0.118995 0.085114
0.302698 0.124098 0.090217
0.343997 0.129224 0.095343
0.385468 0.134372 0.100492
0.427091 0.139539 0.105659
0.468850 0.144723 0.110842
0.510732 0.149923 0.116042
0.552728 0.155136 0.121255
0.594828 0.160362 0.126481
0.637025 0.165600 0.131719
0.679312 0.170850 0.136969
0.701335 0.173584 0.139703
0.077780 0.144883 0.076644
0.116592 0.149701 0.081462
0.156301 0.154631 0.086392
0.196523 0.159624 0.091385
0.237109 0.164662 0.096423
0.277978 0.169736 0.101496
0.319080 0.174838 0.106599
0.360379 0.179965 0.111725
0.401850 0.185113 0.116874
0.443473 0.190280 0.122041
0.485232 0.195464 0.127225
0.527114 0.200663 0.132424
0.569110 0.205876 0.137637
0.611210 0.211103 0.142863
0.653407 0.216341 0.148102
0.695694 0.221590 0.153351
0.717717 0.224324 0.156085
0.094448 0.196508 0.093312
0.133260 0.201326 0.098130
0.172969 0.206256 0.103059
0.213191 0.211249 0.108052
0.253776 0.216287 0.113090
0.294646 0.221360 0.118164
0.335747 0.226463 0.123266
0.377047 0.231590 0.128393
0.418518 0.236738 0.133541
0.460140 0.241905 0.138708
0.501899 0.247089 0.143892
0.543782 0.252288 0.149091
0.585778 0.257501 0.154305
0.627878 0.262727 0.159531
0.670074 0.267966 0.164769
0.712362 0.273215 0.170019
0.734385 0.275949 0.172753
0.111319 0.248763 0.110183
0.150131 0.253582 0.115001
0.189840 0.258511 0.119930
0.230062 0.263504 0.124923
0.270648 0.268542 0.129962
0.311517 0.273616 0.135035
0.352619 0.278718 0.140137
0.393918 0.283845 0.145264
0.435389 0.288993 0.150412
0.477011 0.294160 0.155579
0.518770 0.299344 0.160763
0.560653 0.304543 0.165963
0.602649 0.309757 0.171176
0.644749 0.314983 0.176402
0.686946 0.320221 0.181640
0.729233 0.325471 0.186890
0.751256 0.328204 0.189624
0.128349 0.301511 0.127213
0.167161 0.306329 0.132031
0.206870 0.311259 0.136960
0.247092 0.316252 0.141953
0.287678 0.321290 0.146992
0.328547 0.326363 0.152065
0.369649 0.331466 0.157168
0.410948 0.336593 0.162294
0.452419 0.341741 0.167442
0.494042 0.346908 0.172609
0.535801 0.352092 0.177793
0.577683 0.357291 0.182993
0.619679 0.362504 0.188206
0.661779 0.367730 0.193432
0.703976 0.372969 0.198670
0.746263 0.378218 0.203920
0.768286 0.380952 0.206654
0.145510 0.354664 0.144374
0.184322 0.359482 0.149192
0.224031 0.364411 0.154121
0.264253 0.369404 0.159114
0.304838 0.374442 0.164153
0.345708 0.379516 0.169226
0.386810 0.384618 0.174328
0.428109 0.389745 0.179455
0.469580 0.394893 0.184603
0.511202 0.400060 0.189770
0.552961 0.405244 0.194954
0.594844 0.410443 0.200153
0.636840 0.415657 0.205367
0.678940 0.420883 0.210593
0.721137 0.426121 0.215831
0.763424 0.431371 0.221081
0.785447 0.434105 0.223815
0.162782 0.408160 0.161646
0.201594 0.412978 0.166464
0.241303 0.417908 0.171393
0.281525 0.422901 0.176386
0.322110 0.427939 0.181425
0.362980 0.433013 0.186498
0.404081 0.438115 0.191600
0.445381 0.443242 0.196727
0.486852 0.448390 0.201875
0.528474 0.453557 0.207042
0.570233 0.458741 0.212226
0.612116 0.463940 0.217425
0.654112 0.469153 0.222639
0.696212 0.474380 0.227865
0.738409 0.479618 0.233103
0.780696 0.484867 0.238353
0.802719 0.487601 0.241087
0.180151 0.461957 0.179014
0.218963 0.466775 0.183832
0.258672 0.471704 0.188762
0.298893 0.476697 0.193755
0.339479 0.481736 0.198793
0.380348 0.486809 0.203867
0.421450 0.491911 0.208969
0.462749 0.497038 0.214096
0.504220 0.502186 0.219244
0.545843 0.507353 0.224411
0.587602 0.512537 0.229595
0.629485 0.517737 0.234794
0.671480 0.522950 0.240007
0.713580 0.528176 0.245234
0.755777 0.533414 0.250472
0.798064 0.538664 0.255721
0.820087 0.541398 0.258455
0.197605 0.516019 0.196469
0.236417 0.520837 0.201287
0.276126 0.525766 0.206216
0.316348 0.530759 0.211209
0.356934 0.535798 0.216248
0.397803 0.540871 0.221321
0.438905 0.545973 0.226423
0.480204 0.551100 0.231550
0.521675 0.556248 0.236698
0.563298 0.561415 0.241865
0.605057 0.566599 0.247049
0.646939 0.571799 0.252249
0.688935 0.577012 0.257462
0.731035 0.582238 0.262688
0.773232 0.587476 0.267926
0.815519 0.592726 0.273176
0.837542 0.595460 0.275910
0.215137 0.570319 0.214000
0.253949 0.575137 0.218818
0.293658 0.580067 0.223748
0.333879 0.585060 0.228741
0.374465 0.590098 0.233779
0.415334 0.595172 0.238853
0.456436 0.600274 0.243955
0.497735 0.605401 0.249082
0.539206 0.610549 0.254230
0.580829 0.615716 0.259397
0.622588 0.620900 0.264581
0.664471 0.626099 0.269780
0.706466 0.631312 0.274993
0.748566 0.636539 0.280220
0.790763 0.641777 0.285458
0.833050 0.647026 0.290707
0.855073 0.649760 0.293441
0.232738 0.624837 0.231602
0.271550 0.629655 0.236420
0.311259 0.634584 0.241349
0.351481 0.639577 0.246342
0.392067 0.644615 0.251381
0.432936 0.649689 0.256454
0.474038 0.654791 0.261556
0.515337 0.659918 0.266683
0.556808 0.665066 0.271831
0.598430 0.670233 0.276998
0.640189 0.675417 0.282182
0.682072 0.680616 0.287382
0.724068 0.685830 0.292595
0.766168 0.691056 0.297821
0.808365 0.696294 0.303059
0.850652 0.701544 0.308309
0.872675 0.704278 0.311043
0.250403 0.679552 0.249267
0.289216 0.684370 0.254085
0.328925 0.689300 0.259015
0.369146 0.694293 0.264008
0.409732 0.699331 0.269046
0.450601 0.704405 0.274120
0.491703 0.709507 0.279222
0.533002 0.714634 0.284349
0.574473 0.719782 0.289497
0.616096 0.724949 0.294664
0.657855 0.730133 0.299848
0.699738 0.735332 0.305047
0.741733 0.740545 0.310260
0.783833 0.745772 0.315487
0.826030 0.751010 0.320725
0.868317 0.756259 0.325974
0.890340 0.758993 0.328708
0.268128 0.734451 0.266992
0.306940 0.739269 0.271810
0.346649 0.744199 0.276740
0.386871 0.749192 0.281733
0.427457 0.754230 0.286771
0.468326 0.759303 0.291844
0.509428 0.764406 0.296947
0.550727 0.769533 0.302073
0.592198 0.774681 0.307222
0.633821 0.779848 0.312389
0.675580 0.785032 0.317573
0.717462 0.790231 0.322772
0.759458 0.795444 0.327985
0.801558 0.800670 0.333211
0.843755 0.805909 0.338450
0.886042 0.811158 0.343699
0.908065 0.813892 0.346433
0.285908 0.789520 0.284772
0.324720 0.794338 0.289590
0.364429 0.799268 0.294519
0.404651 0.804261 0.299512
0.445236 0.809299 0.304550
0.486106 0.814372 0.309624
0.527207 0.819475 0.314726
0.568507 0.824602 0.319853
0.609977 0.829750 0.325001
0.651600 0.834917 0.330168
0.693359 0.840101 0.335352
0.735242 0.845300 0.340551
0.777238 0.850513 0.345765
0.819338 0.855739 0.350991
0.861534 0.860978 0.356229
0.903822 0.866227 0.361479
0.925845 0.868961 0.364213
0.303739 0.844748 0.302602
0.342551 0.849566 0.307421
0.382260 0.854495 0.312350
0.422481 0.859489 0.317343
0.463067 0.864527 0.322381
0.503936 0.869600 0.327455
0.545038 0.874703 0.332557
0.586337 0.879829 0.337684
0.627808 0.884978 0.342832
0.669431 0.890145 0.347999
0.711190 0.895328 0.353183
0.753073 0.900528 0.358382
0.795068 0.905741 0.363596
0.837168 0.910967 0.368822
0.879365 0.916205 0.374060
0.921652 0.921455 0.379309
0.943676 0.924189 0.382043
0.313030 0.873526 0.311894
0.351842 0.878344 0.316712
0.391551 0.883273 0.321641
0.431773 0.888266 0.326634
0.472358 0.893305 0.331673
0.513228 0.898378 0.336746
0.554329 0.903480 0.341848
0.595629 0.908607 0.346975
0.637100 0.913755 0.352123
0.678722 0.918922 0.357290
0.720481 0.924106 0.362474
0.762364 0.929306 0.367673
0.804360 0.934519 0.372887
0.846460 0.939745 0.378113
0.888657 0.944983 0.383351
0.930944 0.950233 0.388601
0.952967 0.952967 0.391335
0.047083 0.046510 0.078585
0.085895 0.051328 0.083403
0.125604 0.056258 0.088332
0.165826 0.061251 0.093325
0.206412 0.066289 0.098364
0.247281 0.071362 0.103437
0.288383 0.076465 0.108539
0.329682 0.081592 0.113666
0.371153 0.086740 0.118814
0.412776 0.091907 0.123981
0.454535 0.097091 0.129165
0.496417 0.102290 0.134365
0.538413 0.107503 0.139578
0.580513 0.112729 0.144804
0.622710 0.117968 0.150042
0.664997 0.123217 0.155292
0.687020 0.125951 0.158026
0.062969 0.095714 0.094471
0.101781 0.100532 0.099289
0.141490 0.105461 0.104218
0.181712 0.110454 0.109211
0.222298 0.115493 0.114250
0.263167 0.120566 0.119323
0.304269 0.125668 0.124425
0.345568 0.130795 0.129552
0.387039 0.135943 0.134700
0.428662 0.141110 0.139867
0.470421 0.146294 0.145051
0.512303 0.151494 0.150250
0.554299 0.156707 0.155464
0.596399 0.161933 0.160690
0.638596 0.167171 0.165928
0.680883 0.172421 0.171178
0.702906 0.175155 0.173912
0.079351 0.146454 0.110853
0.118163 0.151272 0.115671
0.157872 0.156202 0.120600
0.198094 0.161195 0.125593
0.238680 0.166233 0.130632
0.279549 0.171307 0.135705
0.320651 0.176409 0.140807
0.361950 0.181536 0.145934
0.403421 0.186684 0.151082
0.445044 0.191851 0.156249
0.486803 0.197035 0.161433
0.528685 0.202234 0.166633
0.570681 0.207447 0.171846
0.612781 0.212674 0.177072
0.654978 0.217912 0.182310
0.697265 0.223161 0.187560
0.719288 0.225895 0.190294
0.096019 0.198079 0.127520
0.134831 0.202897 0.132339
0.174540 0.207827 0.137268
0.214762 0.212820 0.142261
0.255347 0.217858 0.147299
0.296217 0.222931 0.152373
0.337318 0.228034 0.157475
0.378618 0.233161 0.162602
0.420088 0.238309 0.167750
0.461711 0.243476 0.172917
0.503470 0.248660 0.178101
0.545353 0.253859 0.183300
0.587349 0.259072 0.188513
0.629449 0.264298 0.193740
0.671645 0.269537 0.198978
0.713933 0.274786 0.204227
0.735956 0.277520 0.206961
0.112890 0.250334 0.144392
0.151702 0.255153 0.149210
0.191411 0.260082 0.154139
0.231633 0.265075 0.159132
0.272218 0.270113 0.164170
0.313088 0.275187 0.169244
0.354190 0.280289 0.174346
0.395489 0.285416 0.179473
0.436960 0.290564 0.184621
0.478582 0.295731 0.189788
0.520341 0.300915 0.194972
0.562224 0.306114 0.200171
0.604220 0.311327 0.205385
0.646320 0.316554 0.210611
0.688517 0.321792 0.215849
0.730804 0.327041 0.221099
0.752827 0.329775 0.223833
0.129920 0.303082 0.161422
0.168732 0.307900 0.166240
0.208441 0.312830 0.171169
0.248663 0.317823 0.176162
0.289249 0.322861 0.181201
0.330118 0.327934 0.186274
0.371220 0.333037 0.191376
0.412519 0.338164 0.196503
0.453990 0.343312 0.201651
0.495613 0.348479 0.206818
0.537372 0.353663 0.212002
0.579254 0.358862 0.217201
0.621250 0.364075 0.222415
0.663350 0.369301 0.227641
0.705547 0.374540 0.232879
0.747834 0.379789 0.238129
0.769857 0.382523 0.240863
0.147081 0.356235 0.178583
0.185893 0.361053 0.183401
0.225602 0.365982 0.188330
0.265824 0.370975 0.193323
0.306409 0.376013 0.198361
0.347279 0.381087 0.203435
0.388380 0.386189 0.208537
0.429680 0.391316 0.213664
0.471151 0.396464 0.218812
0.512773 0.401631 0.223979
0.554532 0.406815 0.229163
0.596415 0.412014 0.234362
0.638411 0.417228 0.239576
0.680511 0.422454 0.244802
0.722708 0.427692 0.250040
0.764995 0.432942 0.255290
0.787018 0.435676 0.258023
0.164353 0.409731 0.195854
0.203165 0.414549 0.200673
0.242874 0.419479 0.205602
0.283096 0.424472 0.210595
0.323681 0.429510 0.215633
0.364551 0.434584 0.220707
0.405652 0.439686 0.225809
0.446952 0.444813 0.230936
0.488423 0.449961 0.236084
0.530045 0.455128 0.241251
0.571804 0.460312 0.246435
0.613687 0.465511 0.251634
0.655683 0.470724 0.256848
0.697783 0.475951 0.262074
0.739980 0.481189 0.267312
0.782267 0.486438 0.272562
0.804290 0.489172 0.275295
0.181722 0.463528 0.213223
0.220534 0.468346 0.218041
0.260243 0.473275 0.222971
0.300464 0.478268 0.227964
0.341050 0.483307 0.233002
0.381919 0.488380 0.238076
0.423021 0.493482 0.243178
0.464320 0.498609 0.248305
0.505791 0.503757 0.253453
0.547414 0.508924 0.258620
0.589173 0.514108 0.263804
0.631056 0.519307 0.269003
0.673051 0.524521 0.274216
0.715151 0.529747 0.279443
0.757348 0.534985 0.284681
0.799635 0.540235 0.289930
0.821658 0.542969 0.292664
0.199176 0.517590 0.230678
0.237988 0.522408 0.235496
0.277697 0.527337 0.240425
0.317919 0.532330 0.245418
0.358505 0.537369 0.250457
0.399374 0.542442 0.255530
0.440476 0.547544 0.260632
0.481775 0.552671 0.265759
0.523246 0.557819 0.270907
0.564868 0.562986 0.276074
0.606627 0.568170 0.281258
0.648510 0.573369 0.286457
0.690506 0.578583 0.291671
0.732606 0.583809 0.296897
0.774803 0.589047 0.302135
0.817090 0.594297 0.307385
0.839113 0.597031 0.310119
0.216707 0.571890 0.248209
0.255520 0.576708 0.253027
0.295229 0.581638 0.257957
0.335450 0.586631 0.262950
0.376036 0.591669 0.267988
0.416905 0.596743 0.273061
0.458007 0.601845 0.278164
0.499306 0.606972 0.283291
0.540777 0.612120 0.288439
0.582400 0.617287 0.293606
0.624159 0.622471 0.298790
0.666042 0.627670 0.303989
0.708037 0.632883 0.309202
0.750137 0.638110 0.314428
0.792334 0.643348 0.319667
0.834621 0.648597 0.324916
0.856644 0.651331 0.327650
0.234309 0.626408 0.265811
0.273121 0.631226 0.270629
0.312830 0.636155 0.275558
0.353052 0.641148 0.280551
0.393638 0.646186 0.285589
0.434507 0.651260 0.290663
0.475609 0.656362 0.295765
0.516908 0.661489 0.300892
0.558379 0.666637 0.306040
0.600001 0.671804 0.311207
0.641760 0.676988 0.316391
0.683643 0.682187 0.321590
0.725639 0.687401 0.326804
0.767739 0.692627 0.332030
0.809936 0.697865 0.337268
0.852223 0.703115 0.342518
0.874246 0.705848 0.345252
0.251974 0.681123 0.283476
0.290787 0.685941 0.288294
0.330496 0.690871 0.293224
0.370717 0.695864 0.298217
0.411303 0.700902 0.303255
0.452172 0.705976 0.308328
0.493274 0.711078 0.313431
0.534573 0.716205 0.318558
0.576044 0.721353 0.323706
0.617667 0.726520 0.328873
0.659426 0.731704 0.334057
0.701309 0.736903 0.339256
0.743304 0.742116 0.344469
0.785404 0.747343 0.349695
0.827601 0.752581 0.354934
0.869888 0.757830 0.360183
0.891911 0.760564 0.362917
0.269699 0.736022 0.301201
0.308511 0.740840 0.306019
0.348220 0.745770 0.310948
0.388442 0.750763 0.315941
0.429028 0.755801 0.320980
0.469897 0.760874 0.326053
0.510999 0.765977 0.331155
0.552298 0.771104 0.336282
0.593769 0.776252 0.341430
0.635392 0.781419 0.346597
0.677151 0.786603 0.351781
0.719033 0.791802 0.356981
0.761029 0.797015 0.362194
0.803129 0.802241 0.367420
0.845326 0.807480 0.372658
0.887613 0.812729 0.377908
0.909636 0.815463 0.380642
0.287479 0.791091 0.318980
0.326291 0.795909 0.323798
0.366000 0.800839 0.328728
0.406222 0.805832 0.333721
0.446807 0.810870 0.338759
0.487677 0.815943 0.343833
0.528778 0.821046 0.348935
0.570078 0.826173 0.354062
0.611548 0.831321 0.359210
0.653171 0.836488 0.364377
0.694930 0.841672 0.369561
0.736813 0.846871 0.374760
0.778809 0.852084 0.379973
0.820909 0.857310 0.385200
0.863105 0.862549 0.390438
0.905393 0.867798 0.395687
0.927416 0.870532 0.398421
0.305310 0.846319 0.336811
0.344122 0.851137 0.341629
0.383831 0.856066 0.346559
0.424052 0.861059 0.351552
0.464638 0.866098 0.356590
0.505507 0.871171 0.361664
0.546609 0.876274 0.366766
0.587908 0.881400 0.371893
0.629379 0.886548 0.377041
0.671002 0.891715 0.382208
0.712761 0.896899 0.387392
0.754644 0.902099 0.392591
0.796639 0.907312 0.397804
0.838739 0.912538 0.403031
0.880936 0.917776 0.408269
0.923223 0.923026 0.413518
0.945247 0.925760 0.416252
0.314601 0.875097 0.346102
0.353413 0.879915 0.350921
0.393122 0.884844 0.355850
0.433344 0.889837 0.360843
0.473929 0.894876 0.365881
0.514799 0.899949 0.370955
0.555900 0.905051 0.376057
0.597200 0.910178 0.381184
0.638671 0.915326 0.386332
0.680293 0.920493 0.391499
0.722052 0.925677 0.396683
0.763935 0.930877 0.401882
0.805931 0.936090 0.407096
0.848031 0.941316 0.412322
0.890228 0.946554 0.417560
0.932515 0.951804 0.422810
0.954538 0.954538 0.425543
0.048716 0.048143 0.114148
0.087529 0.052961 0.118966
0.127238 0.057891 0.123895
0.167459 0.062884 0.128889
0.208045 0.067922 0.133927
0.248914 0.072996 0.139000
0.290016 0.078098 0.144103
0.331315 0.083225 0.149229
0.372786 0.088373 0.154378
0.414409 0.093540 0.159545
0.456168 0.098724 0.164728
0.498050 0.103923 0.169928
0.540046 0.109136 0.175141
0.582146 0.114363 0.180367
0.624343 0.119601 0.185606
0.666630 0.124850 0.190855
0.688653 0.127584 0.193589
0.064602 0.097347 0.130034
0.103414 0.102165 0.134852
0.143123 0.107095 0.139781
0.183345 0.112088 0.144774
0.223931 0.117126 0.149813
0.264800 0.122199 0.154886
0.305902 0.127302 0.159989
0.347201 0.132428 0.165115
0.388672 0.137577 0.170263
0.430295 0.142744 0.175430
0.472054 0.147928 0.180614
0.513936 0.153127 0.185814
0.555932 0.158340 0.191027
0.598032 0.163566 0.196253
0.640229 0.168805 0.201491
0.682516 0.174054 0.206741
0.704539 0.176788 0.209475
0.080984 0.148087 0.146416
0.119797 0.152906 0.151234
0.159506 0.157835 0.156163
0.199727 0.162828 0.161157
0.240313 0.167866 0.166195
0.281182 0.172940 0.171268
0.322284 0.178042 0.176371
0.363583 0.183169 0.181497
0.405054 0.188317 0.186646
0.446677 0.193484 0.191813
0.488436 0.198668 0.196996
0.530318 0.203867 0.202196
0.572314 0.209081 0.207409
0.614414 0.214307 0.212635
0.656611 0.219545 0.217874
0.698898 0.224795 0.223123
0.720921 0.227528 0.225857
0.097652 0.199712 0.163084
0.136464 0.204530 0.167902
0.176173 0.209460 0.172831
0.216395 0.214453 0.177824
0.256980 0.219491 0.182862
0.297850 0.224565 0.187936
0.338952 0.229667 0.193038
0.380251 0.234794 0.198165
0.421722 0.239942 0.203313
0.463344 0.245109 0.208480
0.505103 0.250293 0.213664
0.546986 0.255492 0.218863
0.588982 0.260705 0.224077
0.631082 0.265932 0.229303
0.673279 0.271170 0.234541
0.715566 0.276419 0.239791
0.737589 0.279153 0.242525
0.114523 0.251968 0.179955
0.153335 0.256786 0.184773
0.193044 0.261715 0.189702
0.233266 0.266708 0.194695
0.273852 0.271746 0.199734
0.314721 0.276820 0.204807
0.355823 0.281922 0.209909
0.397122 0.287049 0.215036
0.438593 0.292197 0.220184
0.480216 0.297364 0.225351
0.521975 0.302548 0.230535
0.563857 0.307747 0.235734
0.605853 0.312961 0.240948
0.647953 0.318187 0.246174
0.690150 0.323425 0.251412
0.732437 0.328675 0.256662
0.754460 0.331409 0.259396
0.131553 0.304715 0.196985
0.170365 0.309533 0.201803
0.210074 0.314463 0.206732
0.250296 0.319456 0.211725
0.290882 0.324494 0.216764
0.331751 0.329568 0.221837
0.372853 0.334670 0.226939
0.414152 0.339797 0.232066
0.455623 0.344945 0.237214
0.497246 0.350112 0.242381
0.539005 0.355296 0.247565
0.580887 0.360495 0.252765
0.622883 0.365708 0.257978
0.664983 0.370935 0.263204
0.707180 0.376173 0.268442
0.749467 0.381422 0.273692
0.771490 0.384156 0.276426
0.148714 0.357868 0.214146
0.187526 0.362686 0.218964
0.227235 0.367615 0.223893
0.267457 0.372608 0.228886
0.308043 0.377647 0.233925
0.348912 0.382720 0.238998
0.390014 0.387822 0.244100
0.431313 0.392949 0.249227
0.472784 0.398097 0.254375
0.514406 0.403264 0.259542
0.556165 0.408448 0.264726
0.598048 0.413648 0.269925
0.640044 0.418861 0.275139
0.682144 0.424087 0.280365
0.724341 0.429325 0.285603
0.766628 0.434575 0.290853
0.788651 0.437309 0.293587
0.165986 0.411364 0.231418
0.204798 0.416183 0.236236
0.244507 0.421112 0.241165
0.284729 0.426105 0.246158
0.325315 0.431143 0.251196
0.366184 0.436217 0.256270
0.407286 0.441319 0.261372
0.448585 0.446446 0.266499
0.490056 0.451594 0.271647
0.531678 0.456761 0.276814
0.573437 0.461945 0.281998
0.615320 0.467144 0.287197
0.657316 0.472358 0.292411
0.699416 0.477584 0.297637
0.741613 0.482822 0.302875
0.783900 0.488072 0.308125
0.805923 0.490805 0.310859
0.183355 0.465161 0.248786
0.222167 0.469979 0.253604
0.261876 0.474908 0.258534
0.302098 0.479901 0.263527
0.342683 0.484940 0.268565
0.383553 0.490013 0.273639
0.424654 0.495116 0.278741
0.465954 0.500242 0.283868
0.507424 0.505390 0.289016
0.549047 0.510557 0.294183
0.590806 0.515741 0.299367
0.632689 0.520941 0.304566
0.674685 0.526154 0.309779
0.716785 0.531380 0.315006
0.758981 0.536618 0.320244
0.801269 0.541868 0.325493
0.823292 0.544602 0.328227
0.200809 0.519223 0.266241
0.239621 0.524041 0.271059
0.279330 0.528970 0.275988
0.319552 0.533963 0.280981
0.360138 0.539002 0.286020
0.401007 0.544075 0.291093
0.442109 0.549178 0.296195
0.483408 0.554304 0.301322
0.524879 0.559453 0.306470
0.566502 0.564619 0.311637
0.608261 0.569803 0.316821
0.650143 0.575003 0.322021
0.692139 0.580216 0.327234
0.734239 0.585442 0.332460
0.776436 0.590680 0.337698
0.818723 0.595930 0.342948
0.840746 0.598664 0.345682
0.218341 0.573523 0.283772
0.257153 0.578342 0.288590
0.296862 0.583271 0.293520
0.337084 0.588264 0.298513
0.377669 0.593302 0.303551
0.418538 0.598376 0.308625
0.459640 0.603478 0.313727
0.500940 0.608605 0.318854
0.542410 0.613753 0.324002
0.584033 0.618920 0.329169
0.625792 0.624104 0.334353
0.667675 0.629303 0.339552
0.709670 0.634517 0.344765
0.751771 0.639743 0.349992
0.793967 0.644981 0.355230
0.836255 0.650231 0.360479
0.858278 0.652964 0.363213
0.235942 0.628041 0.301374
0.274754 0.632859 0.306192
0.314463 0.637788 0.311121
0.354685 0.642781 0.316114
0.395271 0.647820 0.321153
0.436140 0.652893 0.326226
0.477242 0.657995 0.331328
0.518541 0.663122 0.336455
0.560012 0.668270 0.341603
0.601635 0.673437 0.346770
0.643394 0.678621 0.351954
0.685276 0.683820 0.357154
0.727272 0.689034 0.362367
0.769372 0.694260 0.367593
0.811569 0.699498 0.372831
0.853856 0.704748 0.378081
0.875879 0.707482 0.380815
0.253608 0.682756 0.319039
0.292420 0.687574 0.323857
0.332129 0.692504 0.328787
0.372350 0.697497 0.333780
0.412936 0.702535 0.338818
0.453805 0.707609 0.343892
0.494907 0.712711 0.348994
0.536207 0.717838 0.354121
0.577677 0.722986 0.359269
0.619300 0.728153 0.364436
0.661059 0.733337 0.369620
0.702942 0.738536 0.374819
0.744937 0.743749 0.380032
0.787038 0.748976 0.385259
0.829234 0.754214 0.390497
0.871521 0.759463 0.395746
0.893545 0.762197 0.398480
0.271332 0.737655 0.336764
0.310145 0.742473 0.341582
0.349854 0.747403 0.346511
0.390075 0.752396 0.351505
0.430661 0.757434 0.356543
0.471530 0.762508 0.361616
0.512632 0.767610 0.366719
0.553931 0.772737 0.371845
0.595402 0.777885 0.376994
0.637025 0.783052 0.382161
0.678784 0.788236 0.387344
0.720666 0.793435 0.392544
0.762662 0.798648 0.397757
0.804762 0.803875 0.402983
0.846959 0.809113 0.408222
0.889246 0.814362 0.413471
0.911269 0.817096 0.416205
0.289112 0.792724 0.354544
0.327924 0.797542 0.359362
0.367633 0.802472 0.364291
0.407855 0.807465 0.369284
0.448440 0.812503 0.374322
0.489310 0.817577 0.379396
0.530412 0.822679 0.384498
0.571711 0.827806 0.389625
0.613182 0.832954 0.394773
0.654804 0.838121 0.399940
0.696563 0.843305 0.405124
0.738446 0.848504 0.410323
0.780442 0.853717 0.415537
0.822542 0.858944 0.420763
0.864739 0.864182 0.426001
0.907026 0.869431 0.431251
0.929049 0.872165 0.433984
0.306943 0.847952 0.372374
0.345755 0.852770 0.377192
0.385464 0.857700 0.382122
0.425686 0.862693 0.387115
0.466271 0.867731 0.392153
0.507141 0.872804 0.397227
0.548242 0.877907 0.402329
0.589542 0.883034 0.407456
0.631012 0.888182 0.412604
0.672635 0.893349 0.417771
0.714394 0.898533 0.422955
0.756277 0.903732 0.428154
0.798273 0.908945 0.433367
0.840373 0.914171 0.438594
0.882569 0.919410 0.443832
0.924857 0.924659 0.449081
0.946880 0.927393 0.451815
0.316234 0.876730 0.381666
0.355046 0.881548 0.386484
0.394755 0.886477 0.391413
0.434977 0.891471 0.396406
0.475563 0.896509 0.401444
0.516432 0.901582 0.406518
0.557534 0.906685 0.411620
0.598833 0.911811 0.416747
0.640304 0.916960 0.421895
0.681926 0.922127 0.427062
0.723685 0.927310 0.432246
0.765568 0.932510 0.437445
0.807564 0.937723 0.442659
0.849664 0.942949 0.447885
0.891861 0.948188 0.453123
0.934148 0.953437 0.458373
0.956171 0.956171 0.461107
0.050385 0.049813 0.150496
0.089198 0.054631 0.155314
0.128907 0.059560 0.160243
0.169128 0.064553 0.165236
0.209714 0.069591 0.170275
0.250583 0.074665 0.175348
0.291685 0.079767 0.180450
0.332984 0.084894 0.185577
0.374455 0.090042 0.190725
0.416078 0.095209 0.195892
0.457837 0.100393 0.201076
0.499720 0.105592 0.206275
0.541715 0.110806 0.211489
0.583815 0.116032 0.216715
0.626012 0.121270 0.221953
0.668299 0.126520 0.227203
0.690322 0.129253 0.229937
0.066271 0.099016 0.166382
