luts/creative/desaturated_moody.cube
TITLE "Desaturated Moody"
LUT_3D_SIZE 9
DOMAIN_MIN 0.0 0.0 0.0
DOMAIN_MAX 1.0 1.0 1.0
0.045512 0.044939 0.044376
0.124033 0.054687 0.054124
0.204841 0.064718 0.064155
0.286812 0.074894 0.074331
0.369582 0.085169 0.084606
0.452964 0.095520 0.094957
0.536842 0.105932 0.105369
0.621139 0.116397 0.115834
0.685449 0.124380 0.123817
0.077780 0.144883 0.076644
0.156301 0.154631 0.086392
0.237109 0.164662 0.096423
0.319080 0.174838 0.106599
0.401850 0.185113 0.116874
0.485232 0.195464 0.127225
0.569110 0.205876 0.137637
0.653407 0.216341 0.148102
0.717717 0.224324 0.156085
0.111319 0.248763 0.110183
0.189840 0.258511 0.119930
0.270648 0.268542 0.129962
0.352619 0.278718 0.140137
0.435389 0.288993 0.150412
0.518770 0.299344 0.160763
0.602649 0.309757 0.171176
0.686946 0.320221 0.181640
0.751256 0.328204 0.189624
0.145510 0.354664 0.144374
0.224031 0.364411 0.154121
0.304838 0.374442 0.164153
0.386810 0.384618 0.174328
0.469580 0.394893 0.184603
0.552961 0.405244 0.194954
0.636840 0.415657 0.205367
0.721137 0.426121 0.215831
0.785447 0.434105 0.223815
0.180151 0.461957 0.179014
0.258672 0.471704 0.188762
0.339479 0.481736 0.198793
0.421450 0.491911 0.208969
0.504220 0.502186 0.219244
0.587602 0.512537 0.229595
0.671480 0.522950 0.240007
0.755777 0.533414 0.250472
0.820087 0.541398 0.258455
0.215137 0.570319 0.214000
0.293658 0.580067 0.223748
0.374465 0.590098 0.233779
0.456436 0.600274 0.243955
0.539206 0.610549 0.254230
0.622588 0.620900 0.264581
0.706466 0.631312 0.274993
0.790763 0.641777 0.285458
0.855073 0.649760 0.293441
0.250403 0.679552 0.249267
0.328925 0.689300 0.259015
0.409732 0.699331 0.269046
0.491703 0.709507 0.279222
0.574473 0.719782 0.289497
0.657855 0.730133 0.299848
0.741733 0.740545 0.310260
0.826030 0.751010 0.320725
0.890340 0.758993 0.328708
0.285908 0.789520 0.284772
0.364429 0.799268 0.294519
0.445236 0.809299 0.304550
0.527207 0.819475 0.314726
0.609977 0.829750 0.325001
0.693359 0.840101 0.335352
0.777238 0.850513 0.345765
0.861534 0.860978 0.356229
0.925845 0.868961 0.364213
0.313030 0.873526 0.311894
0.391551 0.883273 0.321641
0.472358 0.893305 0.331673
0.554329 0.903480 0.341848
0.637100 0.913755 0.352123
0.720481 0.924106 0.362474
0.804360 0.934519 0.372887
0.888657 0.944983 0.383351
0.952967 0.952967 0.391335
0.048716 0.048143 0.114148
0.127238 0.057891 0.123895
0.208045 0.067922 0.133927
0.290016 0.078098 0.144103
0.372786 0.088373 0.154378
0.456168 0.098724 0.164728
0.540046 0.109136 0.175141
0.624343 0.119601 0.185606
0.688653 0.127584 0.193589
0.080984 0.148087 0.146416
0.159506 0.157835 0.156163
0.240313 0.167866 0.166195
0.322284 0.178042 0.176371
0.405054 0.188317 0.186646
0.488436 0.198668 0.196996
0.572314 0.209081 0.207409
0.656611 0.219545 0.217874
0.720921 0.227528 0.225857
0.114523 0.251968 0.179955
0.193044 0.261715 0.189702
0.273852 0.271746 0.199734
0.355823 0.281922 0.209909
0.438593 0.292197 0.220184
0.521975 0.302548 0.230535
0.605853 0.312961 0.240948
0.690150 0.323425 0.251412
0.754460 0.331409 0.259396
0.148714 0.357868 0.214146
0.227235 0.367615 0.223893
0.308043 0.377647 0.233925
0.390014 0.387822 0.244100
0.472784 0.398097 0.254375
0.556165 0.408448 0.264726
0.640044 0.418861 0.275139
0.724341 0.429325 0.285603
0.788651 0.437309 0.293587
0.183355 0.465161 0.248786
0.261876 0.474908 0.258534
0.342683 0.484940 0.268565
0.424654 0.495116 0.278741
0.507424 0.505390 0.289016
0.590806 0.515741 0.299367
0.674685 0.526154 0.309779
0.758981 0.536618 0.320244
0.823292 0.544602 0.328227
0.218341 0.573523 0.283772
0.296862 0.583271 0.293520
0.377669 0.593302 0.303551
0.459640 0.603478 0.313727
0.542410 0.613753 0.324002
0.625792 0.624104 0.334353
0.709670 0.634517 0.344765
0.793967 0.644981 0.355230
0.858278 0.652964 0.363213
0.253608 0.682756 0.319039
0.332129 0.692504 0.328787
0.412936 0.702535 0.338818
0.494907 0.712711 0.348994
0.577677 0.722986 0.359269
0.661059 0.733337 0.369620
0.744937 0.743749 0.380032
0.829234 0.754214 0.390497
0.893545 0.762197 0.398480
0.289112 0.792724 0.354544
0.367633 0.802472 0.364291
0.448440 0.812503 0.374322
0.530412 0.822679 0.384498
0.613182 0.832954 0.394773
0.696563 0.843305 0.405124
0.780442 0.853717 0.415537
0.864739 0.864182 0.426001
0.929049 0.872165 0.433984
0.316234 0.876730 0.381666
0.394755 0.886477 0.391413
0.475563 0.896509 0.401444
0.557534 0.906685 0.411620
0.640304 0.916960 0.421895
0.723685 0.927310 0.432246
0.807564 0.937723 0.442659
0.891861 0.948188 0.453123
0.956171 0.956171 0.461107
0.052080 0.051507 0.187405
0.130602 0.061255 0.197153
0.211409 0.071286 0.207184
0.293380 0.081462 0.217360
0.376150 0.091737 0.227635
0.459532 0.102088 0.237986
0.543410 0.112501 0.248398
0.627707 0.122965 0.258863
0.692017 0.130948 0.266846
0.084348 0.151452 0.219673
0.162870 0.161199 0.229421
0.243677 0.171231 0.239452
0.325648 0.181406 0.249628
0.408418 0.191681 0.259903
0.491800 0.202032 0.270254
0.575678 0.212445 0.280666
0.659975 0.222909 0.291131
0.724285 0.230893 0.299114
0.117887 0.255332 0.253212
0.196408 0.265079 0.262959
0.277216 0.275111 0.272991
0.359187 0.285286 0.283166
0.441957 0.295561 0.293441
0.525339 0.305912 0.303792
0.609217 0.316325 0.314205
0.693514 0.326789 0.324669
0.757824 0.334773 0.332653
0.152078 0.361232 0.287403
0.230599 0.370979 0.297150
0.311407 0.381011 0.307182
0.393378 0.391187 0.317357
0.476148 0.401462 0.327632
0.559530 0.411812 0.337983
0.643408 0.422225 0.348396
0.727705 0.432690 0.358860
0.792015 0.440673 0.366844
0.186719 0.468525 0.322043
0.265240 0.478273 0.331791
0.346047 0.488304 0.341822
0.428019 0.498480 0.351998
0.510789 0.508755 0.362273
0.594170 0.519106 0.372624
0.678049 0.529518 0.383036
0.762346 0.539983 0.393501
0.826656 0.547966 0.401484
0.221705 0.576888 0.357029
0.300226 0.586635 0.366777
0.381033 0.596666 0.376808
0.463004 0.606842 0.386984
0.545775 0.617117 0.397259
0.629156 0.627468 0.407610
0.713035 0.637881 0.418022
0.797332 0.648345 0.428487
0.861642 0.656329 0.436470
0.256972 0.686121 0.392296
0.335493 0.695868 0.402044
0.416300 0.705899 0.412075
0.498271 0.716075 0.422251
0.581042 0.726350 0.432526
0.664423 0.736701 0.442877
0.748302 0.747114 0.453289
0.832599 0.757578 0.463754
0.896909 0.765562 0.471737
0.292476 0.796088 0.427801
0.370997 0.805836 0.437548
0.451805 0.815867 0.447579
0.533776 0.826043 0.457755
0.616546 0.836318 0.468030
0.699928 0.846669 0.478381
0.783806 0.857081 0.488794
0.868103 0.867546 0.499258
0.932413 0.875529 0.507242
0.319598 0.880094 0.454923
0.398119 0.889842 0.464670
0.478927 0.899873 0.474702
0.560898 0.910049 0.484877
0.643668 0.920324 0.495152
0.727050 0.930675 0.505503
0.810928 0.941087 0.515916
0.895225 0.951552 0.526380
0.959535 0.959535 0.534364
0.055527 0.054955 0.262466
0.134049 0.064702 0.272213
0.214856 0.074733 0.282245
0.296827 0.084909 0.292420
0.379597 0.095184 0.302695
0.462979 0.105535 0.313046
0.546857 0.115948 0.323459
0.631154 0.126412 0.333923
0.695464 0.134395 0.341907
0.087795 0.154899 0.294734
0.166317 0.164646 0.304481
0.247124 0.174678 0.314513
0.329095 0.184853 0.324688
0.411865 0.195128 0.334963
0.495247 0.205479 0.345314
0.579125 0.215892 0.355727
0.663422 0.226356 0.366191
0.727732 0.234340 0.374175
0.121334 0.258779 0.328272
0.199855 0.268526 0.338020
0.280663 0.278558 0.348051
0.362634 0.288733 0.358227
0.445404 0.299008 0.368502
0.528786 0.309359 0.378853
0.612664 0.319772 0.389266
0.696961 0.330236 0.399730
0.761271 0.338220 0.407713
0.155525 0.364679 0.362463
0.234046 0.374426 0.372211
0.314854 0.384458 0.382242
0.396825 0.394634 0.392418
0.479595 0.404909 0.402693
0.562977 0.415259 0.413044
0.646855 0.425672 0.423456
0.731152 0.436137 0.433921
0.795462 0.444120 0.441904
0.190166 0.471972 0.397104
0.268687 0.481720 0.406852
0.349494 0.491751 0.416883
0.431466 0.501927 0.427059
0.514236 0.512202 0.437334
0.597617 0.522553 0.447685
0.681496 0.532965 0.458097
0.765793 0.543430 0.468562
0.830103 0.551413 0.476545
0.225152 0.580335 0.432090
0.303673 0.590082 0.441838
0.384480 0.600114 0.451869
0.466451 0.610289 0.462045
0.549222 0.620564 0.472320
0.632603 0.630915 0.482671
0.716482 0.641328 0.493083
0.800779 0.651792 0.503548
0.865089 0.659776 0.511531
0.260419 0.689568 0.467357
0.338940 0.699315 0.477105
0.419747 0.709346 0.487136
0.501718 0.719522 0.497312
0.584489 0.729797 0.507587
0.667870 0.740148 0.517938
0.751749 0.750561 0.528350
0.836046 0.761025 0.538815
0.900356 0.769009 0.546798
0.295923 0.799535 0.502861
0.374444 0.809283 0.512609
0.455252 0.819314 0.522640
0.537223 0.829490 0.532816
0.619993 0.839765 0.543091
0.703375 0.850116 0.553442
0.787253 0.860528 0.563854
0.871550 0.870993 0.574319
0.935860 0.878976 0.582302
0.323045 0.883541 0.529983
0.401566 0.893289 0.539731
0.482374 0.903320 0.549762
0.564345 0.913496 0.559938
0.647115 0.923771 0.570213
0.730497 0.934122 0.580564
0.814375 0.944534 0.590976
0.898672 0.954999 0.601441
0.962982 0.962982 0.609424
0.059032 0.058459 0.338776
0.137553 0.068206 0.348523
0.218360 0.078238 0.358554
0.300331 0.088414 0.368730
0.383102 0.098688 0.379005
0.466483 0.109039 0.389356
0.550362 0.119452 0.399769
0.634659 0.129916 0.410233
0.698969 0.137900 0.418217
0.091300 0.158403 0.371044
0.169821 0.168151 0.380791
0.250628 0.178182 0.390822
0.332599 0.188358 0.400998
0.415370 0.198633 0.411273
0.498751 0.208984 0.421624
0.582630 0.219396 0.432037
0.666927 0.229861 0.442501
0.731237 0.237844 0.450485
0.124839 0.262283 0.404582
0.203360 0.272031 0.414330
0.284167 0.282062 0.424361
0.366138 0.292238 0.434537
0.448908 0.302513 0.444812
0.532290 0.312864 0.455163
0.616168 0.323276 0.465575
0.700465 0.333741 0.476040
0.764776 0.341724 0.484023
0.159030 0.368183 0.438773
0.237551 0.377931 0.448521
0.318358 0.387962 0.458552
0.400329 0.398138 0.468728
0.483099 0.408413 0.479003
0.566481 0.418764 0.489354
0.650359 0.429176 0.499766
0.734656 0.439641 0.510231
0.798966 0.447624 0.518214
0.193670 0.475476 0.473414
0.272191 0.485224 0.483161
0.352999 0.495255 0.493193
0.434970 0.505431 0.503369
0.517740 0.515706 0.513644
0.601122 0.526057 0.523994
0.685000 0.536470 0.534407
0.769297 0.546934 0.544872
0.833607 0.554917 0.552855
0.228656 0.583839 0.508400
0.307177 0.593587 0.518147
0.387985 0.603618 0.528179
0.469956 0.613794 0.538355
0.552726 0.624069 0.548630
0.636108 0.634420 0.558980
0.719986 0.644832 0.569393
0.804283 0.655297 0.579857
0.868593 0.663280 0.587841
0.263923 0.693072 0.543667
0.342444 0.702819 0.553414
0.423252 0.712851 0.563446
0.505223 0.723027 0.573622
0.587993 0.733302 0.583896
0.671375 0.743652 0.594247
0.755253 0.754065 0.604660
0.839550 0.764530 0.615124
0.903860 0.772513 0.623108
0.299427 0.803040 0.579171
0.377949 0.812787 0.588919
0.458756 0.822819 0.598950
0.540727 0.832994 0.609126
0.623497 0.843269 0.619401
0.706879 0.853620 0.629752
0.790757 0.864033 0.640164
0.875054 0.874497 0.650629
0.939364 0.882481 0.658612
0.326550 0.887045 0.606293
0.405071 0.896793 0.616041
0.485878 0.906824 0.626072
0.567849 0.917000 0.636248
0.650619 0.927275 0.646523
0.734001 0.937626 0.656874
0.817879 0.948039 0.667286
0.902176 0.958503 0.677751
0.966486 0.966486 0.685734
0.062580 0.062007 0.416047
0.141102 0.071755 0.425795
0.221909 0.081786 0.435826
0.303880 0.091962 0.446002
0.386650 0.102237 0.456277
0.470032 0.112588 0.466628
0.553910 0.123000 0.477040
0.638207 0.133465 0.487505
0.702517 0.141448 0.495488
0.094848 0.161952 0.448315
0.173370 0.171699 0.458063
0.254177 0.181730 0.468094
0.336148 0.191906 0.478270
0.418918 0.202181 0.488545
0.502300 0.212532 0.498896
0.586178 0.222945 0.509308
0.670475 0.233409 0.519773
0.734785 0.241393 0.527756
0.128387 0.265832 0.481854
0.206908 0.275579 0.491602
0.287716 0.285611 0.501633
0.369687 0.295786 0.511809
0.452457 0.306061 0.522084
0.535839 0.316412 0.532435
0.619717 0.326825 0.542847
0.704014 0.337289 0.553312
0.768324 0.345273 0.561295
0.162578 0.371732 0.516045
0.241099 0.381479 0.525793
0.321907 0.391511 0.535824
0.403878 0.401686 0.546000
0.486648 0.411961 0.556275
0.570030 0.422312 0.566626
0.653908 0.432725 0.577038
0.738205 0.443189 0.587503
0.802515 0.451173 0.595486
0.197219 0.479025 0.550686
0.275740 0.488773 0.560433
0.356547 0.498804 0.570465
0.438518 0.508980 0.580640
0.521289 0.519255 0.590915
0.604670 0.529605 0.601266
0.688549 0.540018 0.611679
0.772846 0.550483 0.622143
0.837156 0.558466 0.630127
0.232205 0.587388 0.585672
0.310726 0.597135 0.595419
0.391533 0.607166 0.605451
0.473504 0.617342 0.615626
0.556275 0.627617 0.625901
0.639656 0.637968 0.636252
0.723535 0.648381 0.646665
0.807831 0.658845 0.657129
0.872142 0.666829 0.665113
0.267472 0.696620 0.620939
0.345993 0.706368 0.630686
0.426800 0.716399 0.640718
0.508771 0.726575 0.650893
0.591541 0.736850 0.661168
0.674923 0.747201 0.671519
0.758802 0.757614 0.681932
0.843098 0.768078 0.692396
0.907409 0.776061 0.700380
0.302976 0.806588 0.656443
0.381497 0.816336 0.666191
0.462305 0.826367 0.676222
0.544276 0.836543 0.686398
0.627046 0.846818 0.696673
0.710427 0.857169 0.707023
0.794306 0.867581 0.717436
0.878603 0.878046 0.727901
0.942913 0.886029 0.735884
0.330098 0.890594 0.683565
0.408619 0.900342 0.693313
0.489427 0.910373 0.703344
0.571398 0.920549 0.713520
0.654168 0.930824 0.723795
0.737550 0.941175 0.734146
0.821428 0.951587 0.744558
0.905725 0.962052 0.755023
0.970035 0.970035 0.763006
0.066165 0.065592 0.494104
0.144686 0.075340 0.503852
0.225494 0.085371 0.513883
0.307465 0.095547 0.524059
0.390235 0.105822 0.534334
0.473616 0.116173 0.544685
0.557495 0.126585 0.555097
0.641792 0.137050 0.565562
0.706102 0.145033 0.573545
0.098433 0.165536 0.526372
0.176954 0.175284 0.536120
0.257762 0.185315 0.546151
0.339733 0.195491 0.556327
0.422503 0.205766 0.566602
0.505884 0.216117 0.576953
0.589763 0.226529 0.587365
0.674060 0.236994 0.597830
0.738370 0.244977 0.605813
0.131972 0.269416 0.559911
0.210493 0.279164 0.569658
0.291300 0.289195 0.579690
0.373271 0.299371 0.589865
0.456041 0.309646 0.600140
0.539423 0.319997 0.610491
0.623302 0.330409 0.620904
0.707598 0.340874 0.631368
0.771909 0.348857 0.639352
0.166163 0.375316 0.594102
0.244684 0.385064 0.603849
0.325491 0.395095 0.613881
0.407462 0.405271 0.624056
0.490232 0.415546 0.634331
0.573614 0.425897 0.644682
0.657493 0.436310 0.655095
0.741789 0.446774 0.665559
0.806100 0.454757 0.673543
0.200803 0.482610 0.628742
0.279325 0.492357 0.638490
0.360132 0.502388 0.648521
0.442103 0.512564 0.658697
0.524873 0.522839 0.668972
0.608255 0.533190 0.679323
0.692133 0.543603 0.689735
0.776430 0.554067 0.700200
0.840740 0.562051 0.708183
0.235789 0.590972 0.663728
0.314311 0.600720 0.673476
0.395118 0.610751 0.683507
0.477089 0.620927 0.693683
0.559859 0.631202 0.703958
0.643241 0.641553 0.714309
0.727119 0.651965 0.724721
0.811416 0.662430 0.735186
0.875726 0.670413 0.743169
0.271056 0.700205 0.698995
0.349578 0.709953 0.708743
0.430385 0.719984 0.718774
0.512356 0.730160 0.728950
0.595126 0.740435 0.739225
0.678508 0.750786 0.749576
0.762386 0.761198 0.759988
0.846683 0.771663 0.770453
0.910993 0.779646 0.778436
0.306561 0.810173 0.734500
0.385082 0.819920 0.744247
0.465889 0.829952 0.754278
0.547860 0.840128 0.764454
0.630630 0.850403 0.774729
0.714012 0.860753 0.785080
0.797890 0.871166 0.795493
0.882187 0.881631 0.805957
0.946497 0.889614 0.813941
0.333683 0.894179 0.761622
0.412204 0.903926 0.771369
0.493011 0.913957 0.781401
0.574982 0.924133 0.791576
0.657752 0.934408 0.801851
0.741134 0.944759 0.812202
0.825012 0.955172 0.822615
0.909309 0.965636 0.833079
0.973620 0.973620 0.841063
0.069780 0.069207 0.572825
0.148301 0.078955 0.582572
0.229109 0.088986 0.592603
0.311080 0.099162 0.602779
0.393850 0.109437 0.613054
0.477232 0.119788 0.623405
0.561110 0.130200 0.633818
0.645407 0.140665 0.644282
0.709717 0.148648 0.652266
0.102048 0.169151 0.605093
0.180569 0.178899 0.614840
0.261377 0.188930 0.624871
0.343348 0.199106 0.635047
0.426118 0.209381 0.645322
0.509500 0.219732 0.655673
0.593378 0.230144 0.666086
0.677675 0.240609 0.676550
0.741985 0.248592 0.684534
0.135587 0.273031 0.638631
0.214108 0.282779 0.648379
0.294915 0.292810 0.658410
0.376886 0.302986 0.668586
0.459657 0.313261 0.678861
0.543038 0.323612 0.689212
0.626917 0.334024 0.699624
0.711214 0.344489 0.710089
0.775524 0.352472 0.718072
0.169778 0.378932 0.672822
0.248299 0.388679 0.682570
0.329106 0.398710 0.692601
0.411077 0.408886 0.702777
0.493848 0.419161 0.713052
0.577229 0.429512 0.723403
0.661108 0.439925 0.733815
0.745404 0.450389 0.744280
0.809715 0.458372 0.752263
0.204418 0.486225 0.707463
0.282940 0.495972 0.717210
0.363747 0.506003 0.727242
0.445718 0.516179 0.737418
0.528488 0.526454 0.747693
0.611870 0.536805 0.758043
0.695748 0.547218 0.768456
0.780045 0.557682 0.778921
0.844355 0.565666 0.786904
0.239404 0.594587 0.742449
0.317926 0.604335 0.752196
0.398733 0.614366 0.762228
0.480704 0.624542 0.772404
0.563474 0.634817 0.782679
0.646856 0.645168 0.793029
0.730734 0.655580 0.803442
0.815031 0.666045 0.813906
0.879341 0.674028 0.821890
0.274671 0.703820 0.777716
0.353193 0.713568 0.787463
0.434000 0.723599 0.797495
0.515971 0.733775 0.807671
0.598741 0.744050 0.817946
0.682123 0.754401 0.828296
0.766001 0.764813 0.838709
0.850298 0.775278 0.849173
0.914608 0.783261 0.857157
0.310176 0.813788 0.813220
0.388697 0.823536 0.822968
0.469504 0.833567 0.832999
0.551475 0.843743 0.843175
0.634245 0.854018 0.853450
0.717627 0.864369 0.863801
0.801505 0.874781 0.874213
0.885802 0.885246 0.884678
0.950113 0.893229 0.892661
0.337298 0.897794 0.840342
0.415819 0.907541 0.850090
0.496626 0.917573 0.860121
0.578597 0.927748 0.870297
0.661367 0.938023 0.880572
0.744749 0.948374 0.890923
0.828628 0.958787 0.901335
0.912924 0.969251 0.911800
0.977235 0.977235 0.919783
0.072545 0.071972 0.633041
0.151067 0.081720 0.642789
0.231874 0.091751 0.652820
0.313845 0.101927 0.662996
0.396615 0.112202 0.673271
0.479997 0.122553 0.683622
0.563875 0.132965 0.694034
0.648172 0.143430 0.704499
0.712482 0.151413 0.712482
0.104813 0.171917 0.665309
0.183335 0.181664 0.675057
0.264142 0.191695 0.685088
0.346113 0.201871 0.695264
0.428883 0.212146 0.705539
0.512265 0.222497 0.715890
0.596143 0.232910 0.726302
0.680440 0.243374 0.736767
0.744750 0.251358 0.744750
0.138352 0.275797 0.698848
0.216873 0.285544 0.708596
0.297681 0.295576 0.718627
0.379652 0.305751 0.728803
0.462422 0.316026 0.739078
0.545804 0.326377 0.749429
0.629682 0.336790 0.759841
0.713979 0.347254 0.770306
0.778289 0.355238 0.778289
0.172543 0.381697 0.733039
0.251064 0.391444 0.742787
0.331872 0.401476 0.752818
0.413843 0.411651 0.762994
0.496613 0.421926 0.773269
0.579995 0.432277 0.783620
0.663873 0.442690 0.794032
0.748170 0.453154 0.804497
0.812480 0.461138 0.812480
0.207184 0.488990 0.767680
0.285705 0.498738 0.777427
0.366512 0.508769 0.787459
0.448483 0.518945 0.797634
0.531254 0.529220 0.807909
0.614635 0.539570 0.818260
0.698514 0.549983 0.828673
0.782810 0.560448 0.839137
0.847121 0.568431 0.847121
0.242170 0.597353 0.802666
0.320691 0.607100 0.812413
0.401498 0.617131 0.822445
0.483469 0.627307 0.832620
0.566240 0.637582 0.842895
0.649621 0.647933 0.853246
0.733500 0.658346 0.863659
0.817796 0.668810 0.874123
0.882107 0.676794 0.882107
0.277437 0.706585 0.837933
0.355958 0.716333 0.847680
0.436765 0.726364 0.857712
0.518736 0.736540 0.867887
0.601506 0.746815 0.878162
0.684888 0.757166 0.888513
0.768767 0.767579 0.898926
0.853063 0.778043 0.909390
0.917374 0.786026 0.917374
0.312941 0.816553 0.873437
0.391462 0.826301 0.883184
0.472270 0.836332 0.893216
0.554241 0.846508 0.903392
0.637011 0.856783 0.913667
0.720392 0.867134 0.924017
0.804271 0.877546 0.934430
0.888568 0.888011 0.944895
0.952878 0.895994 0.952878
0.340063 0.900559 0.900559
0.418584 0.910307 0.910307
0.499392 0.920338 0.920338
0.581363 0.930514 0.930514
0.664133 0.940789 0.940789
0.747515 0.951140 0.951140
0.831393 0.961552 0.961552
0.915690 0.972017 0.972017
0.980000 0.980000 0.980000
