luts/creative/desaturated_moody.cube
TITLE "Desaturated Moody"
LUT_3D_SIZE 5
DOMAIN_MIN 0.0 0.0 0.0
DOMAIN_MAX 1.0 1.0 1.0
0.045512 0.044939 0.044376
0.204841 0.064718 0.064155
0.369582 0.085169 0.084606
0.536842 0.105932 0.105369
0.685449 0.124380 0.123817
0.111319 0.248763 0.110183
0.270648 0.268542 0.129962
0.435389 0.288993 0.150412
0.602649 0.309757 0.171176
0.751256 0.328204 0.189624
0.180151 0.461957 0.179014
0.339479 0.481736 0.198793
0.504220 0.502186 0.219244
0.671480 0.522950 0.240007
0.820087 0.541398 0.258455
0.250403 0.679552 0.249267
0.409732 0.699331 0.269046
0.574473 0.719782 0.289497
0.741733 0.740545 0.310260
0.890340 0.758993 0.328708
0.313030 0.873526 0.311894
0.472358 0.893305 0.331673
0.637100 0.913755 0.352123
0.804360 0.934519 0.372887
0.952967 0.952967 0.391335
0.052080 0.051507 0.187405
0.211409 0.071286 0.207184
0.376150 0.091737 0.227635
0.543410 0.112501 0.248398
0.692017 0.130948 0.266846
0.117887 0.255332 0.253212
0.277216 0.275111 0.272991
0.441957 0.295561 0.293441
0.609217 0.316325 0.314205
0.757824 0.334773 0.332653
0.186719 0.468525 0.322043
0.346047 0.488304 0.341822
0.510789 0.508755 0.362273
0.678049 0.529518 0.383036
0.826656 0.547966 0.401484
0.256972 0.686121 0.392296
0.416300 0.705899 0.412075
0.581042 0.726350 0.432526
0.748302 0.747114 0.453289
0.896909 0.765562 0.471737
0.319598 0.880094 0.454923
0.478927 0.899873 0.474702
0.643668 0.920324 0.495152
0.810928 0.941087 0.515916
0.959535 0.959535 0.534364
0.059032 0.058459 0.338776
0.218360 0.078238 0.358554
0.383102 0.098688 0.379005
0.550362 0.119452 0.399769
0.698969 0.137900 0.418217
0.124839 0.262283 0.404582
0.284167 0.282062 0.424361
0.448908 0.302513 0.444812
0.616168 0.323276 0.465575
0.764776 0.341724 0.484023
0.193670 0.475476 0.473414
0.352999 0.495255 0.493193
0.517740 0.515706 0.513644
0.685000 0.536470 0.534407
0.833607 0.554917 0.552855
0.263923 0.693072 0.543667
0.423252 0.712851 0.563446
0.587993 0.733302 0.583896
0.755253 0.754065 0.604660
0.903860 0.772513 0.623108
0.326550 0.887045 0.606293
0.485878 0.906824 0.626072
0.650619 0.927275 0.646523
0.817879 0.948039 0.667286
0.966486 0.966486 0.685734
0.066165 0.065592 0.494104
0.225494 0.085371 0.513883
0.390235 0.105822 0.534334
0.557495 0.126585 0.555097
0.706102 0.145033 0.573545
0.131972 0.269416 0.559911
0.291300 0.289195 0.579690
0.456041 0.309646 0.600140
0.623302 0.330409 0.620904
0.771909 0.348857 0.639352
0.200803 0.482610 0.628742
0.360132 0.502388 0.648521
0.524873 0.522839 0.668972
0.692133 0.543603 0.689735
0.840740 0.562051 0.708183
0.271056 0.700205 0.698995
0.430385 0.719984 0.718774
0.595126 0.740435 0.739225
0.762386 0.761198 0.759988
0.910993 0.779646 0.778436
0.333683 0.894179 0.761622
0.493011 0.913957 0.781401
0.657752 0.934408 0.801851
0.825012 0.955172 0.822615
0.973620 0.973620 0.841063
0.072545 0.071972 0.633041
0.231874 0.091751 0.652820
0.396615 0.112202 0.673271
0.563875 0.132965 0.694034
0.712482 0.151413 0.712482
0.138352 0.275797 0.698848
0.297681 0.295576 0.718627
0.462422 0.316026 0.739078
0.629682 0.336790 0.759841
0.778289 0.355238 0.778289
0.207184 0.488990 0.767680
0.366512 0.508769 0.787459
0.531254 0.529220 0.807909
0.698514 0.549983 0.828673
0.847121 0.568431 0.847121
0.277437 0.706585 0.837933
0.436765 0.726364 0.857712
0.601506 0.746815 0.878162
0.768767 0.767579 0.898926
0.917374 0.786026 0.917374
0.340063 0.900559 0.900559
0.499392 0.920338 0.920338
0.664133 0.940789 0.940789
0.831393 0.961552 0.961552
0.980000 0.980000 0.980000
