luts/creative/faded_film_aged.cube
TITLE "Faded Film Aged"
LUT_3D_SIZE 17
DOMAIN_MIN 0.0 0.0 0.0
DOMAIN_MAX 1.0 1.0 1.0
0.067236 0.059792 0.046997
0.108571 0.063244 0.050449
0.151204 0.066804 0.054009
0.194663 0.070433 0.057638
0.238736 0.074113 0.061318
0.283298 0.077835 0.065039
0.328268 0.081590 0.068795
0.373589 0.085374 0.072579
0.419218 0.089185 0.076389
0.465121 0.093018 0.080223
0.511271 0.096872 0.084076
0.557648 0.100744 0.087949
0.604231 0.104634 0.091839
0.651007 0.108540 0.095745
0.697962 0.112461 0.099666
0.745084 0.116396 0.103601
0.754528 0.117185 0.104390
0.078320 0.107038 0.058081
0.119655 0.110489 0.061533
0.162288 0.114049 0.065093
0.205747 0.117678 0.068722
0.249820 0.121359 0.072402
0.294382 0.125080 0.076123
0.339352 0.128835 0.079879
0.384673 0.132620 0.083663
0.430302 0.136430 0.087473
0.476205 0.140263 0.091307
0.522355 0.144117 0.095160
0.568732 0.147990 0.099033
0.615315 0.151880 0.102923
0.662091 0.155786 0.106829
0.709046 0.159707 0.110750
0.756168 0.163642 0.114685
0.765612 0.164430 0.115474
0.089962 0.156662 0.069723
0.131297 0.160114 0.073175
0.173930 0.163674 0.076735
0.217389 0.167303 0.080364
0.261462 0.170983 0.084044
0.306024 0.174704 0.087765
0.350994 0.178460 0.091521
0.396315 0.182244 0.095305
0.441944 0.186054 0.099115
0.487847 0.189888 0.102949
0.533997 0.193741 0.106802
0.580374 0.197614 0.110675
0.626957 0.201504 0.114565
0.673733 0.205410 0.118471
0.720688 0.209331 0.122392
0.767811 0.213266 0.126327
0.777254 0.214055 0.127116
0.101949 0.207757 0.081710
0.143284 0.211209 0.085162
0.185917 0.214769 0.088722
0.229376 0.218398 0.092351
0.273449 0.222078 0.096031
0.318011 0.225799 0.099753
0.362982 0.229555 0.103508
0.408302 0.233339 0.107292
0.453931 0.237149 0.111103
0.499834 0.240983 0.114936
0.545984 0.244836 0.118790
0.592361 0.248709 0.122662
0.638945 0.252599 0.126552
0.685721 0.256505 0.130458
0.732675 0.260426 0.134379
0.779798 0.264361 0.138314
0.789241 0.265150 0.139103
0.114190 0.259933 0.093951
0.155525 0.263385 0.097403
0.198158 0.266945 0.100963
0.241617 0.270574 0.104592
0.285690 0.274254 0.108272
0.330252 0.277975 0.111993
0.375222 0.281731 0.115749
0.420543 0.285515 0.119533
0.466172 0.289326 0.123343
0.512075 0.293159 0.127177
0.558225 0.297013 0.131030
0.604602 0.300885 0.134903
0.651185 0.304775 0.138793
0.697961 0.308681 0.142699
0.744916 0.312602 0.146620
0.792038 0.316537 0.150555
0.801482 0.317326 0.151344
0.126633 0.312969 0.106393
0.167967 0.316421 0.109845
0.210600 0.319981 0.113405
0.254060 0.323610 0.117034
0.298132 0.327290 0.120715
0.342694 0.331011 0.124436
0.387665 0.334767 0.128191
0.432986 0.338551 0.131976
0.478614 0.342361 0.135786
0.524517 0.346195 0.139619
0.570668 0.350048 0.143473
0.617044 0.353921 0.147346
0.663628 0.357811 0.151236
0.710404 0.361717 0.155142
0.757359 0.365638 0.159063
0.804481 0.369573 0.162998
0.813925 0.370362 0.163786
0.139243 0.366721 0.119004
0.180578 0.370173 0.122456
0.223211 0.373733 0.126016
0.266670 0.377362 0.129645
0.310743 0.381042 0.133325
0.355305 0.384763 0.137046
0.400275 0.388519 0.140802
0.445596 0.392303 0.144586
0.491225 0.396114 0.148396
0.537128 0.399947 0.152229
0.583278 0.403801 0.156083
0.629654 0.407673 0.159956
0.676238 0.411563 0.163846
0.723014 0.415469 0.167752
0.769969 0.419390 0.171673
0.817091 0.423325 0.175608
0.826535 0.424114 0.176397
0.151998 0.421088 0.131759
0.193333 0.424540 0.135210
0.235966 0.428100 0.138770
0.279425 0.431729 0.142400
0.323498 0.435409 0.146080
0.368060 0.439131 0.149801
0.413030 0.442886 0.153556
0.458351 0.446670 0.157341
0.503980 0.450481 0.161151
0.549882 0.454314 0.164984
0.596033 0.458168 0.168838
0.642409 0.462040 0.172711
0.688993 0.465930 0.176601
0.735769 0.469836 0.180507
0.782724 0.473757 0.184428
0.829846 0.477692 0.188363
0.839290 0.478481 0.189151
0.164879 0.475995 0.144640
0.206214 0.479447 0.148092
0.248847 0.483007 0.151652
0.292306 0.486636 0.155281
0.336379 0.490316 0.158961
0.380941 0.494038 0.162682
0.425911 0.497793 0.166438
0.471232 0.501577 0.170222
0.516861 0.505388 0.174033
0.562764 0.509221 0.177866
0.608914 0.513075 0.181720
0.655291 0.516947 0.185592
0.701875 0.520837 0.189482
0.748650 0.524743 0.193388
0.795605 0.528664 0.197309
0.842728 0.532599 0.201244
0.852171 0.533388 0.202033
0.177874 0.531384 0.157634
0.219209 0.534835 0.161086
0.261841 0.538395 0.164646
0.305301 0.542024 0.168275
0.349373 0.545705 0.171956
0.393936 0.549426 0.175677
0.438906 0.553181 0.179432
0.484227 0.556966 0.183217
0.529855 0.560776 0.187027
0.575758 0.564609 0.190860
0.621909 0.568463 0.194714
0.668285 0.572336 0.198587
0.714869 0.576226 0.202477
0.761645 0.580132 0.206383
0.808600 0.584053 0.210304
0.855722 0.587988 0.214239
0.865166 0.588776 0.215027
0.190970 0.587207 0.170731
0.232305 0.590659 0.174183
0.274938 0.594219 0.177743
0.318397 0.597848 0.181372
0.362470 0.601528 0.185052
0.407032 0.605249 0.188773
0.452002 0.609004 0.192528
0.497323 0.612789 0.196313
0.542952 0.616599 0.200123
0.588855 0.620432 0.203956
0.635005 0.624286 0.207810
0.681381 0.628159 0.211683
0.727965 0.632049 0.215573
0.774741 0.635955 0.219479
0.821696 0.639876 0.223400
0.868818 0.643811 0.227335
0.878262 0.644600 0.228124
0.204160 0.643427 0.183920
0.245494 0.646879 0.187372
0.288127 0.650439 0.190932
0.331587 0.654068 0.194561
0.375659 0.657748 0.198242
0.420221 0.661469 0.201963
0.465192 0.665225 0.205718
0.510513 0.669009 0.209503
0.556141 0.672819 0.213313
0.602044 0.676653 0.217146
0.648195 0.680506 0.221000
0.694571 0.684379 0.224872
0.741155 0.688269 0.228763
0.787931 0.692175 0.232669
0.834886 0.696096 0.236590
0.882008 0.700031 0.240525
0.891452 0.700820 0.241313
0.217435 0.700012 0.197196
0.258770 0.703464 0.200647
0.301402 0.707024 0.204207
0.344862 0.710653 0.207836
0.388935 0.714334 0.211517
0.433497 0.718055 0.215238
0.478467 0.721810 0.218993
0.523788 0.725595 0.222778
0.569416 0.729405 0.226588
0.615319 0.733238 0.230421
0.661470 0.737092 0.234275
0.707846 0.740964 0.238148
0.754430 0.744854 0.242038
0.801206 0.748761 0.245944
0.848161 0.752682 0.249865
0.895283 0.756617 0.253800
0.904727 0.757405 0.254588
0.230789 0.756936 0.210550
0.272124 0.760388 0.214002
0.314757 0.763948 0.217562
0.358216 0.767577 0.221191
0.402289 0.771257 0.224871
0.446851 0.774978 0.228592
0.491821 0.778734 0.232348
0.537142 0.782518 0.236132
0.582771 0.786328 0.239943
0.628674 0.790162 0.243776
0.674824 0.794015 0.247630
0.721201 0.797888 0.251502
0.767785 0.801778 0.255392
0.814560 0.805684 0.259298
0.861515 0.809605 0.263219
0.908638 0.813540 0.267154
0.918081 0.814329 0.267943
0.244218 0.814175 0.223979
0.285553 0.817626 0.227430
0.328185 0.821187 0.230990
0.371645 0.824816 0.234619
0.415718 0.828496 0.238300
0.460280 0.832217 0.242021
0.505250 0.835972 0.245776
0.550571 0.839757 0.249561
0.596199 0.843567 0.253371
0.642102 0.847400 0.257204
0.688253 0.851254 0.261058
0.734629 0.855127 0.264931
0.781213 0.859017 0.268821
0.827989 0.862923 0.272727
0.874944 0.866844 0.276648
0.922066 0.870779 0.280583
0.931510 0.871568 0.281371
0.257716 0.871709 0.237476
0.299050 0.875161 0.240928
0.341683 0.878721 0.244488
0.385143 0.882350 0.248117
0.429215 0.886030 0.251798
0.473777 0.889751 0.255519
0.518748 0.893507 0.259274
0.564069 0.897291 0.263059
0.609697 0.901101 0.266869
0.655600 0.904935 0.270702
0.701751 0.908788 0.274556
0.748127 0.912661 0.278428
0.794711 0.916551 0.282319
0.841487 0.920457 0.286225
0.888442 0.924378 0.290146
0.935564 0.928313 0.294081
0.945008 0.929102 0.294869
0.262591 0.892490 0.242352
0.303926 0.895942 0.245803
0.346559 0.899502 0.249363
0.390018 0.903131 0.252993
0.434091 0.906811 0.256673
0.478653 0.910532 0.260394
0.523623 0.914288 0.264149
0.568944 0.918072 0.267934
0.614573 0.921883 0.271744
0.660476 0.925716 0.275577
0.706626 0.929570 0.279431
0.753002 0.933442 0.283304
0.799586 0.937332 0.287194
0.846362 0.941238 0.291100
0.893317 0.945159 0.295021
0.940439 0.949094 0.298956
0.949883 0.949883 0.299744
0.068340 0.060896 0.083776
0.109675 0.064348 0.087228
0.152308 0.067908 0.090788
0.195767 0.071537 0.094417
0.239840 0.075217 0.098097
0.284402 0.078938 0.101819
0.329372 0.082694 0.105574
0.374693 0.086478 0.109359
0.420322 0.090289 0.113169
0.466225 0.094122 0.117002
0.512375 0.097976 0.120856
0.558751 0.101848 0.124728
0.605335 0.105738 0.128618
0.652111 0.109644 0.132525
0.699066 0.113565 0.136446
0.746188 0.117500 0.140380
0.755632 0.118289 0.141169
0.079424 0.108141 0.094860
0.120759 0.111593 0.098312
0.163392 0.115153 0.101872
0.206851 0.118782 0.105501
0.250924 0.122463 0.109181
0.295486 0.126184 0.112903
0.340456 0.129939 0.116658
0.385777 0.133724 0.120442
0.431406 0.137534 0.124253
0.477309 0.141367 0.128086
0.523459 0.145221 0.131940
0.569835 0.149094 0.135812
0.616419 0.152984 0.139702
0.663195 0.156890 0.143608
0.710150 0.160811 0.147529
0.757272 0.164746 0.151464
0.766716 0.165534 0.152253
0.091066 0.157766 0.106502
0.132401 0.161218 0.109954
0.175034 0.164778 0.113514
0.218493 0.168407 0.117143
0.262566 0.172087 0.120824
0.307128 0.175808 0.124545
0.352098 0.179563 0.128300
0.397419 0.183348 0.132085
0.443048 0.187158 0.135895
0.488951 0.190991 0.139728
0.535101 0.194845 0.143582
0.581478 0.198718 0.147455
0.628061 0.202608 0.151345
0.674837 0.206514 0.155251
0.721792 0.210435 0.159172
0.768914 0.214370 0.163107
0.778358 0.215159 0.163895
0.103053 0.208861 0.118490
0.144388 0.212313 0.121941
0.187021 0.215873 0.125501
0.230480 0.219502 0.129130
0.274553 0.223182 0.132811
0.319115 0.226903 0.136532
0.364085 0.230659 0.140287
0.409406 0.234443 0.144072
0.455035 0.238253 0.147882
0.500938 0.242087 0.151715
0.547088 0.245940 0.155569
0.593465 0.249813 0.159442
0.640048 0.253703 0.163332
0.686824 0.257609 0.167238
0.733779 0.261530 0.171159
0.780902 0.265465 0.175094
0.790345 0.266254 0.175882
0.115294 0.261037 0.130730
0.156629 0.264489 0.134182
0.199262 0.268049 0.137742
0.242721 0.271678 0.141371
0.286794 0.275358 0.145051
0.331356 0.279079 0.148773
0.376326 0.282835 0.152528
0.421647 0.286619 0.156312
0.467276 0.290429 0.160123
0.513179 0.294263 0.163956
0.559329 0.298116 0.167810
0.605705 0.301989 0.171682
0.652289 0.305879 0.175572
0.699065 0.309785 0.179478
0.746020 0.313706 0.183399
0.793142 0.317641 0.187334
0.802586 0.318430 0.188123
0.127737 0.314073 0.143173
0.169071 0.317525 0.146624
0.211704 0.321085 0.150185
0.255164 0.324714 0.153814
0.299236 0.328394 0.157494
0.343798 0.332115 0.161215
0.388769 0.335871 0.164970
0.434090 0.339655 0.168755
0.479718 0.343465 0.172565
0.525621 0.347299 0.176398
0.571772 0.351152 0.180252
0.618148 0.355025 0.184125
0.664732 0.358915 0.188015
0.711508 0.362821 0.191921
0.758463 0.366742 0.195842
0.805585 0.370677 0.199777
0.815028 0.371466 0.200566
0.140347 0.367825 0.155783
0.181682 0.371277 0.159235
0.224315 0.374837 0.162795
0.267774 0.378466 0.166424
0.311847 0.382146 0.170104
0.356409 0.385867 0.173826
0.401379 0.389623 0.177581
0.446700 0.393407 0.181365
0.492329 0.397217 0.185176
0.538232 0.401051 0.189009
0.584382 0.404904 0.192863
0.630758 0.408777 0.196735
0.677342 0.412667 0.200625
0.724118 0.416573 0.204531
0.771073 0.420494 0.208452
0.818195 0.424429 0.212387
0.827639 0.425218 0.213176
0.153102 0.422192 0.168538
0.194437 0.425644 0.171990
0.237069 0.429204 0.175550
0.280529 0.432833 0.179179
0.324602 0.436513 0.182859
0.369164 0.440235 0.186580
0.414134 0.443990 0.190336
0.459455 0.447774 0.194120
0.505083 0.451585 0.197930
0.550986 0.455418 0.201764
0.597137 0.459272 0.205617
0.643513 0.463144 0.209490
0.690097 0.467034 0.213380
0.736873 0.470940 0.217286
0.783828 0.474861 0.221207
0.830950 0.478796 0.225142
0.840394 0.479585 0.225931
0.165983 0.477099 0.181419
0.207318 0.480551 0.184871
0.249951 0.484111 0.188431
0.293410 0.487740 0.192060
0.337483 0.491420 0.195741
0.382045 0.495141 0.199462
0.427015 0.498897 0.203217
0.472336 0.502681 0.207002
0.517965 0.506492 0.210812
0.563868 0.510325 0.214645
0.610018 0.514179 0.218499
0.656395 0.518051 0.222372
0.702978 0.521941 0.226262
0.749754 0.525847 0.230168
0.796709 0.529768 0.234089
0.843831 0.533703 0.238024
0.853275 0.534492 0.238812
0.178978 0.532487 0.194414
0.220312 0.535939 0.197865
0.262945 0.539499 0.201426
0.306405 0.543128 0.205055
0.350477 0.546809 0.208735
0.395039 0.550530 0.212456
0.440010 0.554285 0.216211
0.485331 0.558070 0.219996
0.530959 0.561880 0.223806
0.576862 0.565713 0.227639
0.623013 0.569567 0.231493
0.669389 0.573440 0.235366
0.715973 0.577330 0.239256
0.762749 0.581236 0.243162
0.809704 0.585157 0.247083
0.856826 0.589092 0.251018
0.866270 0.589880 0.251807
0.192074 0.588311 0.207510
0.233409 0.591762 0.210962
0.276042 0.595322 0.214522
0.319501 0.598952 0.218151
0.363574 0.602632 0.221831
0.408136 0.606353 0.225553
0.453106 0.610108 0.229308
0.498427 0.613893 0.233092
0.544056 0.617703 0.236903
0.589959 0.621536 0.240736
0.636109 0.625390 0.244590
0.682485 0.629263 0.248462
0.729069 0.633153 0.252352
0.775845 0.637059 0.256258
0.822800 0.640980 0.260179
0.869922 0.644915 0.264114
0.879366 0.645704 0.264903
0.205264 0.644531 0.220700
0.246598 0.647983 0.224151
0.289231 0.651543 0.227711
0.332691 0.655172 0.231341
0.376763 0.658852 0.235021
0.421325 0.662573 0.238742
0.466296 0.666329 0.242497
0.511617 0.670113 0.246282
0.557245 0.673923 0.250092
0.603148 0.677757 0.253925
0.649299 0.681610 0.257779
0.695675 0.685483 0.261652
0.742259 0.689373 0.265542
0.789035 0.693279 0.269448
0.835990 0.697200 0.273369
0.883112 0.701135 0.277304
0.892555 0.701924 0.278093
0.218539 0.701116 0.233975
0.259874 0.704568 0.237427
0.302506 0.708128 0.240987
0.345966 0.711757 0.244616
0.390038 0.715437 0.248296
0.434601 0.719159 0.252017
0.479571 0.722914 0.255773
0.524892 0.726698 0.259557
0.570520 0.730509 0.263367
0.616423 0.734342 0.267201
0.662574 0.738196 0.271054
0.708950 0.742068 0.274927
0.755534 0.745958 0.278817
0.802310 0.749864 0.282723
0.849265 0.753785 0.286644
0.896387 0.757720 0.290579
0.905831 0.758509 0.291368
0.231893 0.758040 0.247329
0.273228 0.761492 0.250781
0.315861 0.765052 0.254341
0.359320 0.768681 0.257970
0.403393 0.772361 0.261651
0.447955 0.776082 0.265372
0.492925 0.779837 0.269127
0.538246 0.783622 0.272912
0.583875 0.787432 0.276722
0.629778 0.791265 0.280555
0.675928 0.795119 0.284409
0.722305 0.798992 0.288282
0.768888 0.802882 0.292172
0.815664 0.806788 0.296078
0.862619 0.810709 0.299999
0.909742 0.814644 0.303934
0.919185 0.815433 0.304722
0.245322 0.815279 0.260758
0.286657 0.818730 0.264210
0.329289 0.822290 0.267770
0.372749 0.825920 0.271399
0.416821 0.829600 0.275079
0.461384 0.833321 0.278800
0.506354 0.837076 0.282556
0.551675 0.840861 0.286340
0.597303 0.844671 0.290150
0.643206 0.848504 0.293984
0.689357 0.852358 0.297837
0.735733 0.856231 0.301710
0.782317 0.860121 0.305600
0.829093 0.864027 0.309506
0.876048 0.867948 0.313427
0.923170 0.871883 0.317362
0.932614 0.872671 0.318151
0.258820 0.872813 0.274256
0.300154 0.876265 0.277707
0.342787 0.879825 0.281267
0.386247 0.883454 0.284897
0.430319 0.887134 0.288577
0.474881 0.890855 0.292298
0.519852 0.894611 0.296053
0.565173 0.898395 0.299838
0.610801 0.902205 0.303648
0.656704 0.906038 0.307481
0.702855 0.909892 0.311335
0.749231 0.913765 0.315208
0.795815 0.917655 0.319098
0.842591 0.921561 0.323004
0.889546 0.925482 0.326925
0.936668 0.929417 0.330860
0.946111 0.930206 0.331649
0.263695 0.893594 0.279131
0.305030 0.897046 0.282583
0.347662 0.900606 0.286143
0.391122 0.904235 0.289772
0.435195 0.907915 0.293452
0.479757 0.911636 0.297173
0.524727 0.915392 0.300929
0.570048 0.919176 0.304713
0.615677 0.922986 0.308524
0.661579 0.926820 0.312357
0.707730 0.930673 0.316211
0.754106 0.934546 0.320083
0.800690 0.938436 0.323973
0.847466 0.942342 0.327879
0.894421 0.946263 0.331800
0.941543 0.950198 0.335735
0.950987 0.950987 0.336524
0.069517 0.062073 0.122988
0.110852 0.065525 0.126439
0.153485 0.069085 0.130000
0.196944 0.072714 0.133629
0.241017 0.076394 0.137309
0.285579 0.080115 0.141030
0.330549 0.083871 0.144785
0.375870 0.087655 0.148570
0.421499 0.091465 0.152380
0.467402 0.095299 0.156213
0.513552 0.099152 0.160067
0.559928 0.103025 0.163940
0.606512 0.106915 0.167830
0.653288 0.110821 0.171736
0.700243 0.114742 0.175657
0.747365 0.118677 0.179592
0.756809 0.119466 0.180381
0.080601 0.109318 0.134072
0.121936 0.112770 0.137523
0.164569 0.116330 0.141084
0.208028 0.119959 0.144713
0.252101 0.123640 0.148393
0.296663 0.127361 0.152114
0.341633 0.131116 0.155869
0.386954 0.134901 0.159654
0.432583 0.138711 0.163464
0.478486 0.142544 0.167297
0.524636 0.146398 0.171151
0.571012 0.150271 0.175024
0.617596 0.154161 0.178914
0.664372 0.158067 0.182820
0.711327 0.161988 0.186741
0.758449 0.165923 0.190676
0.767893 0.166711 0.191465
0.092243 0.158943 0.145714
0.133578 0.162394 0.149166
0.176211 0.165954 0.152726
0.219670 0.169584 0.156355
0.263743 0.173264 0.160035
0.308305 0.176985 0.163756
0.353275 0.180740 0.167512
0.398596 0.184525 0.171296
0.444225 0.188335 0.175106
0.490128 0.192168 0.178940
0.536278 0.196022 0.182793
0.582654 0.199895 0.186666
0.629238 0.203785 0.190556
0.676014 0.207691 0.194462
0.722969 0.211612 0.198383
0.770091 0.215547 0.202318
0.779535 0.216336 0.203107
0.104230 0.210038 0.157701
0.145565 0.213489 0.161153
0.188198 0.217050 0.164713
0.231657 0.220679 0.168342
0.275730 0.224359 0.172022
0.320292 0.228080 0.175743
0.365262 0.231835 0.179499
0.410583 0.235620 0.183283
0.456212 0.239430 0.187094
0.502115 0.243263 0.190927
0.548265 0.247117 0.194780
0.594642 0.250990 0.198653
0.641225 0.254880 0.202543
0.688001 0.258786 0.206449
0.734956 0.262707 0.210370
0.782078 0.266642 0.214305
0.791522 0.267431 0.215094
0.116471 0.262214 0.169942
0.157806 0.265666 0.173393
0.200439 0.269226 0.176954
0.243898 0.272855 0.180583
0.287971 0.276535 0.184263
0.332533 0.280256 0.187984
0.377503 0.284012 0.191739
0.422824 0.287796 0.195524
0.468453 0.291606 0.199334
0.514356 0.295440 0.203167
0.560506 0.299293 0.207021
0.606882 0.303166 0.210894
0.653466 0.307056 0.214784
0.700242 0.310962 0.218690
0.747197 0.314883 0.222611
0.794319 0.318818 0.226546
0.803763 0.319607 0.227335
0.128913 0.315250 0.182384
0.170248 0.318701 0.185836
0.212881 0.322262 0.189396
0.256341 0.325891 0.193025
0.300413 0.329571 0.196705
0.344975 0.333292 0.200427
0.389946 0.337047 0.204182
0.435266 0.340832 0.207966
0.480895 0.344642 0.211777
0.526798 0.348475 0.215610
0.572948 0.352329 0.219464
0.619325 0.356202 0.223336
0.665909 0.360092 0.227226
0.712685 0.363998 0.231132
0.759639 0.367919 0.235053
0.806762 0.371854 0.238988
0.816205 0.372643 0.239777
0.141524 0.369002 0.194995
0.182859 0.372454 0.198446
0.225492 0.376014 0.202007
0.268951 0.379643 0.205636
0.313024 0.383323 0.209316
0.357586 0.387044 0.213037
0.402556 0.390800 0.216792
0.447877 0.394584 0.220577
0.493506 0.398394 0.224387
0.539408 0.402228 0.228220
0.585559 0.406081 0.232074
0.631935 0.409954 0.235947
0.678519 0.413844 0.239837
0.725295 0.417750 0.243743
0.772250 0.421671 0.247664
0.819372 0.425606 0.251599
0.828816 0.426395 0.252388
0.154279 0.423369 0.207750
0.195614 0.426821 0.211201
0.238246 0.430381 0.214761
0.281706 0.434010 0.218390
0.325778 0.437690 0.222071
0.370341 0.441411 0.225792
0.415311 0.445167 0.229547
0.460632 0.448951 0.233332
0.506260 0.452762 0.237142
0.552163 0.456595 0.240975
0.598314 0.460448 0.244829
0.644690 0.464321 0.248702
0.691274 0.468211 0.252592
0.738050 0.472117 0.256498
0.785005 0.476038 0.260419
0.832127 0.479973 0.264354
0.841571 0.480762 0.265142
0.167160 0.478276 0.220631
0.208495 0.481728 0.224083
0.251128 0.485288 0.227643
0.294587 0.488917 0.231272
0.338660 0.492597 0.234952
0.383222 0.496318 0.238673
0.428192 0.500074 0.242429
0.473513 0.503858 0.246213
0.519142 0.507668 0.250023
0.565045 0.511502 0.253857
0.611195 0.515355 0.257710
0.657571 0.519228 0.261583
0.704155 0.523118 0.265473
0.750931 0.527024 0.269379
0.797886 0.530945 0.273300
0.845008 0.534880 0.277235
0.854452 0.535669 0.278024
0.180155 0.533664 0.233625
0.221489 0.537116 0.237077
0.264122 0.540676 0.240637
0.307582 0.544305 0.244266
0.351654 0.547986 0.247947
0.396216 0.551707 0.251668
0.441187 0.555462 0.255423
0.486508 0.559247 0.259208
0.532136 0.563057 0.263018
0.578039 0.566890 0.266851
0.624190 0.570744 0.270705
0.670566 0.574616 0.274577
0.717150 0.578506 0.278467
0.763926 0.582413 0.282374
0.810881 0.586334 0.286295
0.858003 0.590269 0.290230
0.867446 0.591057 0.291018
0.193251 0.589488 0.246722
0.234586 0.592939 0.250173
0.277218 0.596499 0.253733
0.320678 0.600129 0.257363
0.364751 0.603809 0.261043
0.409313 0.607530 0.264764
0.454283 0.611285 0.268519
0.499604 0.615070 0.272304
0.545233 0.618880 0.276114
0.591135 0.622713 0.279947
0.637286 0.626567 0.283801
0.683662 0.630440 0.287674
0.730246 0.634330 0.291564
0.777022 0.638236 0.295470
0.823977 0.642157 0.299391
0.871099 0.646092 0.303326
0.880543 0.646880 0.304115
0.206440 0.645708 0.259911
0.247775 0.649159 0.263363
0.290408 0.652720 0.266923
0.333867 0.656349 0.270552
0.377940 0.660029 0.274232
0.422502 0.663750 0.277954
0.467473 0.667505 0.281709
0.512793 0.671290 0.285493
0.558422 0.675100 0.289304
0.604325 0.678933 0.293137
0.650475 0.682787 0.296991
0.696852 0.686660 0.300863
0.743436 0.690550 0.304753
0.790212 0.694456 0.308659
0.837166 0.698377 0.312580
0.884289 0.702312 0.316515
0.893732 0.703101 0.317304
0.219716 0.702293 0.273186
0.261050 0.705745 0.276638
0.303683 0.709305 0.280198
0.347143 0.712934 0.283827
0.391215 0.716614 0.287508
0.435777 0.720335 0.291229
0.480748 0.724091 0.294984
0.526069 0.727875 0.298769
0.571697 0.731686 0.302579
0.617600 0.735519 0.306412
0.663751 0.739373 0.310266
0.710127 0.743245 0.314139
0.756711 0.747135 0.318029
0.803487 0.751041 0.321935
0.850442 0.754962 0.325856
0.897564 0.758897 0.329791
0.907007 0.759686 0.330579
0.233070 0.759217 0.286541
0.274405 0.762668 0.289993
0.317038 0.766228 0.293553
0.360497 0.769858 0.297182
0.404570 0.773538 0.300862
0.449132 0.777259 0.304583
0.494102 0.781014 0.308339
0.539423 0.784799 0.312123
0.585052 0.788609 0.315933
0.630955 0.792442 0.319767
0.677105 0.796296 0.323620
0.723481 0.800169 0.327493
0.770065 0.804059 0.331383
0.816841 0.807965 0.335289
0.863796 0.811886 0.339210
0.910918 0.815821 0.343145
0.920362 0.816610 0.343934
0.246499 0.816456 0.299969
0.287833 0.819907 0.303421
0.330466 0.823467 0.306981
0.373926 0.827096 0.310610
0.417998 0.830777 0.314291
0.462560 0.834498 0.318012
0.507531 0.838253 0.321767
0.552852 0.842038 0.325552
0.598480 0.845848 0.329362
0.644383 0.849681 0.333195
0.690534 0.853535 0.337049
0.736910 0.857408 0.340922
0.783494 0.861298 0.344812
0.830270 0.865204 0.348718
0.877225 0.869125 0.352639
0.924347 0.873060 0.356574
0.933791 0.873848 0.357362
0.259996 0.873990 0.313467
0.301331 0.877441 0.316919
0.343964 0.881002 0.320479
0.387423 0.884631 0.324108
0.431496 0.888311 0.327788
0.476058 0.892032 0.331510
0.521029 0.895787 0.335265
0.566349 0.899572 0.339049
0.611978 0.903382 0.342860
0.657881 0.907215 0.346693
0.704031 0.911069 0.350547
0.750408 0.914942 0.354419
0.796992 0.918832 0.358309
0.843768 0.922738 0.362215
0.890722 0.926659 0.366136
0.937845 0.930594 0.370071
0.947288 0.931383 0.370860
0.264872 0.894771 0.318343
0.306207 0.898223 0.321794
0.348839 0.901783 0.325354
0.392299 0.905412 0.328983
0.436371 0.909092 0.332664
0.480934 0.912813 0.336385
0.525904 0.916569 0.340140
0.571225 0.920353 0.343925
0.616853 0.924163 0.347735
0.662756 0.927996 0.351568
0.708907 0.931850 0.355422
0.755283 0.935723 0.359295
0.801867 0.939613 0.363185
0.848643 0.943519 0.367091
0.895598 0.947440 0.371012
0.942720 0.951375 0.374947
0.952164 0.952164 0.375735
0.070737 0.063293 0.163638
0.112072 0.066745 0.167090
0.154705 0.070305 0.170650
0.198164 0.073934 0.174279
0.242237 0.077614 0.177959
0.286799 0.081335 0.181680
0.331769 0.085091 0.185436
0.377090 0.088875 0.189220
0.422719 0.092686 0.193031
0.468622 0.096519 0.196864
0.514772 0.100373 0.200717
0.561148 0.104245 0.204590
0.607732 0.108135 0.208480
0.654508 0.112041 0.212386
0.701463 0.115962 0.216307
0.748585 0.119897 0.220242
0.758029 0.120686 0.221031
0.081821 0.110538 0.174722
