luts/creative/faded_film_aged.cube
TITLE "Faded Film Aged"
LUT_3D_SIZE 5
DOMAIN_MIN 0.0 0.0 0.0
DOMAIN_MAX 1.0 1.0 1.0
0.067236 0.059792 0.046997
0.238736 0.074113 0.061318
0.419218 0.089185 0.076389
0.604231 0.104634 0.091839
0.754528 0.117185 0.104390
0.114190 0.259933 0.093951
0.285690 0.274254 0.108272
0.466172 0.289326 0.123343
0.651185 0.304775 0.138793
0.801482 0.317326 0.151344
0.164879 0.475995 0.144640
0.336379 0.490316 0.158961
0.516861 0.505388 0.174033
0.701875 0.520837 0.189482
0.852171 0.533388 0.202033
0.217435 0.700012 0.197196
0.388935 0.714334 0.211517
0.569416 0.729405 0.226588
0.754430 0.744854 0.242038
0.904727 0.757405 0.254588
0.262591 0.892490 0.242352
0.434091 0.906811 0.256673
0.614573 0.921883 0.271744
0.799586 0.937332 0.287194
0.949883 0.949883 0.299744
0.071988 0.064544 0.205331
0.243488 0.078866 0.219652
0.423970 0.093937 0.234723
0.608984 0.109387 0.250173
0.759280 0.121937 0.262724
0.118942 0.264685 0.252285
0.290442 0.279007 0.266606
0.470924 0.294078 0.281677
0.655938 0.309528 0.297127
0.806234 0.322078 0.309678
0.169632 0.480747 0.302974
0.341131 0.495069 0.317295
0.521613 0.510140 0.332367
0.706627 0.525590 0.347816
0.856923 0.538140 0.360367
0.222187 0.704765 0.355530
0.393687 0.719086 0.369851
0.574169 0.734157 0.384922
0.759182 0.749607 0.400372
0.909479 0.762157 0.412922
0.267343 0.897242 0.400686
0.438843 0.911564 0.415007
0.619325 0.926635 0.430078
0.804338 0.942084 0.445528
0.954635 0.954635 0.458079
0.077205 0.069761 0.379135
0.248705 0.084082 0.393456
0.429187 0.099153 0.408527
0.614200 0.114603 0.423977
0.764497 0.127154 0.436527
0.124159 0.269902 0.426089
0.295659 0.284223 0.440410
0.476141 0.299294 0.455481
0.661154 0.314744 0.470931
0.811451 0.327295 0.483481
0.174848 0.485964 0.476778
0.346348 0.500285 0.491099
0.526830 0.515356 0.506170
0.711843 0.530806 0.521620
0.862140 0.543357 0.534170
0.227404 0.709981 0.529333
0.398903 0.724302 0.543654
0.579385 0.739374 0.558726
0.764399 0.754823 0.574175
0.914696 0.767374 0.586726
0.272560 0.902459 0.574489
0.444060 0.916780 0.588811
0.624541 0.931851 0.603882
0.809555 0.947301 0.619331
0.959852 0.959852 0.631882
0.082649 0.075205 0.560505
0.254148 0.089526 0.574826
0.434630 0.104597 0.589897
0.619644 0.120047 0.605347
0.769941 0.132597 0.617897
0.129603 0.275346 0.607459
0.301102 0.289667 0.621780
0.481584 0.304738 0.636851
0.666598 0.320188 0.652301
0.816895 0.332738 0.664851
0.180292 0.491408 0.658148
0.351792 0.505729 0.672469
0.532273 0.520800 0.687540
0.717287 0.536250 0.702990
0.867584 0.548800 0.715541
0.232847 0.715425 0.710703
0.404347 0.729746 0.725024
0.584829 0.744817 0.740096
0.769842 0.760267 0.755545
0.920139 0.772818 0.768096
0.278003 0.907903 0.755859
0.449503 0.922224 0.770181
0.629985 0.937295 0.785252
0.814999 0.952745 0.800702
0.965295 0.965295 0.813252
0.087570 0.080126 0.724469
0.259070 0.094447 0.738790
0.439552 0.109518 0.753862
0.624565 0.124968 0.769311
0.774862 0.137519 0.781862
0.134524 0.280267 0.771423
0.306024 0.294588 0.785744
0.486506 0.309659 0.800815
0.671519 0.325109 0.816265
0.821816 0.337660 0.828816
0.185213 0.496329 0.822112
0.356713 0.510650 0.836433
0.537195 0.525721 0.851505
0.722208 0.541171 0.866954
0.872505 0.553722 0.879505
0.237769 0.720346 0.874668
0.409268 0.734667 0.888989
0.589750 0.749739 0.904060
0.774764 0.765188 0.919510
0.925060 0.777739 0.932060
0.282925 0.912824 0.919824
0.454424 0.927145 0.934145
0.634906 0.942216 0.949216
0.819920 0.957666 0.964666
0.970217 0.970217 0.977217
