luts/creative/faded_film_aged.cube
TITLE "Faded Film Aged"
LUT_3D_SIZE 9
DOMAIN_MIN 0.0 0.0 0.0
DOMAIN_MAX 1.0 1.0 1.0
0.067236 0.059792 0.046997
0.151204 0.066804 0.054009
0.238736 0.074113 0.061318
0.328268 0.081590 0.068795
0.419218 0.089185 0.076389
0.511271 0.096872 0.084076
0.604231 0.104634 0.091839
0.697962 0.112461 0.099666
0.754528 0.117185 0.104390
0.089962 0.156662 0.069723
0.173930 0.163674 0.076735
0.261462 0.170983 0.084044
0.350994 0.178460 0.091521
0.441944 0.186054 0.099115
0.533997 0.193741 0.106802
0.626957 0.201504 0.114565
0.720688 0.209331 0.122392
0.777254 0.214055 0.127116
0.114190 0.259933 0.093951
0.198158 0.266945 0.100963
0.285690 0.274254 0.108272
0.375222 0.281731 0.115749
0.466172 0.289326 0.123343
0.558225 0.297013 0.131030
0.651185 0.304775 0.138793
0.744916 0.312602 0.146620
0.801482 0.317326 0.151344
0.139243 0.366721 0.119004
0.223211 0.373733 0.126016
0.310743 0.381042 0.133325
0.400275 0.388519 0.140802
0.491225 0.396114 0.148396
0.583278 0.403801 0.156083
0.676238 0.411563 0.163846
0.769969 0.419390 0.171673
0.826535 0.424114 0.176397
0.164879 0.475995 0.144640
0.248847 0.483007 0.151652
0.336379 0.490316 0.158961
0.425911 0.497793 0.166438
0.516861 0.505388 0.174033
0.608914 0.513075 0.181720
0.701875 0.520837 0.189482
0.795605 0.528664 0.197309
0.852171 0.533388 0.202033
0.190970 0.587207 0.170731
0.274938 0.594219 0.177743
0.362470 0.601528 0.185052
0.452002 0.609004 0.192528
0.542952 0.616599 0.200123
0.635005 0.624286 0.207810
0.727965 0.632049 0.215573
0.821696 0.639876 0.223400
0.878262 0.644600 0.228124
0.217435 0.700012 0.197196
0.301402 0.707024 0.204207
0.388935 0.714334 0.211517
0.478467 0.721810 0.218993
0.569416 0.729405 0.226588
0.661470 0.737092 0.234275
0.754430 0.744854 0.242038
0.848161 0.752682 0.249865
0.904727 0.757405 0.254588
0.244218 0.814175 0.223979
0.328185 0.821187 0.230990
0.415718 0.828496 0.238300
0.505250 0.835972 0.245776
0.596199 0.843567 0.253371
0.688253 0.851254 0.261058
0.781213 0.859017 0.268821
0.874944 0.866844 0.276648
0.931510 0.871568 0.281371
0.262591 0.892490 0.242352
0.346559 0.899502 0.249363
0.434091 0.906811 0.256673
0.523623 0.914288 0.264149
0.614573 0.921883 0.271744
0.706626 0.929570 0.279431
0.799586 0.937332 0.287194
0.893317 0.945159 0.295021
0.949883 0.949883 0.299744
0.069517 0.062073 0.122988
0.153485 0.069085 0.130000
0.241017 0.076394 0.137309
0.330549 0.083871 0.144785
0.421499 0.091465 0.152380
0.513552 0.099152 0.160067
0.606512 0.106915 0.167830
0.700243 0.114742 0.175657
0.756809 0.119466 0.180381
0.092243 0.158943 0.145714
0.176211 0.165954 0.152726
0.263743 0.173264 0.160035
0.353275 0.180740 0.167512
0.444225 0.188335 0.175106
0.536278 0.196022 0.182793
0.629238 0.203785 0.190556
0.722969 0.211612 0.198383
0.779535 0.216336 0.203107
0.116471 0.262214 0.169942
0.200439 0.269226 0.176954
0.287971 0.276535 0.184263
0.377503 0.284012 0.191739
0.468453 0.291606 0.199334
0.560506 0.299293 0.207021
0.653466 0.307056 0.214784
0.747197 0.314883 0.222611
0.803763 0.319607 0.227335
0.141524 0.369002 0.194995
0.225492 0.376014 0.202007
0.313024 0.383323 0.209316
0.402556 0.390800 0.216792
0.493506 0.398394 0.224387
0.585559 0.406081 0.232074
0.678519 0.413844 0.239837
0.772250 0.421671 0.247664
0.828816 0.426395 0.252388
0.167160 0.478276 0.220631
0.251128 0.485288 0.227643
0.338660 0.492597 0.234952
0.428192 0.500074 0.242429
0.519142 0.507668 0.250023
0.611195 0.515355 0.257710
0.704155 0.523118 0.265473
0.797886 0.530945 0.273300
0.854452 0.535669 0.278024
0.193251 0.589488 0.246722
0.277218 0.596499 0.253733
0.364751 0.603809 0.261043
0.454283 0.611285 0.268519
0.545233 0.618880 0.276114
0.637286 0.626567 0.283801
0.730246 0.634330 0.291564
0.823977 0.642157 0.299391
0.880543 0.646880 0.304115
0.219716 0.702293 0.273186
0.303683 0.709305 0.280198
0.391215 0.716614 0.287508
0.480748 0.724091 0.294984
0.571697 0.731686 0.302579
0.663751 0.739373 0.310266
0.756711 0.747135 0.318029
0.850442 0.754962 0.325856
0.907007 0.759686 0.330579
0.246499 0.816456 0.299969
0.330466 0.823467 0.306981
0.417998 0.830777 0.314291
0.507531 0.838253 0.321767
0.598480 0.845848 0.329362
0.690534 0.853535 0.337049
0.783494 0.861298 0.344812
0.877225 0.869125 0.352639
0.933791 0.873848 0.357362
0.264872 0.894771 0.318343
0.348839 0.901783 0.325354
0.436371 0.909092 0.332664
0.525904 0.916569 0.340140
0.616853 0.924163 0.347735
0.708907 0.931850 0.355422
0.801867 0.939613 0.363185
0.895598 0.947440 0.371012
0.952164 0.952164 0.375735
0.071988 0.064544 0.205331
0.155956 0.071556 0.212343
0.243488 0.078866 0.219652
0.333021 0.086342 0.227129
0.423970 0.093937 0.234723
0.516024 0.101624 0.242410
0.608984 0.109387 0.250173
0.702714 0.117214 0.258000
0.759280 0.121937 0.262724
0.094715 0.161414 0.228057
0.178682 0.168426 0.235069
0.266214 0.175735 0.242378
0.355747 0.183212 0.249855
0.446696 0.190807 0.257450
0.538750 0.198494 0.265137
0.631710 0.206256 0.272899
0.725441 0.214083 0.280726
0.782006 0.218807 0.285450
0.118942 0.264685 0.252285
0.202910 0.271697 0.259297
0.290442 0.279007 0.266606
0.379975 0.286483 0.274083
0.470924 0.294078 0.281677
0.562977 0.301765 0.289364
0.655938 0.309528 0.297127
0.749668 0.317355 0.304954
0.806234 0.322078 0.309678
0.143995 0.371473 0.277338
0.227963 0.378485 0.284350
0.315495 0.385795 0.291659
0.405027 0.393271 0.299136
0.495977 0.400866 0.306730
0.588030 0.408553 0.314417
0.680991 0.416316 0.322180
0.774721 0.424143 0.330007
0.831287 0.428866 0.334731
0.169632 0.480747 0.302974
0.253599 0.487759 0.309986
0.341131 0.495069 0.317295
0.430664 0.502545 0.324772
0.521613 0.510140 0.332367
0.613667 0.517827 0.340054
0.706627 0.525590 0.347816
0.800358 0.533417 0.355643
0.856923 0.538140 0.360367
0.195722 0.591959 0.329065
0.279690 0.598971 0.336077
0.367222 0.606280 0.343386
0.456754 0.613757 0.350863
0.547704 0.621352 0.358457
0.639757 0.629039 0.366144
0.732718 0.636801 0.373907
0.826448 0.644628 0.381734
0.883014 0.649352 0.386458
0.222187 0.704765 0.355530
0.306155 0.711776 0.362541
0.393687 0.719086 0.369851
0.483219 0.726562 0.377327
0.574169 0.734157 0.384922
0.666222 0.741844 0.392609
0.759182 0.749607 0.400372
0.852913 0.757434 0.408199
0.909479 0.762157 0.412922
0.248970 0.818927 0.382313
0.332938 0.825939 0.389324
0.420470 0.833248 0.396634
0.510002 0.840725 0.404110
0.600952 0.848320 0.411705
0.693005 0.856007 0.419392
0.785965 0.863769 0.427155
0.879696 0.871596 0.434982
0.936262 0.876320 0.439705
0.267343 0.897242 0.400686
0.351311 0.904254 0.407698
0.438843 0.911564 0.415007
0.528375 0.919040 0.422483
0.619325 0.926635 0.430078
0.711378 0.934322 0.437765
0.804338 0.942084 0.445528
0.898069 0.949912 0.453355
0.954635 0.954635 0.458079
0.074561 0.067117 0.291048
0.158529 0.074129 0.298060
0.246061 0.081438 0.305369
0.335593 0.088915 0.312846
0.426543 0.096510 0.320441
0.518596 0.104197 0.328128
0.611556 0.111959 0.335890
0.705287 0.119786 0.343718
0.761853 0.124510 0.348441
0.097287 0.163987 0.313774
0.181255 0.170999 0.320786
0.268787 0.178308 0.328096
0.358319 0.185785 0.335572
0.449269 0.193379 0.343167
0.541322 0.201066 0.350854
0.634282 0.208829 0.358617
0.728013 0.216656 0.366444
0.784579 0.221380 0.371167
0.121515 0.267258 0.338002
0.205483 0.274270 0.345014
0.293015 0.281579 0.352323
0.382547 0.289056 0.359800
0.473497 0.296651 0.367395
0.565550 0.304338 0.375082
0.658510 0.312100 0.382844
0.752241 0.319927 0.390672
0.808807 0.324651 0.395395
0.146568 0.374046 0.363055
0.230536 0.381058 0.370067
0.318068 0.388367 0.377376
0.407600 0.395844 0.384853
0.498550 0.403439 0.392448
0.590603 0.411126 0.400135
0.683563 0.418888 0.407897
0.777294 0.426715 0.415724
0.833860 0.431439 0.420448
0.172204 0.483320 0.388691
0.256172 0.490332 0.395703
0.343704 0.497641 0.403013
0.433236 0.505118 0.410489
0.524186 0.512713 0.418084
0.616239 0.520400 0.425771
0.709199 0.528162 0.433534
0.802930 0.535989 0.441361
0.859496 0.540713 0.446084
0.198295 0.594532 0.414782
0.282263 0.601544 0.421794
0.369795 0.608853 0.429103
0.459327 0.616329 0.436580
0.550277 0.623924 0.444175
0.642330 0.631611 0.451862
0.735290 0.639374 0.459624
0.829021 0.647201 0.467451
0.885587 0.651925 0.472175
0.224760 0.707337 0.441247
0.308727 0.714349 0.448259
0.396260 0.721658 0.455568
0.485792 0.729135 0.463045
0.576741 0.736730 0.470639
0.668795 0.744417 0.478326
0.761755 0.752179 0.486089
0.855486 0.760007 0.493916
0.912052 0.764730 0.498640
0.251543 0.821500 0.468030
0.335510 0.828512 0.475042
0.423043 0.835821 0.482351
0.512575 0.843297 0.489828
0.603524 0.850892 0.497422
0.695578 0.858579 0.505109
0.788538 0.866342 0.512872
0.882269 0.874169 0.520699
0.938835 0.878893 0.525423
0.269916 0.899815 0.486403
0.353884 0.906827 0.493415
0.441416 0.914136 0.500724
0.530948 0.921613 0.508201
0.621898 0.929208 0.515796
0.713951 0.936895 0.523483
0.806911 0.944657 0.531245
0.900642 0.952484 0.539072
0.957208 0.957208 0.543796
0.077205 0.069761 0.379135
0.161173 0.076773 0.386146
0.248705 0.084082 0.393456
0.338237 0.091559 0.400932
0.429187 0.099153 0.408527
0.521240 0.106840 0.416214
0.614200 0.114603 0.423977
0.707931 0.122430 0.431804
0.764497 0.127154 0.436527
0.099931 0.166631 0.401861
0.183899 0.173643 0.408872
0.271431 0.180952 0.416182
0.360963 0.188428 0.423658
0.451913 0.196023 0.431253
0.543966 0.203710 0.438940
0.636926 0.211473 0.446703
0.730657 0.219300 0.454530
0.787223 0.224024 0.459253
0.124159 0.269902 0.426089
0.208127 0.276914 0.433100
0.295659 0.284223 0.440410
0.385191 0.291700 0.447886
0.476141 0.299294 0.455481
0.568194 0.306981 0.463168
0.661154 0.314744 0.470931
0.754885 0.322571 0.478758
0.811451 0.327295 0.483481
0.149212 0.376690 0.451141
0.233180 0.383702 0.458153
0.320712 0.391011 0.465463
0.410244 0.398488 0.472939
0.501194 0.406082 0.480534
0.593247 0.413769 0.488221
0.686207 0.421532 0.495984
0.779938 0.429359 0.503811
0.836504 0.434083 0.508534
0.174848 0.485964 0.476778
0.258816 0.492976 0.483789
0.346348 0.500285 0.491099
0.435880 0.507762 0.498575
0.526830 0.515356 0.506170
0.618883 0.523043 0.513857
0.711843 0.530806 0.521620
0.805574 0.538633 0.529447
0.862140 0.543357 0.534170
0.200939 0.597176 0.502868
0.284907 0.604187 0.509880
0.372439 0.611497 0.517190
0.461971 0.618973 0.524666
0.552921 0.626568 0.532261
0.644974 0.634255 0.539948
0.737934 0.642018 0.547711
0.831665 0.649845 0.555538
0.888231 0.654568 0.560261
0.227404 0.709981 0.529333
0.311371 0.716993 0.536345
0.398903 0.724302 0.543654
0.488436 0.731779 0.551131
0.579385 0.739374 0.558726
0.671439 0.747061 0.566413
0.764399 0.754823 0.574175
0.858130 0.762650 0.582002
0.914696 0.767374 0.586726
0.254187 0.824144 0.556116
0.338154 0.831155 0.563128
0.425686 0.838465 0.570437
0.515219 0.845941 0.577914
0.606168 0.853536 0.585509
0.698222 0.861223 0.593196
0.791182 0.868986 0.600958
0.884913 0.876813 0.608785
0.941479 0.881536 0.613509
0.272560 0.902459 0.574489
0.356527 0.909471 0.581501
0.444060 0.916780 0.588811
0.533592 0.924257 0.596287
0.624541 0.931851 0.603882
0.716595 0.939538 0.611569
0.809555 0.947301 0.619331
0.903286 0.955128 0.627159
0.959852 0.959852 0.631882
0.079904 0.072460 0.469063
0.163872 0.079472 0.476074
0.251404 0.086781 0.483384
0.340936 0.094258 0.490860
0.431886 0.101853 0.498455
0.523939 0.109540 0.506142
0.616899 0.117302 0.513905
0.710630 0.125129 0.521732
0.767196 0.129853 0.526456
0.102630 0.169330 0.491789
0.186598 0.176342 0.498801
0.274130 0.183651 0.506110
0.363662 0.191128 0.513586
0.454612 0.198722 0.521181
0.546665 0.206409 0.528868
0.639625 0.214172 0.536631
0.733356 0.221999 0.544458
0.789922 0.226723 0.549182
0.126858 0.272601 0.516017
0.210826 0.279613 0.523028
0.298358 0.286922 0.530338
0.387890 0.294399 0.537814
0.478840 0.301993 0.545409
0.570893 0.309680 0.553096
0.663853 0.317443 0.560859
0.757584 0.325270 0.568686
0.814150 0.329994 0.573409
0.151911 0.379389 0.541070
0.235879 0.386401 0.548081
0.323411 0.393710 0.555391
0.412943 0.401187 0.562867
0.503893 0.408782 0.570462
0.595946 0.416468 0.578149
0.688906 0.424231 0.585912
0.782637 0.432058 0.593739
0.839203 0.436782 0.598462
0.177547 0.488663 0.566706
0.261515 0.495675 0.573718
0.349047 0.502984 0.581027
0.438579 0.510461 0.588504
0.529529 0.518056 0.596098
0.621582 0.525743 0.603785
0.714542 0.533505 0.611548
0.808273 0.541332 0.619375
0.864839 0.546056 0.624099
0.203638 0.599875 0.592797
0.287606 0.606887 0.599808
0.375138 0.614196 0.607118
0.464670 0.621672 0.614594
0.555620 0.629267 0.622189
0.647673 0.636954 0.629876
0.740633 0.644717 0.637639
0.834364 0.652544 0.645466
0.890930 0.657268 0.650189
0.230103 0.712680 0.619261
0.314070 0.719692 0.626273
0.401602 0.727001 0.633583
0.491135 0.734478 0.641059
0.582084 0.742073 0.648654
0.674138 0.749760 0.656341
0.767098 0.757522 0.664103
0.860829 0.765349 0.671931
0.917395 0.770073 0.676654
0.256886 0.826843 0.646044
0.340853 0.833855 0.653056
0.428386 0.841164 0.660366
0.517918 0.848640 0.667842
0.608867 0.856235 0.675437
0.700921 0.863922 0.683124
0.793881 0.871685 0.690887
0.887612 0.879512 0.698714
0.944178 0.884236 0.703437
0.275259 0.905158 0.664417
0.359226 0.912170 0.671429
0.446759 0.919479 0.678739
0.536291 0.926956 0.686215
0.627241 0.934550 0.693810
0.719294 0.942237 0.701497
0.812254 0.950000 0.709260
0.905985 0.957827 0.717087
0.962551 0.962551 0.721810
0.082649 0.075205 0.560505
0.166616 0.082216 0.567516
0.254148 0.089526 0.574826
0.343681 0.097002 0.582302
0.434630 0.104597 0.589897
0.526684 0.112284 0.597584
0.619644 0.120047 0.605347
0.713375 0.127874 0.613174
0.769941 0.132597 0.617897
0.105375 0.172074 0.583231
0.189342 0.179086 0.590242
0.276875 0.186396 0.597552
0.366407 0.193872 0.605028
0.457356 0.201467 0.612623
0.549410 0.209154 0.620310
0.642370 0.216917 0.628073
0.736101 0.224744 0.635900
0.792667 0.229467 0.640623
0.129603 0.275346 0.607459
0.213570 0.282357 0.614470
0.301102 0.289667 0.621780
0.390635 0.297143 0.629256
0.481584 0.304738 0.636851
0.573638 0.312425 0.644538
0.666598 0.320188 0.652301
0.760329 0.328015 0.660128
0.816895 0.332738 0.664851
0.154656 0.382134 0.632512
0.238623 0.389145 0.639523
0.326155 0.396455 0.646833
0.415688 0.403931 0.654309
0.506637 0.411526 0.661904
0.598691 0.419213 0.669591
0.691651 0.426976 0.677354
0.785382 0.434803 0.685181
0.841948 0.439526 0.689904
0.180292 0.491408 0.658148
0.264259 0.498419 0.665159
0.351792 0.505729 0.672469
0.441324 0.513205 0.679945
0.532273 0.520800 0.687540
0.624327 0.528487 0.695227
0.717287 0.536250 0.702990
0.811018 0.544077 0.710817
0.867584 0.548800 0.715541
0.206383 0.602619 0.684238
0.290350 0.609631 0.691250
0.377882 0.616941 0.698560
0.467415 0.624417 0.706036
0.558364 0.632012 0.713631
0.650418 0.639699 0.721318
0.743378 0.647461 0.729081
0.837109 0.655289 0.736908
0.893674 0.660012 0.741631
0.232847 0.715425 0.710703
0.316815 0.722437 0.717715
0.404347 0.729746 0.725024
0.493879 0.737222 0.732501
0.584829 0.744817 0.740096
0.676882 0.752504 0.747783
0.769842 0.760267 0.755545
0.863573 0.768094 0.763372
0.920139 0.772818 0.768096
0.259630 0.829587 0.737486
0.343598 0.836599 0.744498
0.431130 0.843908 0.751807
0.520662 0.851385 0.759284
0.611612 0.858980 0.766879
0.703665 0.866667 0.774566
0.796625 0.874429 0.782328
0.890356 0.882257 0.790155
0.946922 0.886980 0.794879
0.278003 0.907903 0.755859
0.361971 0.914914 0.762871
0.449503 0.922224 0.770181
0.539036 0.929700 0.777657
0.629985 0.937295 0.785252
0.722039 0.944982 0.792939
0.814999 0.952745 0.800702
0.908729 0.960572 0.808529
0.965295 0.965295 0.813252
0.085432 0.077988 0.653235
0.169399 0.085000 0.660247
0.256932 0.092309 0.667556
0.346464 0.099786 0.675033
0.437414 0.107380 0.682627
0.529467 0.115067 0.690314
0.622427 0.122830 0.698077
0.716158 0.130657 0.705904
0.772724 0.135381 0.710628
0.108158 0.174858 0.675961
0.192126 0.181869 0.682973
0.279658 0.189179 0.690282
0.369190 0.196655 0.697759
0.460140 0.204250 0.705354
0.552193 0.211937 0.713041
0.645153 0.219700 0.720803
0.738884 0.227527 0.728630
0.795450 0.232250 0.733354
0.132386 0.278129 0.700189
0.216353 0.285141 0.707201
0.303886 0.292450 0.714510
0.393418 0.299926 0.721987
0.484368 0.307521 0.729581
0.576421 0.315208 0.737268
0.669381 0.322971 0.745031
0.763112 0.330798 0.752858
0.819678 0.335522 0.757582
0.157439 0.384917 0.725242
0.241406 0.391929 0.732254
0.328939 0.399238 0.739563
0.418471 0.406714 0.747040
0.509420 0.414309 0.754634
0.601474 0.421996 0.762321
0.694434 0.429759 0.770084
0.788165 0.437586 0.777911
0.844731 0.442310 0.782635
0.183075 0.494191 0.750878
0.267043 0.501203 0.757890
0.354575 0.508512 0.765199
0.444107 0.515989 0.772676
0.535057 0.523583 0.780271
0.627110 0.531270 0.787958
0.720070 0.539033 0.795720
0.813801 0.546860 0.803547
0.870367 0.551584 0.808271
0.209166 0.605403 0.776969
0.293133 0.612414 0.783981
0.380666 0.619724 0.791290
0.470198 0.627200 0.798767
0.561147 0.634795 0.806361
0.653201 0.642482 0.814048
0.746161 0.650245 0.821811
0.839892 0.658072 0.829638
0.896458 0.662795 0.834362
0.235631 0.718208 0.803434
0.319598 0.725220 0.810445
0.407130 0.732529 0.817755
0.496663 0.740006 0.825231
0.587612 0.747600 0.832826
0.679666 0.755287 0.840513
0.772626 0.763050 0.848276
0.866357 0.770877 0.856103
0.922922 0.775601 0.860826
0.262414 0.832370 0.830217
0.346381 0.839382 0.837228
0.433913 0.846692 0.844538
0.523446 0.854168 0.852014
0.614395 0.861763 0.859609
0.706449 0.869450 0.867296
0.799409 0.877213 0.875059
0.893140 0.885040 0.882886
0.949705 0.889763 0.887609
0.280787 0.910686 0.848590
0.364754 0.917698 0.855602
0.452286 0.925007 0.862911
0.541819 0.932483 0.870387
0.632768 0.940078 0.877982
0.724822 0.947765 0.885669
0.817782 0.955528 0.893432
0.911513 0.963355 0.901259
0.968079 0.968079 0.905983
0.087570 0.080126 0.724469
0.171538 0.087138 0.731481
0.259070 0.094447 0.738790
0.348602 0.101924 0.746267
0.439552 0.109518 0.753862
0.531605 0.117205 0.761548
0.624565 0.124968 0.769311
0.718296 0.132795 0.777138
0.774862 0.137519 0.781862
0.110296 0.176996 0.747195
0.194264 0.184007 0.754207
0.281796 0.191317 0.761516
0.371328 0.198793 0.768993
0.462278 0.206388 0.776588
0.554331 0.214075 0.784275
0.647291 0.221838 0.792037
0.741022 0.229665 0.799864
0.797588 0.234388 0.804588
0.134524 0.280267 0.771423
0.218491 0.287279 0.778435
0.306024 0.294588 0.785744
0.395556 0.302064 0.793221
0.486506 0.309659 0.800815
0.578559 0.317346 0.808502
0.671519 0.325109 0.816265
0.765250 0.332936 0.824092
0.821816 0.337660 0.828816
0.159577 0.387055 0.796476
0.243544 0.394067 0.803488
0.331077 0.401376 0.810797
0.420609 0.408852 0.818274
0.511559 0.416447 0.825868
0.603612 0.424134 0.833555
0.696572 0.431897 0.841318
0.790303 0.439724 0.849145
0.846869 0.444448 0.853869
0.185213 0.496329 0.822112
0.269181 0.503341 0.829124
0.356713 0.510650 0.836433
0.446245 0.518127 0.843910
0.537195 0.525721 0.851505
0.629248 0.533408 0.859192
0.722208 0.541171 0.866954
0.815939 0.548998 0.874781
0.872505 0.553722 0.879505
0.211304 0.607541 0.848203
0.295271 0.614552 0.855215
0.382804 0.621862 0.862524
0.472336 0.629338 0.870001
0.563285 0.636933 0.877595
0.655339 0.644620 0.885282
0.748299 0.652383 0.893045
0.842030 0.660210 0.900872
0.898596 0.664933 0.905596
0.237769 0.720346 0.874668
0.321736 0.727358 0.881679
0.409268 0.734667 0.888989
0.498801 0.742144 0.896465
0.589750 0.749739 0.904060
0.681804 0.757425 0.911747
0.774764 0.765188 0.919510
0.868495 0.773015 0.927337
0.925060 0.777739 0.932060
0.264552 0.834509 0.901451
0.348519 0.841520 0.908462
0.436051 0.848830 0.915772
0.525584 0.856306 0.923248
0.616533 0.863901 0.930843
0.708587 0.871588 0.938530
0.801547 0.879351 0.946293
0.895278 0.887178 0.954120
0.951843 0.891901 0.958843
0.282925 0.912824 0.919824
0.366892 0.919836 0.926836
0.454424 0.927145 0.934145
0.543957 0.934621 0.941621
0.634906 0.942216 0.949216
0.726960 0.949903 0.956903
0.819920 0.957666 0.964666
0.913651 0.965493 0.972493
0.970217 0.970217 0.977217
