luts/creative/high_contrast_bw.cube
TITLE "High Contrast B&W"
LUT_3D_SIZE 5
DOMAIN_MIN 0.0 0.0 0.0
DOMAIN_MAX 1.0 1.0 1.0
0.000000 0.000000 0.000000
0.069974 0.069974 0.069974
0.171048 0.171048 0.171048
0.257416 0.257416 0.257416
0.334625 0.334625 0.334625
0.286421 0.286421 0.286421
0.360984 0.360984 0.360984
0.429440 0.429440 0.429440
0.492962 0.492962 0.492962
0.552327 0.552327 0.552327
0.515023 0.515023 0.515023
0.573022 0.573022 0.573022
0.627582 0.627582 0.627582
0.679082 0.679082 0.679082
0.727815 0.727815 0.727815
0.697130 0.697130 0.697130
0.744918 0.744918 0.744918
0.790253 0.790253 0.790253
0.833320 0.833320 0.833320
0.874272 0.874272 0.874272
0.848466 0.848466 0.848466
0.888683 0.888683 0.888683
0.926962 0.926962 0.926962
0.960000 0.960000 0.960000
0.960000 0.960000 0.960000
0.000000 0.000000 0.000000
0.106598 0.106598 0.106598
0.201641 0.201641 0.201641
0.284507 0.284507 0.284507
0.359239 0.359239 0.359239
0.312526 0.312526 0.312526
0.384847 0.384847 0.384847
0.451521 0.451521 0.451521
0.513557 0.513557 0.513557
0.571646 0.571646 0.571646
0.535133 0.535133 0.535133
0.591915 0.591915 0.591915
0.645399 0.645399 0.645399
0.695929 0.695929 0.695929
0.743779 0.743779 0.743779
0.713647 0.713647 0.713647
0.760579 0.760579 0.760579
0.805125 0.805125 0.805125
0.847457 0.847457 0.847457
0.887723 0.887723 0.887723
0.862349 0.862349 0.862349
0.901894 0.901894 0.901894
0.939540 0.939540 0.939540
0.960000 0.960000 0.960000
0.960000 0.960000 0.960000
0.032101 0.032101 0.032101
0.140673 0.140673 0.140673
0.230877 0.230877 0.230877
0.310674 0.310674 0.310674
0.383150 0.383150 0.383150
0.337802 0.337802 0.337802
0.408063 0.408063 0.408063
0.473069 0.473069 0.473069
0.533699 0.533699 0.533699
0.590568 0.590568 0.590568
0.554812 0.554812 0.554812
0.610430 0.610430 0.610430
0.662875 0.662875 0.662875
0.712467 0.712467 0.712467
0.759460 0.759460 0.759460
0.729865 0.729865 0.729865
0.775965 0.775965 0.775965
0.819741 0.819741 0.819741
0.861357 0.861357 0.861357
0.900950 0.900950 0.900950
0.875999 0.875999 0.875999
0.914886 0.914886 0.914886
0.951911 0.951911 0.951911
0.960000 0.960000 0.960000
0.960000 0.960000 0.960000
0.072084 0.072084 0.072084
0.172782 0.172782 0.172782
0.258943 0.258943 0.258943
0.336008 0.336008 0.336008
0.406412 0.406412 0.406412
0.362324 0.362324 0.362324
0.430678 0.430678 0.430678
0.494115 0.494115 0.494115
0.553408 0.553408 0.553408
0.609109 0.609109 0.609109
0.574079 0.574079 0.574079
0.628579 0.628579 0.628579
0.680023 0.680023 0.680023
0.728707 0.728707 0.728707
0.774866 0.774866 0.774866
0.745793 0.745793 0.745793
0.791084 0.791084 0.791084
0.834109 0.834109 0.834109
0.875023 0.875023 0.875023
0.913958 0.913958 0.913958
0.889421 0.889421 0.889421
0.927664 0.927664 0.927664
0.960000 0.960000 0.960000
0.960000 0.960000 0.960000
0.960000 0.960000 0.960000
0.108545 0.108545 0.108545
0.203294 0.203294 0.203294
0.285980 0.285980 0.285980
0.360581 0.360581 0.360581
0.429068 0.429068 0.429068
0.386149 0.386149 0.386149
0.452728 0.452728 0.452728
0.514685 0.514685 0.514685
0.572704 0.572704 0.572704
0.627283 0.627283 0.627283
0.592951 0.592951 0.592951
0.646376 0.646376 0.646376
0.696853 0.696853 0.696853
0.744655 0.744655 0.744655
0.790004 0.790004 0.790004
0.761438 0.761438 0.761438
0.805941 0.805941 0.805941
0.848234 0.848234 0.848234
0.888462 0.888462 0.888462
0.926751 0.926751 0.926751
0.902620 0.902620 0.902620
0.940231 0.940231 0.940231
0.960000 0.960000 0.960000
0.960000 0.960000 0.960000
0.960000 0.960000 0.960000
