luts/creative/high_contrast_bw.cube
TITLE "High Contrast B&W"
LUT_3D_SIZE 17
DOMAIN_MIN 0.0 0.0 0.0
DOMAIN_MAX 1.0 1.0 1.0
0.000000 0.000000 0.000000
0.000000 0.000000 0.000000
0.008916 0.008916 0.008916
0.040806 0.040806 0.040806
0.069974 0.069974 0.069974
0.097213 0.097213 0.097213
0.122966 0.122966 0.122966
0.147514 0.147514 0.147514
0.171048 0.171048 0.171048
0.193710 0.193710 0.193710
0.215605 0.215605 0.215605
0.236818 0.236818 0.236818
0.257416 0.257416 0.257416
0.277453 0.277453 0.277453
0.296975 0.296975 0.296975
0.316021 0.316021 0.316021
0.334625 0.334625 0.334625
0.051687 0.051687 0.051687
0.080086 0.080086 0.080086
0.106744 0.106744 0.106744
0.132031 0.132031 0.132031
0.156191 0.156191 0.156191
0.179393 0.179393 0.179393
0.201765 0.201765 0.201765
0.223403 0.223403 0.223403
0.244385 0.244385 0.244385
0.264773 0.264773 0.264773
0.284618 0.284618 0.284618
0.303962 0.303962 0.303962
0.322844 0.322844 0.322844
0.341294 0.341294 0.341294
0.359340 0.359340 0.359340
0.377005 0.377005 0.377005
0.394312 0.394312 0.394312
0.140947 0.140947 0.140947
0.164741 0.164741 0.164741
0.187628 0.187628 0.187628
0.209723 0.209723 0.209723
0.231115 0.231115 0.231115
0.251874 0.251874 0.251874
0.272058 0.272058 0.272058
0.291716 0.291716 0.291716
0.310888 0.310888 0.310888
0.329609 0.329609 0.329609
0.347909 0.347909 0.347909
0.365814 0.365814 0.365814
0.383346 0.383346 0.383346
0.400527 0.400527 0.400527
0.417374 0.417374 0.417374
0.433903 0.433903 0.433903
0.450130 0.450130 0.450130
0.217588 0.217588 0.217588
0.238742 0.238742 0.238742
0.259286 0.259286 0.259286
0.279273 0.279273 0.279273
0.298750 0.298750 0.298750
0.317754 0.317754 0.317754
0.336319 0.336319 0.336319
0.354472 0.354472 0.354472
0.372239 0.372239 0.372239
0.389641 0.389641 0.389641
0.406698 0.406698 0.406698
0.423427 0.423427 0.423427
0.439845 0.439845 0.439845
0.455965 0.455965 0.455965
0.471800 0.471800 0.471800
0.487362 0.487362 0.487362
0.502661 0.502661 0.502661
0.286421 0.286421 0.286421
0.305722 0.305722 0.305722
0.324562 0.324562 0.324562
0.342974 0.342974 0.342974
0.360984 0.360984 0.360984
0.378615 0.378615 0.378615
0.395890 0.395890 0.395890
0.412826 0.412826 0.412826
0.429440 0.429440 0.429440
0.445748 0.445748 0.445748
0.461762 0.461762 0.461762
0.477497 0.477497 0.477497
0.492962 0.492962 0.492962
0.508168 0.508168 0.508168
0.523125 0.523125 0.523125
0.537842 0.537842 0.537842
0.552327 0.552327 0.552327
0.349576 0.349576 0.349576
0.367445 0.367445 0.367445
0.384945 0.384945 0.384945
0.402094 0.402094 0.402094
0.418911 0.418911 0.418911
0.435412 0.435412 0.435412
0.451611 0.451611 0.451611
0.467522 0.467522 0.467522
0.483157 0.483157 0.483157
0.498527 0.498527 0.498527
0.513642 0.513642 0.513642
0.528511 0.528511 0.528511
0.543142 0.543142 0.543142
0.557545 0.557545 0.557545
0.571725 0.571725 0.571725
0.585691 0.585691 0.585691
0.599448 0.599448 0.599448
0.408254 0.408254 0.408254
0.424954 0.424954 0.424954
0.441343 0.441343 0.441343
0.457437 0.457437 0.457437
0.473246 0.473246 0.473246
0.488783 0.488783 0.488783
0.504059 0.504059 0.504059
0.519083 0.519083 0.519083
0.533865 0.533865 0.533865
0.548412 0.548412 0.548412
0.562733 0.562733 0.562733
0.576834 0.576834 0.576834
0.590723 0.590723 0.590723
0.604406 0.604406 0.604406
0.617888 0.617888 0.617888
0.631176 0.631176 0.631176
0.644274 0.644274 0.644274
0.463224 0.463224 0.463224
0.478933 0.478933 0.478933
0.494374 0.494374 0.494374
0.509557 0.509557 0.509557
0.524492 0.524492 0.524492
0.539187 0.539187 0.539187
0.553651 0.553651 0.553651
0.567892 0.567892 0.567892
0.581915 0.581915 0.581915
0.595728 0.595728 0.595728
0.609337 0.609337 0.609337
0.622748 0.622748 0.622748
0.635966 0.635966 0.635966
0.648997 0.648997 0.648997
0.661844 0.661844 0.661844
0.674513 0.674513 0.674513
0.687008 0.687008 0.687008
0.515023 0.515023 0.515023
0.529869 0.529869 0.529869
0.544480 0.544480 0.544480
0.558861 0.558861 0.558861
0.573022 0.573022 0.573022
0.586968 0.586968 0.586968
0.600706 0.600706 0.600706
0.614242 0.614242 0.614242
0.627582 0.627582 0.627582
0.640732 0.640732 0.640732
0.653695 0.653695 0.653695
0.666477 0.666477 0.666477
0.679082 0.679082 0.679082
0.691514 0.691514 0.691514
0.703778 0.703778 0.703778
0.715877 0.715877 0.715877
0.727815 0.727815 0.727815
0.564042 0.564042 0.564042
0.578123 0.578123 0.578123
0.591993 0.591993 0.591993
0.605657 0.605657 0.605657
0.619121 0.619121 0.619121
0.632391 0.632391 0.632391
0.645472 0.645472 0.645472
0.658369 0.658369 0.658369
0.671086 0.671086 0.671086
0.683628 0.683628 0.683628
0.695998 0.695998 0.695998
0.708202 0.708202 0.708202
0.720241 0.720241 0.720241
0.732121 0.732121 0.732121
0.743845 0.743845 0.743845
0.755415 0.755415 0.755415
0.766834 0.766834 0.766834
0.610582 0.610582 0.610582
0.623975 0.623975 0.623975
0.637175 0.637175 0.637175
0.650189 0.650189 0.650189
0.663019 0.663019 0.663019
0.675672 0.675672 0.675672
0.688151 0.688151 0.688151
0.700460 0.700460 0.700460
0.712604 0.712604 0.712604
0.724585 0.724585 0.724585
0.736407 0.736407 0.736407
0.748074 0.748074 0.748074
0.759589 0.759589 0.759589
0.770955 0.770955 0.770955
0.782174 0.782174 0.782174
0.793250 0.793250 0.793250
0.804185 0.804185 0.804185
0.654881 0.654881 0.654881
0.667646 0.667646 0.667646
0.680235 0.680235 0.680235
0.692652 0.692652 0.692652
0.704900 0.704900 0.704900
0.716984 0.716984 0.716984
0.728907 0.728907 0.728907
0.740673 0.740673 0.740673
0.752284 0.752284 0.752284
0.763744 0.763744 0.763744
0.775056 0.775056 0.775056
0.786223 0.786223 0.786223
0.797247 0.797247 0.797247
0.808131 0.808131 0.808131
0.818878 0.818878 0.818878
0.829489 0.829489 0.829489
0.839968 0.839968 0.839968
0.697130 0.697130 0.697130
0.709318 0.709318 0.709318
0.721343 0.721343 0.721343
0.733209 0.733209 0.733209
0.744918 0.744918 0.744918
0.756474 0.756474 0.756474
0.767880 0.767880 0.767880
0.779138 0.779138 0.779138
0.790253 0.790253 0.790253
0.801226 0.801226 0.801226
0.812060 0.812060 0.812060
0.822757 0.822757 0.822757
0.833320 0.833320 0.833320
0.843750 0.843750 0.843750
0.854051 0.854051 0.854051
0.864225 0.864225 0.864225
0.874272 0.874272 0.874272
0.737489 0.737489 0.737489
0.749142 0.749142 0.749142
0.760643 0.760643 0.760643
0.771995 0.771995 0.771995
0.783201 0.783201 0.783201
0.794264 0.794264 0.794264
0.805186 0.805186 0.805186
0.815970 0.815970 0.815970
0.826618 0.826618 0.826618
0.837132 0.837132 0.837132
0.847516 0.847516 0.847516
0.857770 0.857770 0.857770
0.867897 0.867897 0.867897
0.877899 0.877899 0.877899
0.887778 0.887778 0.887778
0.897536 0.897536 0.897536
0.907175 0.907175 0.907175
0.776092 0.776092 0.776092
0.787245 0.787245 0.787245
0.798256 0.798256 0.798256
0.809128 0.809128 0.809128
0.819862 0.819862 0.819862
0.830461 0.830461 0.830461
0.840927 0.840927 0.840927
0.851264 0.851264 0.851264
0.861471 0.861471 0.861471
0.871553 0.871553 0.871553
0.881510 0.881510 0.881510
0.891345 0.891345 0.891345
0.901059 0.901059 0.901059
0.910655 0.910655 0.910655
0.920133 0.920133 0.920133
0.929496 0.929496 0.929496
0.938745 0.938745 0.938745
0.813051 0.813051 0.813051
0.823736 0.823736 0.823736
0.834287 0.834287 0.834287
0.844705 0.844705 0.844705
0.854995 0.854995 0.854995
0.865156 0.865156 0.865156
0.875192 0.875192 0.875192
0.885105 0.885105 0.885105
0.894895 0.894895 0.894895
0.904566 0.904566 0.904566
0.914119 0.914119 0.914119
0.923555 0.923555 0.923555
0.932876 0.932876 0.932876
0.942084 0.942084 0.942084
0.951180 0.951180 0.951180
0.960000 0.960000 0.960000
0.960000 0.960000 0.960000
0.848466 0.848466 0.848466
0.858709 0.858709 0.858709
0.868824 0.868824 0.868824
0.878815 0.878815 0.878815
0.888683 0.888683 0.888683
0.898430 0.898430 0.898430
0.908058 0.908058 0.908058
0.917568 0.917568 0.917568
0.926962 0.926962 0.926962
0.936241 0.936241 0.936241
0.945409 0.945409 0.945409
0.954464 0.954464 0.954464
0.960000 0.960000 0.960000
0.960000 0.960000 0.960000
0.960000 0.960000 0.960000
0.960000 0.960000 0.960000
0.960000 0.960000 0.960000
0.000000 0.000000 0.000000
0.000000 0.000000 0.000000
0.020127 0.020127 0.020127
0.050966 0.050966 0.050966
0.079414 0.079414 0.079414
0.106109 0.106109 0.106109
0.131427 0.131427 0.131427
0.155612 0.155612 0.155612
0.178836 0.178836 0.178836
0.201227 0.201227 0.201227
0.222882 0.222882 0.222882
0.243879 0.243879 0.243879
0.264281 0.264281 0.264281
0.284138 0.284138 0.284138
0.303495 0.303495 0.303495
0.322387 0.322387 0.322387
0.340847 0.340847 0.340847
0.061558 0.061558 0.061558
0.089312 0.089312 0.089312
0.115471 0.115471 0.115471
0.140353 0.140353 0.140353
0.164171 0.164171 0.164171
0.187078 0.187078 0.187078
0.209191 0.209191 0.209191
0.230599 0.230599 0.230599
0.251373 0.251373 0.251373
0.271571 0.271571 0.271571
0.291241 0.291241 0.291241
0.310425 0.310425 0.310425
0.329157 0.329157 0.329157
0.347466 0.347466 0.347466
0.365380 0.365380 0.365380
0.382922 0.382922 0.382922
0.400111 0.400111 0.400111
0.149138 0.149138 0.149138
0.172609 0.172609 0.172609
0.195216 0.195216 0.195216
0.217063 0.217063 0.217063
0.238232 0.238232 0.238232
0.258790 0.258790 0.258790
0.278791 0.278791 0.278791
0.298280 0.298280 0.298280
0.317295 0.317295 0.317295
0.335870 0.335870 0.335870
0.354033 0.354033 0.354033
0.371809 0.371809 0.371809
0.389219 0.389219 0.389219
0.406285 0.406285 0.406285
0.423022 0.423022 0.423022
0.439447 0.439447 0.439447
0.455574 0.455574 0.455574
0.224845 0.224845 0.224845
0.245784 0.245784 0.245784
0.266134 0.266134 0.266134
0.285943 0.285943 0.285943
0.305255 0.305255 0.305255
0.324107 0.324107 0.324107
0.342529 0.342529 0.342529
0.360548 0.360548 0.360548
0.378188 0.378188 0.378188
0.395471 0.395471 0.395471
0.412415 0.412415 0.412415
0.429037 0.429037 0.429037
0.445352 0.445352 0.445352
0.461374 0.461374 0.461374
0.477115 0.477115 0.477115
0.492587 0.492587 0.492587
0.507799 0.507799 0.507799
0.293030 0.293030 0.293030
0.312170 0.312170 0.312170
0.330862 0.330862 0.330862
0.349134 0.349134 0.349134
0.367013 0.367013 0.367013
0.384521 0.384521 0.384521
0.401678 0.401678 0.401678
0.418503 0.418503 0.418503
0.435012 0.435012 0.435012
0.451218 0.451218 0.451218
0.467137 0.467137 0.467137
0.482778 0.482778 0.482778
0.498154 0.498154 0.498154
0.513275 0.513275 0.513275
0.528150 0.528150 0.528150
0.542787 0.542787 0.542787
0.557195 0.557195 0.557195
0.355687 0.355687 0.355687
0.373429 0.373429 0.373429
0.390807 0.390807 0.390807
0.407841 0.407841 0.407841
0.424549 0.424549 0.424549
0.440946 0.440946 0.440946
0.457046 0.457046 0.457046
0.472863 0.472863 0.472863
0.488406 0.488406 0.488406
0.503688 0.503688 0.503688
0.518719 0.518719 0.518719
0.533506 0.533506 0.533506
0.548059 0.548059 0.548059
0.562385 0.562385 0.562385
0.576492 0.576492 0.576492
0.590386 0.590386 0.590386
0.604074 0.604074 0.604074
0.413961 0.413961 0.413961
0.430554 0.430554 0.430554
0.446841 0.446841 0.446841
0.462837 0.462837 0.462837
0.478552 0.478552 0.478552
0.494000 0.494000 0.494000
0.509189 0.509189 0.509189
0.524130 0.524130 0.524130
0.538831 0.538831 0.538831
0.553300 0.553300 0.553300
0.567546 0.567546 0.567546
0.581574 0.581574 0.581574
0.595393 0.595393 0.595393
0.609007 0.609007 0.609007
0.622423 0.622423 0.622423
0.635645 0.635645 0.635645
0.648680 0.648680 0.648680
0.468590 0.468590 0.468590
0.484207 0.484207 0.484207
0.499559 0.499559 0.499559
0.514657 0.514657 0.514657
0.529509 0.529509 0.529509
0.544125 0.544125 0.544125
0.558512 0.558512 0.558512
0.572678 0.572678 0.572678
0.586629 0.586629 0.586629
0.600372 0.600372 0.600372
0.613914 0.613914 0.613914
0.627258 0.627258 0.627258
0.640412 0.640412 0.640412
0.653380 0.653380 0.653380
0.666166 0.666166 0.666166
0.678775 0.678775 0.678775
0.691212 0.691212 0.691212
0.520092 0.520092 0.520092
0.534857 0.534857 0.534857
0.549389 0.549389 0.549389
0.563695 0.563695 0.563695
0.577782 0.577782 0.577782
0.591656 0.591656 0.591656
0.605325 0.605325 0.605325
0.618794 0.618794 0.618794
0.632069 0.632069 0.632069
0.645155 0.645155 0.645155
0.658056 0.658056 0.658056
0.670777 0.670777 0.670777
0.683323 0.683323 0.683323
0.695698 0.695698 0.695698
0.707905 0.707905 0.707905
0.719949 0.719949 0.719949
0.731833 0.731833 0.731833
0.568848 0.568848 0.568848
0.582857 0.582857 0.582857
0.596656 0.596656 0.596656
0.610252 0.610252 0.610252
0.623650 0.623650 0.623650
0.636855 0.636855 0.636855
0.649872 0.649872 0.649872
0.662708 0.662708 0.662708
0.675365 0.675365 0.675365
0.687848 0.687848 0.687848
0.700161 0.700161 0.700161
0.712308 0.712308 0.712308
0.724294 0.724294 0.724294
0.736120 0.736120 0.736120
0.747791 0.747791 0.747791
0.759310 0.759310 0.759310
0.770679 0.770679 0.770679
0.615152 0.615152 0.615152
0.628479 0.628479 0.628479
0.641615 0.641615 0.641615
0.654566 0.654566 0.654566
0.667336 0.667336 0.667336
0.679929 0.679929 0.679929
0.692350 0.692350 0.692350
0.704602 0.704602 0.704602
0.716690 0.716690 0.716690
0.728617 0.728617 0.728617
0.740387 0.740387 0.740387
0.752002 0.752002 0.752002
0.763466 0.763466 0.763466
0.774781 0.774781 0.774781
0.785952 0.785952 0.785952
0.796979 0.796979 0.796979
0.807867 0.807867 0.807867
0.659236 0.659236 0.659236
0.671941 0.671941 0.671941
0.684471 0.684471 0.684471
0.696830 0.696830 0.696830
0.709022 0.709022 0.709022
0.721051 0.721051 0.721051
0.732920 0.732920 0.732920
0.744633 0.744633 0.744633
0.756193 0.756193 0.756193
0.767602 0.767602 0.767602
0.778865 0.778865 0.778865
0.789983 0.789983 0.789983
0.800959 0.800959 0.800959
0.811796 0.811796 0.811796
0.822497 0.822497 0.822497
0.833063 0.833063 0.833063
0.843497 0.843497 0.843497
0.701288 0.701288 0.701288
0.713420 0.713420 0.713420
0.725391 0.725391 0.725391
0.737202 0.737202 0.737202
0.748859 0.748859 0.748859
0.760364 0.760364 0.760364
0.771720 0.771720 0.771720
0.782929 0.782929 0.782929
0.793995 0.793995 0.793995
0.804920 0.804920 0.804920
0.815708 0.815708 0.815708
0.826359 0.826359 0.826359
0.836877 0.836877 0.836877
0.847263 0.847263 0.847263
0.857520 0.857520 0.857520
0.867651 0.867651 0.867651
0.877656 0.877656 0.877656
0.741464 0.741464 0.741464
0.753065 0.753065 0.753065
0.764515 0.764515 0.764515
0.775817 0.775817 0.775817
0.786974 0.786974 0.786974
0.797989 0.797989 0.797989
0.808864 0.808864 0.808864
0.819601 0.819601 0.819601
0.830203 0.830203 0.830203
0.840673 0.840673 0.840673
0.851012 0.851012 0.851012
0.861223 0.861223 0.861223
0.871308 0.871308 0.871308
0.881268 0.881268 0.881268
0.891106 0.891106 0.891106
0.900823 0.900823 0.900823
0.910421 0.910421 0.910421
0.779896 0.779896 0.779896
0.791001 0.791001 0.791001
0.801964 0.801964 0.801964
0.812788 0.812788 0.812788
0.823476 0.823476 0.823476
0.834030 0.834030 0.834030
0.844452 0.844452 0.844452
0.854744 0.854744 0.854744
0.864909 0.864909 0.864909
0.874948 0.874948 0.874948
0.884864 0.884864 0.884864
0.894657 0.894657 0.894657
0.904331 0.904331 0.904331
0.913887 0.913887 0.913887
0.923325 0.923325 0.923325
0.932650 0.932650 0.932650
0.941860 0.941860 0.941860
0.816695 0.816695 0.816695
0.827334 0.827334 0.827334
0.837840 0.837840 0.837840
0.848214 0.848214 0.848214
0.858460 0.858460 0.858460
0.868578 0.868578 0.868578
0.878572 0.878572 0.878572
0.888443 0.888443 0.888443
0.898193 0.898193 0.898193
0.907823 0.907823 0.907823
0.917336 0.917336 0.917336
0.926733 0.926733 0.926733
0.936016 0.936016 0.936016
0.945186 0.945186 0.945186
0.954244 0.954244 0.954244
0.960000 0.960000 0.960000
0.960000 0.960000 0.960000
0.851959 0.851959 0.851959
0.862158 0.862158 0.862158
0.872231 0.872231 0.872231
0.882180 0.882180 0.882180
0.892007 0.892007 0.892007
0.901713 0.901713 0.901713
0.911300 0.911300 0.911300
0.920771 0.920771 0.920771
0.930126 0.930126 0.930126
0.939367 0.939367 0.939367
0.948496 0.948496 0.948496
0.957515 0.957515 0.957515
0.960000 0.960000 0.960000
0.960000 0.960000 0.960000
0.960000 0.960000 0.960000
0.960000 0.960000 0.960000
0.960000 0.960000 0.960000
0.000000 0.000000 0.000000
0.000000 0.000000 0.000000
0.030927 0.030927 0.030927
0.060855 0.060855 0.060855
0.088654 0.088654 0.088654
0.114848 0.114848 0.114848
0.139757 0.139757 0.139757
0.163599 0.163599 0.163599
0.186528 0.186528 0.186528
0.208659 0.208659 0.208659
0.230083 0.230083 0.230083
0.250872 0.250872 0.250872
0.271083 0.271083 0.271083
0.290766 0.290766 0.290766
0.309961 0.309961 0.309961
0.328704 0.328704 0.328704
0.347023 0.347023 0.347023
0.071189 0.071189 0.071189
0.098356 0.098356 0.098356
0.124052 0.124052 0.124052
0.148552 0.148552 0.148552
0.172046 0.172046 0.172046
0.194672 0.194672 0.194672
0.216537 0.216537 0.216537
0.237722 0.237722 0.237722
0.258294 0.258294 0.258294
0.278308 0.278308 0.278308
0.297809 0.297809 0.297809
0.316835 0.316835 0.316835
0.335421 0.335421 0.335421
0.353593 0.353593 0.353593
0.371378 0.371378 0.371378
0.388798 0.388798 0.388798
0.405871 0.405871 0.405871
0.157213 0.157213 0.157213
0.180378 0.180378 0.180378
0.202716 0.202716 0.202716
0.224324 0.224324 0.224324
0.245279 0.245279 0.245279
0.265643 0.265643 0.265643
0.285465 0.285465 0.285465
0.304789 0.304789 0.304789
0.323651 0.323651 0.323651
0.342083 0.342083 0.342083
0.360112 0.360112 0.360112
0.377761 0.377761 0.377761
0.395053 0.395053 0.395053
0.412005 0.412005 0.412005
0.428634 0.428634 0.428634
0.444957 0.444957 0.444957
0.460985 0.460985 0.460985
0.232026 0.232026 0.232026
0.252759 0.252759 0.252759
0.272919 0.272919 0.272919
0.292555 0.292555 0.292555
0.311708 0.311708 0.311708
0.330410 0.330410 0.330410
0.348692 0.348692 0.348692
0.366580 0.366580 0.366580
0.384097 0.384097 0.384097
0.401263 0.401263 0.401263
0.418095 0.418095 0.418095
0.434612 0.434612 0.434612
0.450825 0.450825 0.450825
0.466751 0.466751 0.466751
0.482399 0.482399 0.482399
0.497781 0.497781 0.497781
0.512908 0.512908 0.512908
0.299582 0.299582 0.299582
0.318567 0.318567 0.318567
0.337113 0.337113 0.337113
0.355249 0.355249 0.355249
0.372999 0.372999 0.372999
0.390386 0.390386 0.390386
0.407429 0.407429 0.407429
0.424144 0.424144 0.424144
0.440549 0.440549 0.440549
0.456656 0.456656 0.456656
0.472479 0.472479 0.472479
0.488029 0.488029 0.488029
0.503318 0.503318 0.503318
0.518354 0.518354 0.518354
0.533147 0.533147 0.533147
0.547706 0.547706 0.547706
0.562037 0.562037 0.562037
0.361754 0.361754 0.361754
0.379370 0.379370 0.379370
0.396629 0.396629 0.396629
0.413551 0.413551 0.413551
0.430152 0.430152 0.430152
0.446446 0.446446 0.446446
0.462449 0.462449 0.462449
0.478171 0.478171 0.478171
0.493625 0.493625 0.493625
0.508820 0.508820 0.508820
0.523767 0.523767 0.523767
0.538474 0.538474 0.538474
0.552949 0.552949 0.552949
0.567200 0.567200 0.567200
0.581234 0.581234 0.581234
0.595057 0.595057 0.595057
0.608676 0.608676 0.608676
0.419631 0.419631 0.419631
0.436119 0.436119 0.436119
0.452306 0.452306 0.452306
0.468205 0.468205 0.468205
0.483828 0.483828 0.483828
0.499187 0.499187 0.499187
0.514290 0.514290 0.514290
0.529149 0.529149 0.529149
0.543770 0.543770 0.543770
0.558163 0.558163 0.558163
0.572334 0.572334 0.572334
0.586291 0.586291 0.586291
0.600039 0.600039 0.600039
0.613585 0.613585 0.613585
0.626934 0.626934 0.626934
0.640093 0.640093 0.640093
0.653065 0.653065 0.653065
0.473924 0.473924 0.473924
0.489450 0.489450 0.489450
0.504714 0.504714 0.504714
0.519728 0.519728 0.519728
0.534499 0.534499 0.534499
0.549036 0.549036 0.549036
0.563347 0.563347 0.563347
0.577440 0.577440 0.577440
0.591320 0.591320 0.591320
0.604994 0.604994 0.604994
0.618467 0.618467 0.618467
0.631747 0.631747 0.631747
0.644837 0.644837 0.644837
0.657742 0.657742 0.657742
0.670468 0.670468 0.670468
0.683018 0.683018 0.683018
0.695397 0.695397 0.695397
0.525133 0.525133 0.525133
0.539818 0.539818 0.539818
0.554272 0.554272 0.554272
0.568503 0.568503 0.568503
0.582517 0.582517 0.582517
0.596321 0.596321 0.596321
0.609922 0.609922 0.609922
0.623324 0.623324 0.623324
0.636534 0.636534 0.636534
0.649556 0.649556 0.649556
0.662396 0.662396 0.662396
0.675057 0.675057 0.675057
0.687544 0.687544 0.687544
0.699862 0.699862 0.699862
0.712013 0.712013 0.712013
0.724002 0.724002 0.724002
0.735833 0.735833 0.735833
0.573630 0.573630 0.573630
0.587567 0.587567 0.587567
0.601296 0.601296 0.601296
0.614824 0.614824 0.614824
0.628155 0.628155 0.628155
0.641296 0.641296 0.641296
0.654252 0.654252 0.654252
0.667026 0.667026 0.667026
0.679623 0.679623 0.679623
0.692048 0.692048 0.692048
0.704305 0.704305 0.704305
0.716397 0.716397 0.716397
0.728328 0.728328 0.728328
0.740101 0.740101 0.740101
0.751720 0.751720 0.751720
0.763187 0.763187 0.763187
0.774506 0.774506 0.774506
0.619700 0.619700 0.619700
0.632961 0.632961 0.632961
0.646034 0.646034 0.646034
0.658923 0.658923 0.658923
0.671632 0.671632 0.671632
0.684166 0.684166 0.684166
0.696530 0.696530 0.696530
0.708726 0.708726 0.708726
0.720759 0.720759 0.720759
0.732632 0.732632 0.732632
0.744348 0.744348 0.744348
0.755912 0.755912 0.755912
0.767325 0.767325 0.767325
0.778591 0.778591 0.778591
0.789713 0.789713 0.789713
0.800692 0.800692 0.800692
0.811533 0.811533 0.811533
0.663570 0.663570 0.663570
0.676215 0.676215 0.676215
0.688687 0.688687 0.688687
0.700989 0.700989 0.700989
0.713125 0.713125 0.713125
0.725100 0.725100 0.725100
0.736915 0.736915 0.736915
0.748576 0.748576 0.748576
0.760084 0.760084 0.760084
0.771444 0.771444 0.771444
0.782657 0.782657 0.782657
0.793726 0.793726 0.793726
0.804655 0.804655 0.804655
0.815445 0.815445 0.815445
0.826100 0.826100 0.826100
0.836621 0.836621 0.836621
0.847011 0.847011 0.847011
0.705426 0.705426 0.705426
0.717503 0.717503 0.717503
0.729420 0.729420 0.729420
0.741178 0.741178 0.741178
0.752783 0.752783 0.752783
0.764237 0.764237 0.764237
0.775543 0.775543 0.775543
0.786703 0.786703 0.786703
0.797721 0.797721 0.797721
0.808599 0.808599 0.808599
0.819340 0.819340 0.819340
0.829946 0.829946 0.829946
0.840419 0.840419 0.840419
0.850761 0.850761 0.850761
0.860975 0.860975 0.860975
0.871063 0.871063 0.871063
0.881026 0.881026 0.881026
0.745421 0.745421 0.745421
0.756970 0.756970 0.756970
0.768370 0.768370 0.768370
0.779622 0.779622 0.779622
0.790731 0.790731 0.790731
0.801698 0.801698 0.801698
0.812525 0.812525 0.812525
0.823217 0.823217 0.823217
0.833774 0.833774 0.833774
0.844199 0.844199 0.844199
0.854494 0.854494 0.854494
0.864662 0.864662 0.864662
0.874704 0.874704 0.874704
0.884623 0.884623 0.884623
0.894419 0.894419 0.894419
0.904096 0.904096 0.904096
0.913654 0.913654 0.913654
0.783683 0.783683 0.783683
0.794740 0.794740 0.794740
0.805655 0.805655 0.805655
0.816433 0.816433 0.816433
0.827075 0.827075 0.827075
0.837584 0.837584 0.837584
0.847962 0.847962 0.847962
0.858211 0.858211 0.858211
0.868332 0.868332 0.868332
0.878329 0.878329 0.878329
0.888203 0.888203 0.888203
0.897956 0.897956 0.897956
0.907589 0.907589 0.907589
0.917105 0.917105 0.917105
0.926505 0.926505 0.926505
0.935790 0.935790 0.935790
0.944963 0.944963 0.944963
0.820323 0.820323 0.820323
0.830917 0.830917 0.830917
0.841377 0.841377 0.841377
0.851708 0.851708 0.851708
0.861910 0.861910 0.861910
0.871986 0.871986 0.871986
0.881938 0.881938 0.881938
0.891768 0.891768 0.891768
0.901477 0.901477 0.901477
0.911067 0.911067 0.911067
0.920540 0.920540 0.920540
0.929898 0.929898 0.929898
0.939143 0.939143 0.939143
0.948274 0.948274 0.948274
0.957296 0.957296 0.957296
0.960000 0.960000 0.960000
0.960000 0.960000 0.960000
0.855437 0.855437 0.855437
0.865593 0.865593 0.865593
0.875624 0.875624 0.875624
0.885531 0.885531 0.885531
0.895316 0.895316 0.895316
0.904982 0.904982 0.904982
0.914529 0.914529 0.914529
0.923961 0.923961 0.923961
0.933277 0.933277 0.933277
0.942480 0.942480 0.942480
0.951571 0.951571 0.951571
0.960000 0.960000 0.960000
0.960000 0.960000 0.960000
0.960000 0.960000 0.960000
0.960000 0.960000 0.960000
0.960000 0.960000 0.960000
0.960000 0.960000 0.960000
0.000000 0.000000 0.000000
0.009549 0.009549 0.009549
0.041376 0.041376 0.041376
0.070502 0.070502 0.070502
0.097711 0.097711 0.097711
0.123439 0.123439 0.123439
0.147965 0.147965 0.147965
0.171482 0.171482 0.171482
0.194128 0.194128 0.194128
0.216010 0.216010 0.216010
0.237211 0.237211 0.237211
0.257798 0.257798 0.257798
0.277825 0.277825 0.277825
0.297338 0.297338 0.297338
0.316375 0.316375 0.316375
0.334971 0.334971 0.334971
0.353153 0.353153 0.353153
0.080602 0.080602 0.080602
