luts/creative/high_contrast_bw.cube
TITLE "High Contrast B&W"
LUT_3D_SIZE 9
DOMAIN_MIN 0.0 0.0 0.0
DOMAIN_MAX 1.0 1.0 1.0
0.000000 0.000000 0.000000
0.008916 0.008916 0.008916
0.069974 0.069974 0.069974
0.122966 0.122966 0.122966
0.171048 0.171048 0.171048
0.215605 0.215605 0.215605
0.257416 0.257416 0.257416
0.296975 0.296975 0.296975
0.334625 0.334625 0.334625
0.140947 0.140947 0.140947
0.187628 0.187628 0.187628
0.231115 0.231115 0.231115
0.272058 0.272058 0.272058
0.310888 0.310888 0.310888
0.347909 0.347909 0.347909
0.383346 0.383346 0.383346
0.417374 0.417374 0.417374
0.450130 0.450130 0.450130
0.286421 0.286421 0.286421
0.324562 0.324562 0.324562
0.360984 0.360984 0.360984
0.395890 0.395890 0.395890
0.429440 0.429440 0.429440
0.461762 0.461762 0.461762
0.492962 0.492962 0.492962
0.523125 0.523125 0.523125
0.552327 0.552327 0.552327
0.408254 0.408254 0.408254
0.441343 0.441343 0.441343
0.473246 0.473246 0.473246
0.504059 0.504059 0.504059
0.533865 0.533865 0.533865
0.562733 0.562733 0.562733
0.590723 0.590723 0.590723
0.617888 0.617888 0.617888
0.644274 0.644274 0.644274
0.515023 0.515023 0.515023
0.544480 0.544480 0.544480
0.573022 0.573022 0.573022
0.600706 0.600706 0.600706
0.627582 0.627582 0.627582
0.653695 0.653695 0.653695
0.679082 0.679082 0.679082
0.703778 0.703778 0.703778
0.727815 0.727815 0.727815
0.610582 0.610582 0.610582
0.637175 0.637175 0.637175
0.663019 0.663019 0.663019
0.688151 0.688151 0.688151
0.712604 0.712604 0.712604
0.736407 0.736407 0.736407
0.759589 0.759589 0.759589
0.782174 0.782174 0.782174
0.804185 0.804185 0.804185
0.697130 0.697130 0.697130
0.721343 0.721343 0.721343
0.744918 0.744918 0.744918
0.767880 0.767880 0.767880
0.790253 0.790253 0.790253
0.812060 0.812060 0.812060
0.833320 0.833320 0.833320
0.854051 0.854051 0.854051
0.874272 0.874272 0.874272
0.776092 0.776092 0.776092
0.798256 0.798256 0.798256
0.819862 0.819862 0.819862
0.840927 0.840927 0.840927
0.861471 0.861471 0.861471
0.881510 0.881510 0.881510
0.901059 0.901059 0.901059
0.920133 0.920133 0.920133
0.938745 0.938745 0.938745
0.848466 0.848466 0.848466
0.868824 0.868824 0.868824
0.888683 0.888683 0.888683
0.908058 0.908058 0.908058
0.926962 0.926962 0.926962
0.945409 0.945409 0.945409
0.960000 0.960000 0.960000
0.960000 0.960000 0.960000
0.960000 0.960000 0.960000
0.000000 0.000000 0.000000
0.030927 0.030927 0.030927
0.088654 0.088654 0.088654
0.139757 0.139757 0.139757
0.186528 0.186528 0.186528
0.230083 0.230083 0.230083
0.271083 0.271083 0.271083
0.309961 0.309961 0.309961
0.347023 0.347023 0.347023
0.157213 0.157213 0.157213
0.202716 0.202716 0.202716
0.245279 0.245279 0.245279
0.285465 0.285465 0.285465
0.323651 0.323651 0.323651
0.360112 0.360112 0.360112
0.395053 0.395053 0.395053
0.428634 0.428634 0.428634
0.460985 0.460985 0.460985
0.299582 0.299582 0.299582
0.337113 0.337113 0.337113
0.372999 0.372999 0.372999
0.407429 0.407429 0.407429
0.440549 0.440549 0.440549
0.472479 0.472479 0.472479
0.503318 0.503318 0.503318
0.533147 0.533147 0.533147
0.562037 0.562037 0.562037
0.419631 0.419631 0.419631
0.452306 0.452306 0.452306
0.483828 0.483828 0.483828
0.514290 0.514290 0.514290
0.543770 0.543770 0.543770
0.572334 0.572334 0.572334
0.600039 0.600039 0.600039
0.626934 0.626934 0.626934
0.653065 0.653065 0.653065
0.525133 0.525133 0.525133
0.554272 0.554272 0.554272
0.582517 0.582517 0.582517
0.609922 0.609922 0.609922
0.636534 0.636534 0.636534
0.662396 0.662396 0.662396
0.687544 0.687544 0.687544
0.712013 0.712013 0.712013
0.735833 0.735833 0.735833
0.619700 0.619700 0.619700
0.646034 0.646034 0.646034
0.671632 0.671632 0.671632
0.696530 0.696530 0.696530
0.720759 0.720759 0.720759
0.744348 0.744348 0.744348
0.767325 0.767325 0.767325
0.789713 0.789713 0.789713
0.811533 0.811533 0.811533
0.705426 0.705426 0.705426
0.729420 0.729420 0.729420
0.752783 0.752783 0.752783
0.775543 0.775543 0.775543
0.797721 0.797721 0.797721
0.819340 0.819340 0.819340
0.840419 0.840419 0.840419
0.860975 0.860975 0.860975
0.881026 0.881026 0.881026
0.783683 0.783683 0.783683
0.805655 0.805655 0.805655
0.827075 0.827075 0.827075
0.847962 0.847962 0.847962
0.868332 0.868332 0.868332
0.888203 0.888203 0.888203
0.907589 0.907589 0.907589
0.926505 0.926505 0.926505
0.944963 0.944963 0.944963
0.855437 0.855437 0.855437
0.875624 0.875624 0.875624
0.895316 0.895316 0.895316
0.914529 0.914529 0.914529
0.933277 0.933277 0.933277
0.951571 0.951571 0.951571
0.960000 0.960000 0.960000
0.960000 0.960000 0.960000
0.960000 0.960000 0.960000
0.000000 0.000000 0.000000
0.051521 0.051521 0.051521
0.106598 0.106598 0.106598
0.156057 0.156057 0.156057
0.201641 0.201641 0.201641
0.244269 0.244269 0.244269
0.284507 0.284507 0.284507
0.322739 0.322739 0.322739
0.359239 0.359239 0.359239
0.173042 0.173042 0.173042
0.217467 0.217467 0.217467
0.259171 0.259171 0.259171
0.298642 0.298642 0.298642
0.336215 0.336215 0.336215
0.372139 0.372139 0.372139
0.406603 0.406603 0.406603
0.439753 0.439753 0.439753
0.471711 0.471711 0.471711
0.312526 0.312526 0.312526
0.349474 0.349474 0.349474
0.384847 0.384847 0.384847
0.418817 0.418817 0.418817
0.451521 0.451521 0.451521
0.483070 0.483070 0.483070
0.513557 0.513557 0.513557
0.543060 0.543060 0.543060
0.571646 0.571646 0.571646
0.430863 0.430863 0.430863
0.463135 0.463135 0.463135
0.494288 0.494288 0.494288
0.524409 0.524409 0.524409
0.553570 0.553570 0.553570
0.581836 0.581836 0.581836
0.609261 0.609261 0.609261
0.635892 0.635892 0.635892
0.661772 0.661772 0.661772
0.535133 0.535133 0.535133
0.563962 0.563962 0.563962
0.591915 0.591915 0.591915
0.619046 0.619046 0.619046
0.645399 0.645399 0.645399
0.671015 0.671015 0.671015
0.695929 0.695929 0.695929
0.720174 0.720174 0.720174
0.743779 0.743779 0.743779
0.628728 0.628728 0.628728
0.654808 0.654808 0.654808
0.680164 0.680164 0.680164
0.704831 0.704831 0.704831
0.728840 0.728840 0.728840
0.752219 0.752219 0.752219
0.774993 0.774993 0.774993
0.797185 0.797185 0.797185
0.818818 0.818818 0.818818
0.713647 0.713647 0.713647
0.737423 0.737423 0.737423
0.760579 0.760579 0.760579
0.783139 0.783139 0.783139
0.805125 0.805125 0.805125
0.826558 0.826558 0.826558
0.847457 0.847457 0.847457
0.867840 0.867840 0.867840
0.887723 0.887723 0.887723
0.791208 0.791208 0.791208
0.812991 0.812991 0.812991
0.834228 0.834228 0.834228
0.854937 0.854937 0.854937
0.875136 0.875136 0.875136
0.894840 0.894840 0.894840
0.914065 0.914065 0.914065
0.932824 0.932824 0.932824
0.951129 0.951129 0.951129
0.862349 0.862349 0.862349
0.882366 0.882366 0.882366
0.901894 0.901894 0.901894
0.920948 0.920948 0.920948
0.939540 0.939540 0.939540
0.957683 0.957683 0.957683
0.960000 0.960000 0.960000
0.960000 0.960000 0.960000
0.960000 0.960000 0.960000
0.010181 0.010181 0.010181
0.071030 0.071030 0.071030
0.123911 0.123911 0.123911
0.171916 0.171916 0.171916
0.216415 0.216415 0.216415
0.258180 0.258180 0.258180
0.297700 0.297700 0.297700
0.335317 0.335317 0.335317
0.371279 0.371279 0.371279
0.188473 0.188473 0.188473
0.231907 0.231907 0.231907
0.272807 0.272807 0.272807
0.311601 0.311601 0.311601
0.348590 0.348590 0.348590
0.383999 0.383999 0.383999
0.418001 0.418001 0.418001
0.450735 0.450735 0.450735
0.482311 0.482311 0.482311
0.325263 0.325263 0.325263
0.361654 0.361654 0.361654
0.396533 0.396533 0.396533
0.430059 0.430059 0.430059
0.462359 0.462359 0.462359
0.493539 0.493539 0.493539
0.523684 0.523684 0.523684
0.552868 0.552868 0.552868
0.581155 0.581155 0.581155
0.441954 0.441954 0.441954
0.473835 0.473835 0.473835
0.504629 0.504629 0.504629
0.534416 0.534416 0.534416
0.563267 0.563267 0.563267
0.591242 0.591242 0.591242
0.618392 0.618392 0.618392
0.644763 0.644763 0.644763
0.670397 0.670397 0.670397
0.545025 0.545025 0.545025
0.573550 0.573550 0.573550
0.601219 0.601219 0.601219
0.628081 0.628081 0.628081
0.654179 0.654179 0.654179
0.679553 0.679553 0.679553
0.704236 0.704236 0.704236
0.728261 0.728261 0.728261
0.751654 0.751654 0.751654
0.637668 0.637668 0.637668
0.663499 0.663499 0.663499
0.688617 0.688617 0.688617
0.713057 0.713057 0.713057
0.736849 0.736849 0.736849
0.760020 0.760020 0.760020
0.782594 0.782594 0.782594
0.804594 0.804594 0.804594
0.826040 0.826040 0.826040
0.721793 0.721793 0.721793
0.745355 0.745355 0.745355
0.768306 0.768306 0.768306
0.790668 0.790668 0.790668
0.812465 0.812465 0.812465
0.833714 0.833714 0.833714
0.854436 0.854436 0.854436
0.874648 0.874648 0.874648
0.894364 0.894364 0.894364
0.798668 0.798668 0.798668
0.820263 0.820263 0.820263
0.841319 0.841319 0.841319
0.861853 0.861853 0.861853
0.881882 0.881882 0.881882
0.901422 0.901422 0.901422
0.920487 0.920487 0.920487
0.939091 0.939091 0.939091
0.957245 0.957245 0.957245
0.869203 0.869203 0.869203
0.889052 0.889052 0.889052
0.908417 0.908417 0.908417
0.927313 0.927313 0.927313
0.945751 0.945751 0.945751
0.960000 0.960000 0.960000
0.960000 0.960000 0.960000
0.960000 0.960000 0.960000
0.960000 0.960000 0.960000
0.032101 0.032101 0.032101
0.089666 0.089666 0.089666
0.140673 0.140673 0.140673
0.187375 0.187375 0.187375
0.230877 0.230877 0.230877
0.271833 0.271833 0.271833
0.310674 0.310674 0.310674
0.347705 0.347705 0.347705
0.383150 0.383150 0.383150
0.203542 0.203542 0.203542
0.246056 0.246056 0.246056
0.286201 0.286201 0.286201
0.324352 0.324352 0.324352
0.360783 0.360783 0.360783
0.395697 0.395697 0.395697
0.429254 0.429254 0.429254
0.461583 0.461583 0.461583
0.492789 0.492789 0.492789
0.337802 0.337802 0.337802
0.373660 0.373660 0.373660
0.408063 0.408063 0.408063
0.441160 0.441160 0.441160
0.473069 0.473069 0.473069
0.503888 0.503888 0.503888
0.533699 0.533699 0.533699
0.562572 0.562572 0.562572
0.590568 0.590568 0.590568
0.452909 0.452909 0.452909
0.484411 0.484411 0.484411
0.514854 0.514854 0.514854
0.544316 0.544316 0.544316
0.572863 0.572863 0.572863
0.600552 0.600552 0.600552
0.627433 0.627433 0.627433
0.653549 0.653549 0.653549
0.678940 0.678940 0.678940
0.554812 0.554812 0.554812
0.583040 0.583040 0.583040
0.610430 0.610430 0.610430
0.637027 0.637027 0.637027
0.662875 0.662875 0.662875
0.688011 0.688011 0.688011
0.712467 0.712467 0.712467
0.736275 0.736275 0.736275
0.759460 0.759460 0.759460
0.646522 0.646522 0.646522
0.672107 0.672107 0.672107
0.696992 0.696992 0.696992
0.721208 0.721208 0.721208
0.744786 0.744786 0.744786
0.767752 0.767752 0.767752
0.790128 0.790128 0.790128
0.811938 0.811938 0.811938
0.833201 0.833201 0.833201
0.729865 0.729865 0.729865
0.753217 0.753217 0.753217
0.775965 0.775965 0.775965
0.798133 0.798133 0.798133
0.819741 0.819741 0.819741
0.840810 0.840810 0.840810
0.861357 0.861357 0.861357
0.881398 0.881398 0.881398
0.900950 0.900950 0.900950
0.806064 0.806064 0.806064
0.827473 0.827473 0.827473
0.848350 0.848350 0.848350
0.868711 0.868711 0.868711
0.888572 0.888572 0.888572
0.907949 0.907949 0.907949
0.926856 0.926856 0.926856
0.945306 0.945306 0.945306
0.960000 0.960000 0.960000
0.875999 0.875999 0.875999
0.895682 0.895682 0.895682
0.914886 0.914886 0.914886
0.933625 0.933625 0.933625
0.951911 0.951911 0.951911
0.960000 0.960000 0.960000
0.960000 0.960000 0.960000
0.960000 0.960000 0.960000
0.960000 0.960000 0.960000
0.052628 0.052628 0.052628
0.107572 0.107572 0.107572
0.156947 0.156947 0.156947
0.202468 0.202468 0.202468
0.245046 0.245046 0.245046
0.285244 0.285244 0.285244
0.323441 0.323441 0.323441
0.359910 0.359910 0.359910
0.394859 0.394859 0.394859
0.218275 0.218275 0.218275
0.259933 0.259933 0.259933
0.299365 0.299365 0.299365
0.336906 0.336906 0.336906
0.372801 0.372801 0.372801
0.407238 0.407238 0.407238
0.440365 0.440365 0.440365
0.472302 0.472302 0.472302
0.503146 0.503146 0.503146
0.350153 0.350153 0.350153
0.385498 0.385498 0.385498
0.419443 0.419443 0.419443
0.452124 0.452124 0.452124
0.483653 0.483653 0.483653
0.514121 0.514121 0.514121
0.543607 0.543607 0.543607
0.572175 0.572175 0.572175
0.599885 0.599885 0.599885
0.463731 0.463731 0.463731
0.494864 0.494864 0.494864
0.524966 0.524966 0.524966
0.554110 0.554110 0.554110
0.582360 0.582360 0.582360
0.609769 0.609769 0.609769
0.636386 0.636386 0.636386
0.662252 0.662252 0.662252
0.687404 0.687404 0.687404
0.564496 0.564496 0.564496
0.592433 0.592433 0.592433
0.619549 0.619549 0.619549
0.645888 0.645888 0.645888
0.671490 0.671490 0.671490
0.696391 0.696391 0.696391
0.720624 0.720624 0.720624
0.744217 0.744217 0.744217
0.767197 0.767197 0.767197
0.655292 0.655292 0.655292
0.680635 0.680635 0.680635
0.705289 0.705289 0.705289
0.729286 0.729286 0.729286
0.752653 0.752653 0.752653
0.775416 0.775416 0.775416
0.797598 0.797598 0.797598
0.819219 0.819219 0.819219
0.840301 0.840301 0.840301
0.737864 0.737864 0.737864
0.761009 0.761009 0.761009
0.783557 0.783557 0.783557
0.805533 0.805533 0.805533
0.826956 0.826956 0.826956
0.847845 0.847845 0.847845
0.868219 0.868219 0.868219
0.888092 0.888092 0.888092
0.907481 0.907481 0.907481
0.813395 0.813395 0.813395
0.834622 0.834622 0.834622
0.855322 0.855322 0.855322
0.875511 0.875511 0.875511
0.895207 0.895207 0.895207
0.914422 0.914422 0.914422
0.933172 0.933172 0.933172
0.951469 0.951469 0.951469
0.960000 0.960000 0.960000
0.882738 0.882738 0.882738
0.902257 0.902257 0.902257
0.921302 0.921302 0.921302
0.939885 0.939885 0.939885
0.958021 0.958021 0.958021
0.960000 0.960000 0.960000
0.960000 0.960000 0.960000
0.960000 0.960000 0.960000
0.960000 0.960000 0.960000
0.072084 0.072084 0.072084
0.124853 0.124853 0.124853
0.172782 0.172782 0.172782
0.217225 0.217225 0.217225
0.258943 0.258943 0.258943
0.298424 0.298424 0.298424
0.336008 0.336008 0.336008
0.371941 0.371941 0.371941
0.406412 0.406412 0.406412
0.232698 0.232698 0.232698
0.273555 0.273555 0.273555
0.312312 0.312312 0.312312
0.349270 0.349270 0.349270
0.384651 0.384651 0.384651
0.418629 0.418629 0.418629
0.451339 0.451339 0.451339
0.482895 0.482895 0.482895
0.513388 0.513388 0.513388
0.362324 0.362324 0.362324
0.397176 0.397176 0.397176
0.430678 0.430678 0.430678
0.462956 0.462956 0.462956
0.494115 0.494115 0.494115
0.524241 0.524241 0.524241
0.553408 0.553408 0.553408
0.581679 0.581679 0.581679
0.609109 0.609109 0.609109
0.474425 0.474425 0.474425
0.505198 0.505198 0.505198
0.534967 0.534967 0.534967
0.563801 0.563801 0.563801
0.591760 0.591760 0.591760
0.618895 0.618895 0.618895
0.645252 0.645252 0.645252
0.670872 0.670872 0.670872
0.695790 0.695790 0.695790
0.574079 0.574079 0.574079
0.601732 0.601732 0.601732
0.628579 0.628579 0.628579
0.654663 0.654663 0.654663
0.680023 0.680023 0.680023
0.704694 0.704694 0.704694
0.728707 0.728707 0.728707
0.752089 0.752089 0.752089
0.774866 0.774866 0.774866
0.663978 0.663978 0.663978
0.689083 0.689083 0.689083
0.713511 0.713511 0.713511
0.737291 0.737291 0.737291
0.760450 0.760450 0.760450
0.783013 0.783013 0.783013
0.805002 0.805002 0.805002
0.826438 0.826438 0.826438
0.847341 0.847341 0.847341
0.745793 0.745793 0.745793
0.768732 0.768732 0.768732
0.791084 0.791084 0.791084
0.812869 0.812869 0.812869
0.834109 0.834109 0.834109
0.854821 0.854821 0.854821
0.875023 0.875023 0.875023
0.894731 0.894731 0.894731
0.913958 0.913958 0.913958
0.820664 0.820664 0.820664
0.841710 0.841710 0.841710
0.862234 0.862234 0.862234
0.882254 0.882254 0.882254
0.901785 0.901785 0.901785
0.920842 0.920842 0.920842
0.939436 0.939436 0.939436
0.957582 0.957582 0.957582
0.960000 0.960000 0.960000
0.889421 0.889421 0.889421
0.908777 0.908777 0.908777
0.927664 0.927664 0.927664
0.946094 0.946094 0.946094
0.960000 0.960000 0.960000
0.960000 0.960000 0.960000
0.960000 0.960000 0.960000
0.960000 0.960000 0.960000
0.960000 0.960000 0.960000
0.090676 0.090676 0.090676
0.141587 0.141587 0.141587
0.188220 0.188220 0.188220
0.231669 0.231669 0.231669
0.272582 0.272582 0.272582
0.311387 0.311387 0.311387
0.348386 0.348386 0.348386
0.383803 0.383803 0.383803
0.417813 0.417813 0.417813
0.246832 0.246832 0.246832
0.286936 0.286936 0.286936
0.325053 0.325053 0.325053
0.361453 0.361453 0.361453
0.396340 0.396340 0.396340
0.429873 0.429873 0.429873
0.462180 0.462180 0.462180
0.493366 0.493366 0.493366
0.523516 0.523516 0.523516
0.374320 0.374320 0.374320
0.408698 0.408698 0.408698
0.441771 0.441771 0.441771
0.473659 0.473659 0.473659
0.504458 0.504458 0.504458
0.534251 0.534251 0.534251
0.563107 0.563107 0.563107
0.591086 0.591086 0.591086
0.618241 0.618241 0.618241
0.484993 0.484993 0.484993
0.515417 0.515417 0.515417
0.544861 0.544861 0.544861
0.573392 0.573392 0.573392
0.601065 0.601065 0.601065
0.627931 0.627931 0.627931
0.654034 0.654034 0.654034
0.679411 0.679411 0.679411
0.704099 0.704099 0.704099
0.583563 0.583563 0.583563
0.610937 0.610937 0.610937
0.637520 0.637520 0.637520
0.663355 0.663355 0.663355
0.688477 0.688477 0.688477
0.712921 0.712921 0.712921
0.736717 0.736717 0.736717
0.759891 0.759891 0.759891
0.782468 0.782468 0.782468
0.672582 0.672582 0.672582
0.697453 0.697453 0.697453
0.721658 0.721658 0.721658
0.745224 0.745224 0.745224
0.768178 0.768178 0.768178
0.790544 0.790544 0.790544
0.812343 0.812343 0.812343
0.833596 0.833596 0.833596
0.854321 0.854321 0.854321
0.753650 0.753650 0.753650
0.776388 0.776388 0.776388
0.798545 0.798545 0.798545
0.820143 0.820143 0.820143
0.841201 0.841201 0.841201
0.861738 0.861738 0.861738
0.881771 0.881771 0.881771
0.901313 0.901313 0.901313
0.920381 0.920381 0.920381
0.827871 0.827871 0.827871
0.848738 0.848738 0.848738
0.869089 0.869089 0.869089
0.888941 0.888941 0.888941
0.908309 0.908309 0.908309
0.927208 0.927208 0.927208
0.945649 0.945649 0.945649
0.960000 0.960000 0.960000
0.960000 0.960000 0.960000
0.896048 0.896048 0.896048
0.915243 0.915243 0.915243
0.933973 0.933973 0.933973
0.952251 0.952251 0.952251
0.960000 0.960000 0.960000
0.960000 0.960000 0.960000
0.960000 0.960000 0.960000
0.960000 0.960000 0.960000
0.960000 0.960000 0.960000
0.108545 0.108545 0.108545
0.157835 0.157835 0.157835
0.203294 0.203294 0.203294
0.245823 0.245823 0.245823
0.285980 0.285980 0.285980
0.324142 0.324142 0.324142
0.360581 0.360581 0.360581
0.395503 0.395503 0.395503
0.429068 0.429068 0.429068
0.260695 0.260695 0.260695
0.300088 0.300088 0.300088
0.337596 0.337596 0.337596
0.373462 0.373462 0.373462
0.407873 0.407873 0.407873
0.440977 0.440977 0.440977
0.472892 0.472892 0.472892
0.503717 0.503717 0.503717
0.533534 0.533534 0.533534
0.386149 0.386149 0.386149
0.420069 0.420069 0.420069
0.452728 0.452728 0.452728
0.484236 0.484236 0.484236
0.514685 0.514685 0.514685
0.544152 0.544152 0.544152
0.572704 0.572704 0.572704
0.600398 0.600398 0.600398
0.627283 0.627283 0.627283
0.495439 0.495439 0.495439
0.525523 0.525523 0.525523
0.554650 0.554650 0.554650
0.582883 0.582883 0.582883
0.610277 0.610277 0.610277
0.636879 0.636879 0.636879
0.662732 0.662732 0.662732
0.687871 0.687871 0.687871
0.712331 0.712331 0.712331
0.592951 0.592951 0.592951
0.620051 0.620051 0.620051
0.646376 0.646376 0.646376
0.671965 0.671965 0.671965
0.696853 0.696853 0.696853
0.721074 0.721074 0.721074
0.744655 0.744655 0.744655
0.767624 0.767624 0.767624
0.790004 0.790004 0.790004
0.681105 0.681105 0.681105
0.705747 0.705747 0.705747
0.729731 0.729731 0.729731
0.753087 0.753087 0.753087
0.775838 0.775838 0.775838
0.798009 0.798009 0.798009
0.819621 0.819621 0.819621
0.840693 0.840693 0.840693
0.861242 0.861242 0.861242
0.761438 0.761438 0.761438
0.783976 0.783976 0.783976
0.805941 0.805941 0.805941
0.827354 0.827354 0.827354
0.848234 0.848234 0.848234
0.868597 0.868597 0.868597
0.888462 0.888462 0.888462
0.907841 0.907841 0.907841
0.926751 0.926751 0.926751
0.835016 0.835016 0.835016
0.855706 0.855706 0.855706
0.875886 0.875886 0.875886
0.895572 0.895572 0.895572
0.914779 0.914779 0.914779
0.933521 0.933521 0.933521
0.951809 0.951809 0.951809
0.960000 0.960000 0.960000
0.960000 0.960000 0.960000
0.902620 0.902620 0.902620
0.921656 0.921656 0.921656
0.940231 0.940231 0.940231
0.958358 0.958358 0.958358
0.960000 0.960000 0.960000
0.960000 0.960000 0.960000
0.960000 0.960000 0.960000
0.960000 0.960000 0.960000
0.960000 0.960000 0.960000
