luts/creative/split_tone_warm_shadows.cube
TITLE "Split Tone Warm Shadows"
LUT_3D_SIZE 17
DOMAIN_MIN 0.0 0.0 0.0
DOMAIN_MAX 1.0 1.0 1.0
0.050000 0.020000 0.000000
0.111171 0.019468 0.000000
0.172343 0.018937 0.000000
0.233514 0.018405 0.000000
0.294685 0.017874 0.000000
0.355856 0.017343 0.000000
0.417027 0.016811 0.000000
0.478199 0.016279 0.000000
0.539370 0.015748 0.000000
0.600541 0.015216 0.000000
0.661713 0.014685 0.000000
0.722884 0.014154 0.000000
0.784055 0.013622 0.000000
0.845226 0.013091 0.000000
0.906397 0.012559 0.000000
0.967569 0.012027 0.000000
1.000000 0.011496 0.000000
0.045530 0.080712 0.000000
0.106701 0.080181 0.000000
0.167873 0.079649 0.000000
0.229044 0.079118 0.000000
0.290215 0.078586 0.000000
0.351386 0.078054 0.000000
0.412558 0.077523 0.000000
0.473729 0.076992 0.000000
0.534900 0.076460 0.000000
0.596071 0.075928 0.000000
0.657242 0.075397 0.000000
0.718414 0.074866 0.000000
0.779585 0.074334 0.000000
0.840756 0.073802 0.000000
0.901927 0.073271 0.000000
0.963099 0.072739 0.000000
1.000000 0.072208 0.000000
0.041060 0.141424 0.000000
0.102231 0.140893 0.000000
0.163403 0.140361 0.000000
0.224574 0.139829 0.000000
0.285745 0.139298 0.000000
0.346916 0.138766 0.000000
0.408087 0.138235 0.000000
0.469259 0.137704 0.000000
0.530430 0.137172 0.000000
0.591601 0.136640 0.000000
0.652772 0.136109 0.000000
0.713944 0.135577 0.000000
0.775115 0.135046 0.000000
0.836286 0.134515 0.000000
0.897458 0.133983 0.000000
0.958629 0.133452 0.000000
1.000000 0.132920 0.000000
0.036590 0.202136 0.000000
0.097761 0.201604 0.000000
0.158933 0.201073 0.000000
0.220104 0.200542 0.000000
0.281275 0.200010 0.000000
0.342446 0.199479 0.000000
0.403618 0.198947 0.000000
0.464789 0.198415 0.000000
0.525960 0.197884 0.000000
0.587131 0.197352 0.000000
0.648303 0.196821 0.000000
0.709474 0.196290 0.000000
0.770645 0.195758 0.000000
0.831816 0.195226 0.000000
0.892988 0.194695 0.000000
0.954159 0.194163 0.000000
1.000000 0.193632 0.000000
0.032120 0.262848 0.000000
0.093291 0.262317 0.000000
0.154463 0.261785 0.000000
0.215634 0.261254 0.000000
0.276805 0.260722 0.000000
0.337976 0.260190 0.000000
0.399147 0.259659 0.000000
0.460319 0.259128 0.000000
0.521490 0.258596 0.000000
0.582661 0.258064 0.000000
0.643833 0.257533 0.000000
0.705004 0.257001 0.000000
0.766175 0.256470 0.000000
0.827346 0.255939 0.000000
0.888517 0.255407 0.000000
0.949689 0.254875 0.000000
1.000000 0.254344 0.000000
0.027650 0.323560 0.000000
0.088821 0.323028 0.000000
0.149993 0.322497 0.000000
0.211164 0.321966 0.000000
0.272335 0.321434 0.000000
0.333506 0.320902 0.000000
0.394678 0.320371 0.000000
0.455849 0.319839 0.000000
0.517020 0.319308 0.000000
0.578191 0.318777 0.000000
0.639363 0.318245 0.000000
0.700534 0.317713 0.000000
0.761705 0.317182 0.000000
0.822876 0.316651 0.000000
0.884047 0.316119 0.000000
0.945219 0.315588 0.000000
1.000000 0.315056 0.000000
0.023180 0.384272 0.000000
0.084351 0.383740 0.000000
0.145522 0.383209 0.000000
0.206694 0.382678 0.000000
0.267865 0.382146 0.000000
0.329036 0.381615 0.000000
0.390207 0.381083 0.000000
0.451379 0.380551 0.000000
0.512550 0.380020 0.000000
0.573721 0.379489 0.000000
0.634892 0.378957 0.000000
0.696064 0.378426 0.000000
0.757235 0.377894 0.000000
0.818406 0.377362 0.000000
0.879578 0.376831 0.000000
0.940749 0.376300 0.000000
1.000000 0.375768 0.000000
0.018710 0.444984 0.000000
0.079881 0.444453 0.000000
0.141052 0.443921 0.000000
0.202224 0.443389 0.000000
0.263395 0.442858 0.000000
0.324566 0.442327 0.000000
0.385738 0.441795 0.000000
0.446909 0.441263 0.000000
0.508080 0.440732 0.000000
0.569251 0.440200 0.000000
0.630422 0.439669 0.000000
0.691594 0.439138 0.000000
0.752765 0.438606 0.000000
0.813936 0.438074 0.000000
0.875108 0.437543 0.000000
0.937011 0.437256 0.000977
0.998980 0.436990 0.002040
0.014240 0.505696 0.000000
0.075411 0.505165 0.000000
0.136582 0.504633 0.000000
0.197754 0.504101 0.000000
0.258925 0.503570 0.000000
0.320096 0.503039 0.000000
0.381267 0.502507 0.000000
0.442439 0.501976 0.000000
0.503610 0.501444 0.000000
0.564781 0.500912 0.000000
0.625953 0.500381 0.000000
0.687349 0.499925 0.000301
0.749318 0.499659 0.001364
0.811287 0.499393 0.002427
0.873255 0.499128 0.003490
0.935223 0.498862 0.004553
0.997192 0.498596 0.005616
0.009770 0.566408 0.000000
0.070941 0.565877 0.000000
0.132112 0.565345 0.000000
0.193284 0.564813 0.000000
0.254455 0.564282 0.000000
0.315626 0.563751 0.000000
0.376798 0.563219 0.000000
0.437969 0.562688 0.000000
0.499656 0.562328 0.000688
0.561624 0.562062 0.001751
0.623593 0.561797 0.002814
0.685562 0.561531 0.003877
0.747530 0.561265 0.004940
0.809499 0.560999 0.006003
0.871467 0.560733 0.007066
0.933435 0.560468 0.008129
0.995404 0.560202 0.009192
0.005300 0.627120 0.000000
0.066471 0.626588 0.000000
0.127642 0.626057 0.000000
0.188814 0.625525 0.000000
0.249994 0.624997 0.000012
0.311962 0.624731 0.001075
0.373931 0.624466 0.002138
0.435899 0.624200 0.003201
0.497868 0.623934 0.004264
0.559836 0.623668 0.005327
0.621805 0.623402 0.006390
0.683774 0.623137 0.007453
0.745742 0.622871 0.008516
0.807710 0.622605 0.009579
0.869679 0.622340 0.010642
0.931647 0.622074 0.011705
0.993616 0.621808 0.012768
0.000830 0.687832 0.000000
0.062301 0.687400 0.000399
0.124269 0.687134 0.001462
0.186238 0.686869 0.002525
0.248206 0.686603 0.003588
0.310175 0.686337 0.004651
0.372143 0.686071 0.005714
0.434111 0.685806 0.006777
0.496080 0.685540 0.007840
0.558048 0.685274 0.008903
0.620017 0.685009 0.009966
0.681986 0.684743 0.011029
0.743954 0.684477 0.012092
0.805922 0.684211 0.013155
0.867891 0.683945 0.014218
0.929859 0.683680 0.015281
0.991828 0.683414 0.016344
0.000000 0.749272 0.002912
0.060512 0.749006 0.003975
0.122481 0.748741 0.005038
0.184449 0.748475 0.006101
0.246418 0.748209 0.007164
0.308387 0.747943 0.008227
0.370355 0.747677 0.009290
0.432324 0.747412 0.010353
0.494292 0.747146 0.011416
0.556261 0.746880 0.012479
0.618229 0.746614 0.013542
0.680198 0.746349 0.014605
0.742166 0.746083 0.015668
0.804134 0.745817 0.016731
0.866103 0.745552 0.017794
0.928072 0.745286 0.018857
0.990040 0.745020 0.019920
0.000000 0.810878 0.006488
0.058724 0.810612 0.007551
0.120693 0.810346 0.008614
0.182662 0.810081 0.009677
0.244630 0.809815 0.010740
0.306598 0.809549 0.011803
0.368567 0.809284 0.012866
0.430536 0.809018 0.013929
0.492504 0.808752 0.014992
0.554473 0.808486 0.016055
0.616441 0.808221 0.017118
0.678409 0.807955 0.018181
0.740378 0.807689 0.019244
0.802346 0.807423 0.020307
0.864315 0.807157 0.021370
0.926284 0.806892 0.022433
0.988252 0.806626 0.023496
0.000000 0.872484 0.010064
0.056937 0.872218 0.011127
0.118905 0.871953 0.012190
0.180873 0.871687 0.013253
0.242842 0.871421 0.014316
0.304810 0.871155 0.015379
0.366779 0.870889 0.016442
0.428748 0.870624 0.017505
0.490716 0.870358 0.018568
0.552685 0.870092 0.019631
0.614653 0.869826 0.020694
0.676621 0.869561 0.021757
0.738590 0.869295 0.022820
0.800558 0.869029 0.023883
0.862527 0.868764 0.024946
0.924496 0.868498 0.026009
0.986464 0.868232 0.027072
0.000000 0.934090 0.013640
0.055149 0.933824 0.014703
0.117117 0.933558 0.015766
0.179086 0.933293 0.016829
0.241054 0.933027 0.017892
0.303022 0.932761 0.018955
0.364991 0.932496 0.020018
0.426959 0.932230 0.021081
0.488928 0.931964 0.022144
0.550897 0.931698 0.023207
0.612865 0.931432 0.024270
0.674833 0.931167 0.025333
0.736802 0.930901 0.026396
0.798771 0.930635 0.027459
0.860739 0.930369 0.028522
0.922708 0.930104 0.029585
0.984676 0.929838 0.030648
0.000000 0.995696 0.017216
0.053361 0.995430 0.018279
0.115329 0.995165 0.019342
0.177297 0.994899 0.020405
0.239266 0.994633 0.021468
0.301235 0.994367 0.022531
0.363203 0.994101 0.023594
0.425171 0.993836 0.024657
0.487140 0.993570 0.025720
0.549108 0.993304 0.026783
0.611077 0.993039 0.027846
0.673045 0.992773 0.028909
0.735014 0.992507 0.029972
0.796983 0.992241 0.031035
0.858951 0.991976 0.032098
0.920920 0.991710 0.033161
0.982888 0.991444 0.034224
0.049549 0.019820 0.032771
0.110720 0.019288 0.033568
0.171891 0.018757 0.034365
0.233063 0.018225 0.035162
0.294234 0.017694 0.035960
0.355405 0.017162 0.036757
0.416576 0.016630 0.037554
0.477747 0.016099 0.038351
0.538919 0.015568 0.039149
0.600090 0.015036 0.039946
0.661261 0.014505 0.040743
0.722433 0.013973 0.041541
0.783604 0.013442 0.042338
0.844775 0.012910 0.043135
0.905946 0.012378 0.043932
0.967117 0.011847 0.044730
1.000000 0.011315 0.045527
0.045079 0.080532 0.035453
0.106250 0.080000 0.036250
0.167421 0.079468 0.037047
0.228593 0.078937 0.037845
0.289764 0.078406 0.038642
0.350935 0.077874 0.039439
0.412106 0.077342 0.040236
0.473278 0.076811 0.041034
0.534449 0.076280 0.041831
0.595620 0.075748 0.042628
0.656791 0.075217 0.043425
0.717963 0.074685 0.044222
0.779134 0.074153 0.045020
0.840305 0.073622 0.045817
0.901476 0.073091 0.046614
0.962647 0.072559 0.047412
1.000000 0.072027 0.048209
0.040609 0.141243 0.038135
0.101780 0.140712 0.038932
0.162951 0.140181 0.039729
0.224123 0.139649 0.040527
0.285294 0.139118 0.041324
0.346465 0.138586 0.042121
0.407636 0.138054 0.042918
0.468807 0.137523 0.043716
0.529979 0.136991 0.044513
0.591150 0.136460 0.045310
0.652321 0.135929 0.046107
0.713492 0.135397 0.046905
0.774664 0.134865 0.047702
0.835835 0.134334 0.048499
0.897006 0.133802 0.049296
0.958178 0.133271 0.050093
1.000000 0.132740 0.050891
0.036139 0.201956 0.040817
0.097310 0.201424 0.041614
0.158481 0.200893 0.042411
0.219653 0.200361 0.043208
0.280824 0.199829 0.044006
0.341995 0.199298 0.044803
0.403166 0.198767 0.045600
0.464338 0.198235 0.046397
0.525509 0.197704 0.047195
0.586680 0.197172 0.047992
0.647851 0.196640 0.048789
0.709022 0.196109 0.049586
0.770194 0.195578 0.050384
0.831365 0.195046 0.051181
0.892536 0.194515 0.051978
0.953708 0.193983 0.052776
1.000000 0.193451 0.053573
0.031669 0.262667 0.043499
0.092840 0.262136 0.044296
0.154011 0.261605 0.045093
0.215182 0.261073 0.045891
0.276354 0.260541 0.046688
0.337525 0.260010 0.047485
0.398696 0.259479 0.048282
0.459867 0.258947 0.049079
0.521039 0.258416 0.049877
0.582210 0.257884 0.050674
0.643381 0.257352 0.051471
0.704553 0.256821 0.052268
0.765724 0.256290 0.053066
0.826895 0.255758 0.053863
0.888066 0.255227 0.054660
0.949237 0.254695 0.055457
1.000000 0.254163 0.056255
0.027199 0.323379 0.046181
0.088370 0.322848 0.046978
0.149541 0.322317 0.047775
0.210712 0.321785 0.048572
0.271884 0.321254 0.049370
0.333055 0.320722 0.050167
0.394226 0.320190 0.050964
0.455398 0.319659 0.051761
0.516569 0.319128 0.052559
0.577740 0.318596 0.053356
0.638911 0.318065 0.054153
0.700083 0.317533 0.054950
0.761254 0.317001 0.055748
0.822425 0.316470 0.056545
0.883596 0.315939 0.057342
0.944767 0.315407 0.058139
1.000000 0.314875 0.058937
0.022729 0.384091 0.048863
0.083900 0.383560 0.049660
0.145071 0.383028 0.050457
0.206242 0.382497 0.051255
0.267414 0.381966 0.052052
0.328585 0.381434 0.052849
0.389756 0.380902 0.053646
0.450927 0.380371 0.054443
0.512099 0.379839 0.055241
0.573270 0.379308 0.056038
0.634441 0.378777 0.056835
0.695612 0.378245 0.057632
0.756784 0.377713 0.058430
0.817955 0.377182 0.059227
0.879126 0.376650 0.060024
0.940298 0.376119 0.060822
1.000000 0.375588 0.061619
0.018259 0.444804 0.051545
0.079430 0.444272 0.052342
0.140601 0.443740 0.053139
0.201772 0.443209 0.053936
0.262944 0.442678 0.054734
0.324115 0.442146 0.055531
0.385286 0.441615 0.056328
0.446458 0.441083 0.057125
0.507629 0.440551 0.057923
0.568800 0.440020 0.058720
0.629971 0.439489 0.059517
0.691142 0.438957 0.060314
0.752314 0.438426 0.061112
0.813485 0.437894 0.061909
0.874862 0.437431 0.062775
0.936831 0.437165 0.063838
0.998799 0.436900 0.064901
0.013789 0.505516 0.054227
0.074960 0.504984 0.055024
0.136131 0.504452 0.055821
0.197302 0.503921 0.056619
0.258474 0.503390 0.057416
0.319645 0.502858 0.058213
0.380816 0.502327 0.059010
0.441987 0.501795 0.059807
0.503159 0.501263 0.060605
0.564330 0.500732 0.061402
0.625501 0.500201 0.062199
0.687169 0.499835 0.063162
0.749138 0.499569 0.064225
0.811106 0.499303 0.065288
0.873074 0.499037 0.066351
0.935043 0.498771 0.067414
0.997012 0.498506 0.068477
0.009319 0.566227 0.056909
0.070490 0.565696 0.057706
0.131661 0.565164 0.058503
0.192832 0.564633 0.059300
0.254004 0.564102 0.060098
0.315175 0.563570 0.060895
0.376346 0.563038 0.061692
0.437518 0.562507 0.062489
0.499476 0.562238 0.063549
0.561444 0.561972 0.064612
0.623413 0.561706 0.065675
0.685381 0.561441 0.066738
0.747349 0.561175 0.067801
0.809318 0.560909 0.068864
0.871286 0.560643 0.069927
0.933255 0.560377 0.070990
0.995224 0.560112 0.072053
0.004849 0.626939 0.059591
0.066020 0.626408 0.060388
0.127191 0.625876 0.061185
0.188363 0.625345 0.061982
0.249813 0.624907 0.062873
0.311782 0.624641 0.063936
0.373750 0.624375 0.064999
0.435719 0.624109 0.066062
0.497688 0.623844 0.067125
0.559656 0.623578 0.068188
0.621625 0.623312 0.069251
0.683593 0.623046 0.070314
0.745561 0.622781 0.071377
0.807530 0.622515 0.072440
0.869498 0.622249 0.073503
0.931467 0.621984 0.074566
0.993436 0.621718 0.075629
0.000379 0.687651 0.062273
0.062120 0.687310 0.063260
0.124089 0.687044 0.064323
0.186057 0.686778 0.065386
0.248026 0.686513 0.066449
0.309994 0.686247 0.067512
0.371962 0.685981 0.068575
0.433931 0.685716 0.069638
0.495899 0.685450 0.070701
0.557868 0.685184 0.071764
0.619837 0.684918 0.072827
0.681805 0.684652 0.073890
0.743773 0.684387 0.074953
0.805742 0.684121 0.076016
0.867711 0.683855 0.077079
0.929679 0.683589 0.078142
0.991648 0.683324 0.079205
0.000000 0.749182 0.065773
0.060332 0.748916 0.066836
0.122300 0.748650 0.067899
0.184269 0.748385 0.068962
0.246237 0.748119 0.070025
0.308206 0.747853 0.071088
0.370175 0.747587 0.072151
0.432143 0.747321 0.073214
0.494111 0.747056 0.074277
0.556080 0.746790 0.075340
0.618049 0.746524 0.076403
0.680017 0.746259 0.077466
0.741985 0.745993 0.078529
0.803954 0.745727 0.079592
0.865923 0.745461 0.080655
0.927891 0.745196 0.081718
0.989860 0.744930 0.082781
0.000000 0.810788 0.069349
0.058544 0.810522 0.070412
0.120512 0.810256 0.071475
0.182481 0.809990 0.072538
0.244449 0.809725 0.073601
0.306418 0.809459 0.074664
0.368387 0.809193 0.075727
0.430355 0.808928 0.076790
0.492324 0.808662 0.077853
0.554292 0.808396 0.078916
0.616260 0.808130 0.079979
0.678229 0.807864 0.081042
0.740197 0.807599 0.082105
0.802166 0.807333 0.083168
0.864135 0.807067 0.084231
0.926103 0.806801 0.085294
0.988071 0.806536 0.086357
0.000000 0.872394 0.072925
0.056756 0.872128 0.073988
0.118724 0.871862 0.075051
0.180693 0.871596 0.076114
0.242662 0.871331 0.077177
0.304630 0.871065 0.078240
0.366598 0.870799 0.079303
0.428567 0.870533 0.080366
0.490536 0.870268 0.081429
0.552504 0.870002 0.082492
0.614472 0.869736 0.083555
0.676441 0.869471 0.084618
0.738410 0.869205 0.085681
0.800378 0.868939 0.086744
0.862347 0.868673 0.087807
0.924315 0.868407 0.088870
0.986283 0.868142 0.089933
0.000000 0.934000 0.076501
0.054968 0.933734 0.077564
0.116936 0.933468 0.078627
0.178905 0.933203 0.079690
0.240873 0.932937 0.080753
0.302842 0.932671 0.081816
0.364810 0.932405 0.082879
0.426779 0.932140 0.083942
0.488748 0.931874 0.085005
0.550716 0.931608 0.086068
0.612684 0.931342 0.087131
0.674653 0.931076 0.088194
0.736622 0.930811 0.089257
0.798590 0.930545 0.090320
0.860559 0.930279 0.091383
0.922527 0.930014 0.092446
0.984495 0.929748 0.093509
0.000000 0.995606 0.080077
0.053180 0.995340 0.081140
0.115149 0.995074 0.082203
0.177117 0.994808 0.083266
0.239086 0.994543 0.084329
0.301054 0.994277 0.085392
0.363023 0.994011 0.086455
0.424991 0.993745 0.087518
0.486959 0.993480 0.088581
0.548928 0.993214 0.089644
0.610896 0.992948 0.090707
0.672865 0.992683 0.091770
0.734834 0.992417 0.092833
0.796802 0.992151 0.093896
0.858770 0.991885 0.094959
0.920739 0.991619 0.096022
0.982707 0.991354 0.097085
0.049098 0.019639 0.095542
0.110269 0.019107 0.096339
0.171440 0.018576 0.097136
0.232611 0.018045 0.097933
0.293783 0.017513 0.098730
0.354954 0.016982 0.099528
0.416125 0.016450 0.100325
0.477296 0.015918 0.101122
0.538467 0.015387 0.101919
0.599639 0.014855 0.102717
0.660810 0.014324 0.103514
0.721981 0.013792 0.104311
0.783153 0.013261 0.105109
0.844324 0.012729 0.105906
0.905495 0.012198 0.106703
0.966666 0.011666 0.107500
1.000000 0.011135 0.108298
0.044628 0.080351 0.098224
0.105799 0.079820 0.099021
0.166970 0.079288 0.099818
0.228141 0.078757 0.100615
0.289312 0.078225 0.101413
0.350484 0.077693 0.102210
0.411655 0.077162 0.103007
0.472826 0.076631 0.103804
0.533998 0.076099 0.104602
0.595169 0.075567 0.105399
0.656340 0.075036 0.106196
0.717511 0.074505 0.106993
0.778682 0.073973 0.107790
0.839854 0.073441 0.108588
0.901025 0.072910 0.109385
0.962196 0.072378 0.110182
1.000000 0.071847 0.110980
0.040158 0.141063 0.100905
0.101329 0.140532 0.101703
0.162500 0.140000 0.102500
0.223671 0.139468 0.103297
0.284842 0.138937 0.104095
0.346014 0.138405 0.104892
0.407185 0.137874 0.105689
0.468356 0.137343 0.106486
0.529528 0.136811 0.107284
0.590699 0.136279 0.108081
0.651870 0.135748 0.108878
0.713041 0.135216 0.109675
0.774212 0.134685 0.110473
0.835384 0.134154 0.111270
0.896555 0.133622 0.112067
0.957726 0.133091 0.112864
1.000000 0.132559 0.113661
0.035688 0.201775 0.103587
0.096859 0.201243 0.104385
0.158030 0.200712 0.105182
0.219201 0.200181 0.105979
0.280373 0.199649 0.106776
0.341544 0.199118 0.107574
0.402715 0.198586 0.108371
0.463886 0.198054 0.109168
0.525057 0.197523 0.109965
0.586229 0.196991 0.110763
0.647400 0.196460 0.111560
0.708571 0.195929 0.112357
0.769742 0.195397 0.113155
0.830914 0.194865 0.113952
0.892085 0.194334 0.114749
0.953256 0.193802 0.115546
1.000000 0.193271 0.116344
0.031217 0.262487 0.106270
0.092389 0.261956 0.107067
0.153560 0.261424 0.107864
0.214731 0.260893 0.108661
0.275902 0.260361 0.109459
0.337074 0.259829 0.110256
0.398245 0.259298 0.111053
0.459416 0.258767 0.111850
0.520587 0.258235 0.112647
0.581759 0.257703 0.113445
0.642930 0.257172 0.114242
0.704101 0.256640 0.115039
0.765273 0.256109 0.115836
0.826444 0.255578 0.116634
0.887615 0.255046 0.117431
0.948786 0.254514 0.118228
1.000000 0.253983 0.119025
0.026748 0.323199 0.108952
0.087919 0.322667 0.109749
0.149090 0.322136 0.110546
0.210261 0.321605 0.111343
0.271433 0.321073 0.112141
0.332604 0.320541 0.112938
0.393775 0.320010 0.113735
0.454946 0.319478 0.114532
0.516118 0.318947 0.115330
0.577289 0.318416 0.116127
0.638460 0.317884 0.116924
0.699631 0.317352 0.117721
0.760803 0.316821 0.118518
0.821974 0.316290 0.119316
0.883145 0.315758 0.120113
0.944316 0.315227 0.120910
1.000000 0.314695 0.121707
0.022278 0.383911 0.111633
0.083449 0.383379 0.112431
0.144620 0.382848 0.113228
0.205791 0.382317 0.114025
0.266962 0.381785 0.114823
0.328134 0.381254 0.115620
0.389305 0.380722 0.116417
0.450476 0.380190 0.117214
0.511648 0.379659 0.118012
0.572819 0.379128 0.118809
0.633990 0.378596 0.119606
0.695161 0.378065 0.120403
0.756332 0.377533 0.121201
0.817504 0.377001 0.121998
0.878675 0.376470 0.122795
0.939846 0.375939 0.123592
1.000000 0.375407 0.124390
0.017808 0.444623 0.114316
0.078979 0.444092 0.115113
0.140150 0.443560 0.115910
0.201321 0.443028 0.116707
0.262493 0.442497 0.117504
0.323664 0.441966 0.118302
0.384835 0.441434 0.119099
0.446006 0.440902 0.119896
0.507178 0.440371 0.120693
0.568349 0.439839 0.121491
0.629520 0.439308 0.122288
0.690691 0.438777 0.123085
0.751862 0.438245 0.123882
0.813034 0.437713 0.124680
0.874682 0.437341 0.125636
0.936651 0.437075 0.126699
0.998619 0.436810 0.127762
0.013338 0.505335 0.116998
0.074509 0.504803 0.117795
0.135680 0.504272 0.118592
0.196851 0.503741 0.119389
0.258022 0.503209 0.120187
0.319194 0.502677 0.120984
0.380365 0.502146 0.121781
0.441536 0.501614 0.122578
0.502707 0.501083 0.123375
0.563879 0.500552 0.124173
0.625050 0.500020 0.124970
0.686989 0.499744 0.126023
0.748957 0.499478 0.127086
0.810925 0.499213 0.128149
0.872894 0.498947 0.129212
0.934863 0.498681 0.130275
0.996831 0.498416 0.131338
0.008868 0.566047 0.119679
0.070039 0.565515 0.120477
0.131210 0.564984 0.121274
0.192381 0.564453 0.122071
0.253553 0.563921 0.122869
0.314724 0.563389 0.123666
0.375895 0.562858 0.124463
0.437327 0.562413 0.125347
0.499295 0.562148 0.126410
0.561264 0.561882 0.127473
0.623232 0.561616 0.128536
0.685200 0.561350 0.129599
0.747169 0.561084 0.130662
0.809137 0.560819 0.131725
0.871106 0.560553 0.132788
0.933075 0.560287 0.133851
0.995043 0.560021 0.134914
0.004398 0.626759 0.122361
0.065569 0.626228 0.123159
0.126740 0.625696 0.123956
0.187911 0.625165 0.124753
0.249633 0.624816 0.125734
0.311601 0.624551 0.126797
0.373570 0.624285 0.127860
0.435538 0.624019 0.128923
0.497507 0.623753 0.129986
0.559476 0.623488 0.131049
0.621444 0.623222 0.132112
0.683412 0.622956 0.133175
0.745381 0.622691 0.134238
0.807350 0.622425 0.135301
0.869318 0.622159 0.136364
0.931287 0.621893 0.137427
0.993255 0.621627 0.138490
0.000000 0.687485 0.125058
0.061940 0.687220 0.126121
0.123908 0.686954 0.127184
0.185877 0.686688 0.128247
0.247845 0.686423 0.129310
0.309814 0.686157 0.130373
0.371782 0.685891 0.131436
0.433750 0.685625 0.132499
0.495719 0.685360 0.133562
0.557688 0.685094 0.134625
0.619656 0.684828 0.135688
0.681624 0.684562 0.136751
0.743593 0.684296 0.137814
0.805562 0.684031 0.138877
0.867530 0.683765 0.139940
0.929499 0.683499 0.141003
0.991467 0.683234 0.142066
0.000000 0.749092 0.128634
0.060152 0.748826 0.129697
0.122120 0.748560 0.130760
0.184088 0.748294 0.131823
0.246057 0.748028 0.132886
0.308026 0.747763 0.133949
0.369994 0.747497 0.135012
0.431963 0.747231 0.136075
0.493931 0.746965 0.137138
0.555899 0.746700 0.138201
0.617868 0.746434 0.139264
0.679836 0.746168 0.140327
0.741805 0.745903 0.141390
0.803774 0.745637 0.142453
0.865742 0.745371 0.143516
0.927710 0.745105 0.144579
0.989679 0.744839 0.145642
0.000000 0.810697 0.132210
0.058364 0.810432 0.133273
0.120332 0.810166 0.134336
0.182301 0.809900 0.135399
0.244269 0.809635 0.136462
0.306237 0.809369 0.137525
0.368206 0.809103 0.138588
0.430175 0.808837 0.139651
0.492143 0.808571 0.140714
0.554111 0.808306 0.141777
0.616080 0.808040 0.142840
0.678049 0.807774 0.143903
0.740017 0.807508 0.144966
0.801986 0.807243 0.146029
0.863954 0.806977 0.147092
0.925922 0.806711 0.148155
0.987891 0.806446 0.149218
0.000000 0.872304 0.135786
0.056576 0.872038 0.136849
0.118544 0.871772 0.137912
0.180512 0.871506 0.138975
0.242481 0.871240 0.140038
0.304449 0.870975 0.141101
0.366418 0.870709 0.142164
0.428387 0.870443 0.143227
0.490355 0.870178 0.144290
0.552323 0.869912 0.145353
0.614292 0.869646 0.146416
0.676261 0.869380 0.147479
0.738229 0.869115 0.148542
0.800198 0.868849 0.149605
0.862166 0.868583 0.150668
0.924134 0.868317 0.151731
0.986103 0.868051 0.152794
0.000000 0.933909 0.139362
0.054788 0.933644 0.140425
0.116756 0.933378 0.141488
0.178725 0.933112 0.142551
0.240693 0.932847 0.143614
0.302662 0.932581 0.144677
0.364630 0.932315 0.145740
0.426598 0.932049 0.146803
0.488567 0.931783 0.147866
0.550535 0.931518 0.148929
0.612504 0.931252 0.149992
0.674473 0.930986 0.151055
0.736441 0.930720 0.152118
0.798409 0.930455 0.153181
0.860378 0.930189 0.154244
0.922346 0.929923 0.155307
0.984315 0.929658 0.156370
0.000000 0.995515 0.142938
0.053000 0.995250 0.144001
0.114968 0.994984 0.145064
0.176936 0.994718 0.146127
0.238905 0.994452 0.147190
0.300874 0.994187 0.148253
0.362842 0.993921 0.149316
0.424810 0.993655 0.150379
0.486779 0.993390 0.151442
0.548748 0.993124 0.152505
0.610716 0.992858 0.153568
0.672685 0.992592 0.154631
0.734653 0.992327 0.155694
0.796621 0.992061 0.156757
0.858590 0.991795 0.157820
0.920559 0.991529 0.158883
0.982527 0.991263 0.159946
0.048646 0.019459 0.158312
0.109818 0.018927 0.159110
0.170989 0.018396 0.159907
0.232160 0.017864 0.160704
0.293331 0.017333 0.161501
0.354502 0.016801 0.162299
0.415674 0.016269 0.163096
0.476845 0.015738 0.163893
0.538016 0.015206 0.164690
0.599187 0.014675 0.165488
0.660359 0.014143 0.166285
0.721530 0.013612 0.167082
0.782701 0.013081 0.167879
0.843873 0.012549 0.168677
0.905044 0.012018 0.169474
0.966215 0.011486 0.170271
1.000000 0.010955 0.171068
0.044176 0.080171 0.160994
