luts/creative/split_tone_warm_shadows.cube
TITLE "Split Tone Warm Shadows"
LUT_3D_SIZE 9
DOMAIN_MIN 0.0 0.0 0.0
DOMAIN_MAX 1.0 1.0 1.0
0.050000 0.020000 0.000000
0.172343 0.018937 0.000000
0.294685 0.017874 0.000000
0.417027 0.016811 0.000000
0.539370 0.015748 0.000000
0.661713 0.014685 0.000000
0.784055 0.013622 0.000000
0.906397 0.012559 0.000000
1.000000 0.011496 0.000000
0.041060 0.141424 0.000000
0.163403 0.140361 0.000000
0.285745 0.139298 0.000000
0.408087 0.138235 0.000000
0.530430 0.137172 0.000000
0.652772 0.136109 0.000000
0.775115 0.135046 0.000000
0.897458 0.133983 0.000000
1.000000 0.132920 0.000000
0.032120 0.262848 0.000000
0.154463 0.261785 0.000000
0.276805 0.260722 0.000000
0.399147 0.259659 0.000000
0.521490 0.258596 0.000000
0.643833 0.257533 0.000000
0.766175 0.256470 0.000000
0.888517 0.255407 0.000000
1.000000 0.254344 0.000000
0.023180 0.384272 0.000000
0.145522 0.383209 0.000000
0.267865 0.382146 0.000000
0.390207 0.381083 0.000000
0.512550 0.380020 0.000000
0.634892 0.378957 0.000000
0.757235 0.377894 0.000000
0.879578 0.376831 0.000000
1.000000 0.375768 0.000000
0.014240 0.505696 0.000000
0.136582 0.504633 0.000000
0.258925 0.503570 0.000000
0.381267 0.502507 0.000000
0.503610 0.501444 0.000000
0.625953 0.500381 0.000000
0.749318 0.499659 0.001364
0.873255 0.499128 0.003490
0.997192 0.498596 0.005616
0.005300 0.627120 0.000000
0.127642 0.626057 0.000000
0.249994 0.624997 0.000012
0.373931 0.624466 0.002138
0.497868 0.623934 0.004264
0.621805 0.623402 0.006390
0.745742 0.622871 0.008516
0.869679 0.622340 0.010642
0.993616 0.621808 0.012768
0.000000 0.749272 0.002912
0.122481 0.748741 0.005038
0.246418 0.748209 0.007164
0.370355 0.747677 0.009290
0.494292 0.747146 0.011416
0.618229 0.746614 0.013542
0.742166 0.746083 0.015668
0.866103 0.745552 0.017794
0.990040 0.745020 0.019920
0.000000 0.872484 0.010064
0.118905 0.871953 0.012190
0.242842 0.871421 0.014316
0.366779 0.870889 0.016442
0.490716 0.870358 0.018568
0.614653 0.869826 0.020694
0.738590 0.869295 0.022820
0.862527 0.868764 0.024946
0.986464 0.868232 0.027072
0.000000 0.995696 0.017216
0.115329 0.995165 0.019342
0.239266 0.994633 0.021468
0.363203 0.994101 0.023594
0.487140 0.993570 0.025720
0.611077 0.993039 0.027846
0.735014 0.992507 0.029972
0.858951 0.991976 0.032098
0.982888 0.991444 0.034224
0.049098 0.019639 0.095542
0.171440 0.018576 0.097136
0.293783 0.017513 0.098730
0.416125 0.016450 0.100325
0.538467 0.015387 0.101919
0.660810 0.014324 0.103514
0.783153 0.013261 0.105109
0.905495 0.012198 0.106703
1.000000 0.011135 0.108298
0.040158 0.141063 0.100905
0.162500 0.140000 0.102500
0.284842 0.138937 0.104095
0.407185 0.137874 0.105689
0.529528 0.136811 0.107284
0.651870 0.135748 0.108878
0.774212 0.134685 0.110473
0.896555 0.133622 0.112067
1.000000 0.132559 0.113661
0.031217 0.262487 0.106270
0.153560 0.261424 0.107864
0.275902 0.260361 0.109459
0.398245 0.259298 0.111053
0.520587 0.258235 0.112647
0.642930 0.257172 0.114242
0.765273 0.256109 0.115836
0.887615 0.255046 0.117431
1.000000 0.253983 0.119025
0.022278 0.383911 0.111633
0.144620 0.382848 0.113228
0.266962 0.381785 0.114823
0.389305 0.380722 0.116417
0.511648 0.379659 0.118012
0.633990 0.378596 0.119606
0.756332 0.377533 0.121201
0.878675 0.376470 0.122795
1.000000 0.375407 0.124390
0.013338 0.505335 0.116998
0.135680 0.504272 0.118592
0.258022 0.503209 0.120187
0.380365 0.502146 0.121781
0.502707 0.501083 0.123375
0.625050 0.500020 0.124970
0.748957 0.499478 0.127086
0.872894 0.498947 0.129212
0.996831 0.498416 0.131338
0.004398 0.626759 0.122361
0.126740 0.625696 0.123956
0.249633 0.624816 0.125734
0.373570 0.624285 0.127860
0.497507 0.623753 0.129986
0.621444 0.623222 0.132112
0.745381 0.622691 0.134238
0.869318 0.622159 0.136364
0.993255 0.621627 0.138490
0.000000 0.749092 0.128634
0.122120 0.748560 0.130760
0.246057 0.748028 0.132886
0.369994 0.747497 0.135012
0.493931 0.746965 0.137138
0.617868 0.746434 0.139264
0.741805 0.745903 0.141390
0.865742 0.745371 0.143516
0.989679 0.744839 0.145642
0.000000 0.872304 0.135786
0.118544 0.871772 0.137912
0.242481 0.871240 0.140038
0.366418 0.870709 0.142164
0.490355 0.870178 0.144290
0.614292 0.869646 0.146416
0.738229 0.869115 0.148542
0.862166 0.868583 0.150668
0.986103 0.868051 0.152794
0.000000 0.995515 0.142938
0.114968 0.994984 0.145064
0.238905 0.994452 0.147190
0.362842 0.993921 0.149316
0.486779 0.993390 0.151442
0.610716 0.992858 0.153568
0.734653 0.992327 0.155694
0.858590 0.991795 0.157820
0.982527 0.991263 0.159946
0.048195 0.019278 0.221083
0.170538 0.018215 0.222678
0.292880 0.017152 0.224272
0.415222 0.016089 0.225866
0.537565 0.015026 0.227461
0.659907 0.013963 0.229055
0.782250 0.012900 0.230650
0.904593 0.011837 0.232244
1.000000 0.010774 0.233839
0.039255 0.140702 0.226447
0.161598 0.139639 0.228042
0.283940 0.138576 0.229636
0.406282 0.137513 0.231231
0.528625 0.136450 0.232825
0.650968 0.135387 0.234420
0.773310 0.134324 0.236014
0.895652 0.133261 0.237609
1.000000 0.132198 0.239203
0.030315 0.262126 0.231811
0.152658 0.261063 0.233405
0.275000 0.260000 0.235000
0.397342 0.258937 0.236595
0.519685 0.257874 0.238189
0.642027 0.256811 0.239784
0.764370 0.255748 0.241378
0.886713 0.254685 0.242973
1.000000 0.253622 0.244567
0.021375 0.383550 0.237175
0.143717 0.382487 0.238769
0.266060 0.381424 0.240364
0.388402 0.380361 0.241958
0.510745 0.379298 0.243553
0.633088 0.378235 0.245147
0.755430 0.377172 0.246742
0.877772 0.376109 0.248336
1.000000 0.375046 0.249931
0.012435 0.504974 0.242539
0.134777 0.503911 0.244134
0.257120 0.502848 0.245728
0.379462 0.501785 0.247323
0.501805 0.500722 0.248917
0.624659 0.499829 0.250682
0.748596 0.499298 0.252808
0.872533 0.498767 0.254934
0.996470 0.498235 0.257060
0.003495 0.626398 0.247903
0.125837 0.625335 0.249498
0.249272 0.624636 0.251456
0.373209 0.624104 0.253582
0.497146 0.623573 0.255708
0.621083 0.623042 0.257834
0.745020 0.622510 0.259960
0.868957 0.621978 0.262086
0.992894 0.621447 0.264212
0.000000 0.748911 0.254356
0.121759 0.748379 0.256482
0.245696 0.747848 0.258608
0.369633 0.747317 0.260734
0.493570 0.746785 0.262860
0.617507 0.746254 0.264986
0.741444 0.745722 0.267112
0.865381 0.745190 0.269238
0.989318 0.744659 0.271364
0.000000 0.872123 0.261508
0.118183 0.871591 0.263634
0.242120 0.871060 0.265760
0.366057 0.870529 0.267886
0.489994 0.869997 0.270012
0.613931 0.869466 0.272138
0.737868 0.868934 0.274264
0.861805 0.868402 0.276390
0.985742 0.867871 0.278516
0.000000 0.995335 0.268660
0.114607 0.994803 0.270786
0.238544 0.994272 0.272912
0.362481 0.993741 0.275038
0.486418 0.993209 0.277164
0.610355 0.992677 0.279290
0.734292 0.992146 0.281416
0.858229 0.991614 0.283542
0.982166 0.991083 0.285668
0.047293 0.018917 0.346625
0.169635 0.017854 0.348219
0.291978 0.016791 0.349813
0.414320 0.015728 0.351408
0.536663 0.014665 0.353002
0.659005 0.013602 0.354597
0.781347 0.012539 0.356191
0.903690 0.011476 0.357786
1.000000 0.010413 0.359380
0.038353 0.140341 0.351988
0.160695 0.139278 0.353583
0.283037 0.138215 0.355177
0.405380 0.137152 0.356772
0.527722 0.136089 0.358366
0.650065 0.135026 0.359961
0.772408 0.133963 0.361556
0.894750 0.132900 0.363150
1.000000 0.131837 0.364745
0.029413 0.261765 0.357353
0.151755 0.260702 0.358947
0.274097 0.259639 0.360542
0.396440 0.258576 0.362136
0.518783 0.257513 0.363731
0.641125 0.256450 0.365325
0.763467 0.255387 0.366920
0.885810 0.254324 0.368514
1.000000 0.253261 0.370109
0.020473 0.383189 0.362716
0.142815 0.382126 0.364311
0.265157 0.381063 0.365905
0.387500 0.380000 0.367500
0.509842 0.378937 0.369094
0.632185 0.377874 0.370689
0.754528 0.376811 0.372283
0.876870 0.375748 0.373878
0.999685 0.374843 0.375630
0.011533 0.504613 0.368080
0.133875 0.503550 0.369675
0.256217 0.502487 0.371269
0.378560 0.501424 0.372864
0.500903 0.500361 0.374459
0.624298 0.499649 0.376404
0.748235 0.499117 0.378530
0.872172 0.498586 0.380656
0.996109 0.498055 0.382782
0.002593 0.626037 0.373445
0.124974 0.624987 0.375052
0.248911 0.624456 0.377178
0.372848 0.623924 0.379304
0.496785 0.623393 0.381430
0.620722 0.622861 0.383556
0.744659 0.622329 0.385682
0.868596 0.621798 0.387808
0.992533 0.621267 0.389934
0.000000 0.748730 0.380078
0.121398 0.748199 0.382204
0.245335 0.747668 0.384330
0.369272 0.747136 0.386456
0.493209 0.746605 0.388582
0.617146 0.746073 0.390708
0.741083 0.745541 0.392834
0.865020 0.745010 0.394960
0.988957 0.744479 0.397086
0.000000 0.871942 0.387230
0.117822 0.871411 0.389356
0.241759 0.870880 0.391482
0.365696 0.870348 0.393608
0.489633 0.869816 0.395734
0.613570 0.869285 0.397860
0.737507 0.868753 0.399986
0.861444 0.868222 0.402112
0.985381 0.867691 0.404238
0.000000 0.995155 0.394382
0.114246 0.994623 0.396508
0.238183 0.994092 0.398634
0.362120 0.993560 0.400760
0.486057 0.993028 0.402886
0.609994 0.992497 0.405012
0.733931 0.991966 0.407138
0.857868 0.991434 0.409264
0.981805 0.990903 0.411390
0.046390 0.018556 0.472166
0.168733 0.017493 0.473761
0.291075 0.016430 0.475355
0.413417 0.015367 0.476950
0.535760 0.014304 0.478544
0.658103 0.013241 0.480139
0.780445 0.012178 0.481733
0.902787 0.011115 0.483328
1.000000 0.010052 0.484922
0.037450 0.139980 0.477530
0.159793 0.138917 0.479125
0.282135 0.137854 0.480719
0.404477 0.136791 0.482314
0.526820 0.135728 0.483908
0.649162 0.134665 0.485503
0.771505 0.133602 0.487097
0.893848 0.132539 0.488692
1.000000 0.131476 0.490286
0.028510 0.261404 0.482894
0.150853 0.260341 0.484488
0.273195 0.259278 0.486083
0.395537 0.258215 0.487677
0.517880 0.257152 0.489272
0.640223 0.256089 0.490866
0.762565 0.255026 0.492461
0.884907 0.253963 0.494055
1.000000 0.252900 0.495650
0.019570 0.382828 0.488258
0.141912 0.381765 0.489853
0.264255 0.380702 0.491447
0.386597 0.379639 0.493042
0.508940 0.378576 0.494636
0.631282 0.377513 0.496231
0.753625 0.376450 0.497825
0.875968 0.375387 0.499420
0.999324 0.374662 0.501352
0.010630 0.504252 0.493622
0.132972 0.503189 0.495217
0.255315 0.502126 0.496811
0.377657 0.501063 0.498406
0.500000 0.500000 0.500000
0.623937 0.499468 0.502126
0.747874 0.498937 0.504252
0.871811 0.498406 0.506378
0.995748 0.497874 0.508504
0.001690 0.625676 0.498986
0.124613 0.624807 0.500774
0.248550 0.624275 0.502900
0.372487 0.623744 0.505026
0.496424 0.623212 0.507152
0.620361 0.622680 0.509278
0.744298 0.622149 0.511404
0.868235 0.621618 0.513530
0.992172 0.621086 0.515656
0.000000 0.748550 0.505800
0.121037 0.748019 0.507926
0.244974 0.747487 0.510052
0.368911 0.746955 0.512178
0.492848 0.746424 0.514304
0.616785 0.745892 0.516430
0.740722 0.745361 0.518556
0.864659 0.744830 0.520682
0.988596 0.744298 0.522808
0.000000 0.871762 0.512952
0.117461 0.871231 0.515078
0.241398 0.870699 0.517204
0.365335 0.870167 0.519330
0.489272 0.869636 0.521456
0.613209 0.869104 0.523582
0.737146 0.868573 0.525708
0.861083 0.868042 0.527834
0.985020 0.867510 0.529960
0.000000 0.994974 0.520104
0.113885 0.994443 0.522230
0.237822 0.993911 0.524356
0.361759 0.993379 0.526482
0.485696 0.992848 0.528608
0.609633 0.992317 0.530734
0.733570 0.991785 0.532860
0.857507 0.991254 0.534986
0.981444 0.990722 0.537112
0.045488 0.018195 0.597707
0.167830 0.017132 0.599302
0.290172 0.016069 0.600896
0.412515 0.015006 0.602491
0.534857 0.013943 0.604086
0.657200 0.012880 0.605680
0.779543 0.011817 0.607275
0.901885 0.010754 0.608869
1.000000 0.009691 0.610464
0.036548 0.139619 0.603071
0.158890 0.138556 0.604666
0.281232 0.137493 0.606260
0.403575 0.136430 0.607855
0.525918 0.135367 0.609449
0.648260 0.134304 0.611044
0.770602 0.133241 0.612638
0.892945 0.132178 0.614233
1.000000 0.131115 0.615827
0.027608 0.261043 0.608436
0.149950 0.259980 0.610030
0.272292 0.258917 0.611625
0.394635 0.257854 0.613219
0.516977 0.256791 0.614814
0.639320 0.255728 0.616408
0.761663 0.254665 0.618003
0.884005 0.253602 0.619597
1.000000 0.252539 0.621192
0.018668 0.382467 0.613800
0.141010 0.381404 0.615394
0.263352 0.380341 0.616989
0.385695 0.379278 0.618583
0.508038 0.378215 0.620178
0.630380 0.377152 0.621772
0.752722 0.376089 0.623367
0.875065 0.375026 0.624961
0.998963 0.374482 0.627074
0.009728 0.503891 0.619163
0.132070 0.502828 0.620758
0.254412 0.501765 0.622352
0.376755 0.500702 0.623947
0.499639 0.499820 0.625722
0.623576 0.499288 0.627848
0.747513 0.498756 0.629974
0.871450 0.498225 0.632100
0.995387 0.497694 0.634226
0.000788 0.625315 0.624528
0.124252 0.624626 0.626496
0.248189 0.624094 0.628622
0.372126 0.623563 0.630748
0.496063 0.623031 0.632874
0.620000 0.622500 0.635000
0.743937 0.621969 0.637126
0.867874 0.621437 0.639252
0.991811 0.620905 0.641378
0.000000 0.748370 0.631522
0.120676 0.747838 0.633648
0.244613 0.747306 0.635774
0.368550 0.746775 0.637900
0.492487 0.746243 0.640026
0.616424 0.745712 0.642152
0.740361 0.745181 0.644278
0.864298 0.744649 0.646404
0.988235 0.744117 0.648530
0.000000 0.871582 0.638674
0.117100 0.871050 0.640800
0.241037 0.870518 0.642926
0.364974 0.869987 0.645052
0.488911 0.869456 0.647178
0.612848 0.868924 0.649304
0.736785 0.868393 0.651430
0.860722 0.867861 0.653556
0.984659 0.867329 0.655682
0.000000 0.994793 0.645826
0.113524 0.994262 0.647952
0.237461 0.993730 0.650078
0.361398 0.993199 0.652204
0.485335 0.992668 0.654330
0.609272 0.992136 0.656456
0.733209 0.991604 0.658582
0.857146 0.991073 0.660708
0.981083 0.990541 0.662834
0.044585 0.017834 0.723249
0.166928 0.016771 0.724843
0.289270 0.015708 0.726438
0.411612 0.014645 0.728032
0.533955 0.013582 0.729627
0.656297 0.012519 0.731221
0.778640 0.011456 0.732816
0.900983 0.010393 0.734410
1.000000 0.009330 0.736005
0.035645 0.139258 0.728613
0.157988 0.138195 0.730208
0.280330 0.137132 0.731802
0.402672 0.136069 0.733397
0.525015 0.135006 0.734991
0.647358 0.133943 0.736586
0.769700 0.132880 0.738180
0.892042 0.131817 0.739775
1.000000 0.130754 0.741369
0.026705 0.260682 0.733977
0.149047 0.259619 0.735572
0.271390 0.258556 0.737166
0.393732 0.257493 0.738761
0.516075 0.256430 0.740355
0.638417 0.255367 0.741950
0.760760 0.254304 0.743544
0.883103 0.253241 0.745139
1.000000 0.252178 0.746733
0.017765 0.382106 0.739341
0.140107 0.381043 0.740935
0.262450 0.379980 0.742530
0.384792 0.378917 0.744124
0.507135 0.377854 0.745719
0.629478 0.376791 0.747313
0.751820 0.375728 0.748908
0.874665 0.374833 0.750670
0.998602 0.374301 0.752796
0.008825 0.503530 0.744705
0.131167 0.502467 0.746300
0.253510 0.501404 0.747894
0.375852 0.500341 0.749489
0.499278 0.499639 0.751444
0.623215 0.499107 0.753570
0.747152 0.498576 0.755696
0.871089 0.498045 0.757822
0.995026 0.497513 0.759948
0.000000 0.624977 0.750092
0.123891 0.624445 0.752218
0.247828 0.623914 0.754344
0.371765 0.623382 0.756470
0.495702 0.622851 0.758596
0.619639 0.622320 0.760722
0.743576 0.621788 0.762848
0.867513 0.621256 0.764974
0.991450 0.620725 0.767100
0.000000 0.748189 0.757244
0.120315 0.747657 0.759370
0.244252 0.747126 0.761496
0.368189 0.746595 0.763622
0.492126 0.746063 0.765748
0.616063 0.745532 0.767874
0.740000 0.745000 0.770000
0.863937 0.744468 0.772126
0.987874 0.743937 0.774252
0.000000 0.871401 0.764396
0.116739 0.870869 0.766522
0.240676 0.870338 0.768648
0.364613 0.869807 0.770774
0.488550 0.869275 0.772900
0.612487 0.868744 0.775026
0.736424 0.868212 0.777152
0.860361 0.867680 0.779278
0.984298 0.867149 0.781404
0.000000 0.994613 0.771548
0.113163 0.994081 0.773674
0.237100 0.993550 0.775800
0.361037 0.993019 0.777926
0.484974 0.992487 0.780052
0.608911 0.991955 0.782178
0.732848 0.991424 0.784304
0.856785 0.990892 0.786430
0.980722 0.990361 0.788556
0.043683 0.017473 0.848791
0.166025 0.016410 0.850385
0.288367 0.015347 0.851980
0.410710 0.014284 0.853574
0.533053 0.013221 0.855168
0.655395 0.012158 0.856763
0.777737 0.011095 0.858357
0.900080 0.010032 0.859952
1.000000 0.008969 0.861546
0.034743 0.138897 0.854155
0.157085 0.137834 0.855749
0.279427 0.136771 0.857344
0.401770 0.135708 0.858938
0.524112 0.134645 0.860533
0.646455 0.133582 0.862127
0.768798 0.132519 0.863722
0.891140 0.131456 0.865316
1.000000 0.130393 0.866911
0.025803 0.260321 0.859518
0.148145 0.259258 0.861113
0.270487 0.258195 0.862707
0.392830 0.257132 0.864302
0.515173 0.256069 0.865896
0.637515 0.255006 0.867491
0.759857 0.253943 0.869085
0.882200 0.252880 0.870680
1.000000 0.251817 0.872274
0.016863 0.381745 0.864882
0.139205 0.380682 0.866477
0.261547 0.379619 0.868071
0.383890 0.378556 0.869666
0.506232 0.377493 0.871260
0.628575 0.376430 0.872855
0.750918 0.375367 0.874449
0.874304 0.374652 0.876392
0.998241 0.374121 0.878518
0.007923 0.503169 0.870247
0.130265 0.502106 0.871841
0.252607 0.501043 0.873436
0.374980 0.499990 0.875040
0.498917 0.499459 0.877166
0.622854 0.498927 0.879292
0.746791 0.498395 0.881418
0.870728 0.497864 0.883544
0.994665 0.497333 0.885670
0.000000 0.624796 0.875814
0.123530 0.624265 0.877940
0.247467 0.623734 0.880066
0.371404 0.623202 0.882192
0.495341 0.622671 0.884318
0.619278 0.622139 0.886444
0.743215 0.621607 0.888570
0.867152 0.621076 0.890696
0.991089 0.620545 0.892822
0.000000 0.748008 0.882966
0.119954 0.747477 0.885092
0.243891 0.746946 0.887218
0.367828 0.746414 0.889344
0.491765 0.745883 0.891470
0.615702 0.745351 0.893596
0.739639 0.744819 0.895722
0.863576 0.744288 0.897848
0.987513 0.743757 0.899974
0.000000 0.871220 0.890118
0.116378 0.870689 0.892244
0.240315 0.870158 0.894370
0.364252 0.869626 0.896496
0.488189 0.869094 0.898622
0.612126 0.868563 0.900748
0.736063 0.868031 0.902874
0.860000 0.867500 0.905000
0.983937 0.866969 0.907126
0.000000 0.994433 0.897270
0.112802 0.993901 0.899396
0.236739 0.993370 0.901522
0.360676 0.992838 0.903648
0.484613 0.992306 0.905774
0.608550 0.991775 0.907900
0.732487 0.991244 0.910026
0.856424 0.990712 0.912152
0.980361 0.990181 0.914278
0.042780 0.017112 0.974332
0.165123 0.016049 0.975927
0.287465 0.014986 0.977521
0.409807 0.013923 0.979116
0.532150 0.012860 0.980710
0.654493 0.011797 0.982305
0.776835 0.010734 0.983899
0.899177 0.009671 0.985494
1.000000 0.008608 0.987088
0.033840 0.138536 0.979696
0.156183 0.137473 0.981290
0.278525 0.136410 0.982885
0.400867 0.135347 0.984479
0.523210 0.134284 0.986074
0.645552 0.133221 0.987668
0.767895 0.132158 0.989263
0.890238 0.131095 0.990857
1.000000 0.130032 0.992452
0.024900 0.259960 0.985060
0.147242 0.258897 0.986654
0.269585 0.257834 0.988249
0.391927 0.256771 0.989843
0.514270 0.255708 0.991438
0.636613 0.254645 0.993032
0.758955 0.253582 0.994627
0.881297 0.252519 0.996221
1.000000 0.251456 0.997816
0.015960 0.381384 0.990424
0.138302 0.380321 0.992019
0.260645 0.379258 0.993613
0.382987 0.378195 0.995208
0.505330 0.377132 0.996802
0.627672 0.376069 0.998397
0.750015 0.375006 0.999991
0.873943 0.374472 1.000000
0.997880 0.373940 1.000000
0.007020 0.502808 0.995788
0.129362 0.501745 0.997382
0.251705 0.500682 0.998977
0.374619 0.499810 1.000000
0.498556 0.499278 1.000000
0.622493 0.498746 1.000000
0.746430 0.498215 1.000000
0.870367 0.497684 1.000000
0.994304 0.497152 1.000000
0.000000 0.624616 1.000000
0.123169 0.624085 1.000000
0.247106 0.623553 1.000000
0.371043 0.623022 1.000000
0.494980 0.622490 1.000000
0.618917 0.621958 1.000000
0.742854 0.621427 1.000000
0.866791 0.620896 1.000000
0.990728 0.620364 1.000000
0.000000 0.747828 1.000000
0.119593 0.747297 1.000000
0.243530 0.746765 1.000000
0.367467 0.746233 1.000000
0.491404 0.745702 1.000000
0.615341 0.745170 1.000000
0.739278 0.744639 1.000000
0.863215 0.744108 1.000000
0.987152 0.743576 1.000000
0.000000 0.871040 1.000000
0.116017 0.870509 1.000000
0.239954 0.869977 1.000000
0.363891 0.869445 1.000000
0.487828 0.868914 1.000000
0.611765 0.868382 1.000000
0.735702 0.867851 1.000000
0.859639 0.867320 1.000000
0.983576 0.866788 1.000000
0.000000 0.994252 1.000000
0.112441 0.993721 1.000000
0.236378 0.993189 1.000000
0.360315 0.992657 1.000000
0.484252 0.992126 1.000000
0.608189 0.991595 1.000000
0.732126 0.991063 1.000000
0.856063 0.990532 1.000000
0.980000 0.990000 1.000000
