luts/creative/split_tone_warm_shadows.cube
TITLE "Split Tone Warm Shadows"
LUT_3D_SIZE 5
DOMAIN_MIN 0.0 0.0 0.0
DOMAIN_MAX 1.0 1.0 1.0
0.050000 0.020000 0.000000
0.294685 0.017874 0.000000
0.539370 0.015748 0.000000
0.784055 0.013622 0.000000
1.000000 0.011496 0.000000
0.032120 0.262848 0.000000
0.276805 0.260722 0.000000
0.521490 0.258596 0.000000
0.766175 0.256470 0.000000
1.000000 0.254344 0.000000
0.014240 0.505696 0.000000
0.258925 0.503570 0.000000
0.503610 0.501444 0.000000
0.749318 0.499659 0.001364
0.997192 0.498596 0.005616
0.000000 0.749272 0.002912
0.246418 0.748209 0.007164
0.494292 0.747146 0.011416
0.742166 0.746083 0.015668
0.990040 0.745020 0.019920
0.000000 0.995696 0.017216
0.239266 0.994633 0.021468
0.487140 0.993570 0.025720
0.735014 0.992507 0.029972
0.982888 0.991444 0.034224
0.048195 0.019278 0.221083
0.292880 0.017152 0.224272
0.537565 0.015026 0.227461
0.782250 0.012900 0.230650
1.000000 0.010774 0.233839
0.030315 0.262126 0.231811
0.275000 0.260000 0.235000
0.519685 0.257874 0.238189
0.764370 0.255748 0.241378
1.000000 0.253622 0.244567
0.012435 0.504974 0.242539
0.257120 0.502848 0.245728
0.501805 0.500722 0.248917
0.748596 0.499298 0.252808
0.996470 0.498235 0.257060
0.000000 0.748911 0.254356
0.245696 0.747848 0.258608
0.493570 0.746785 0.262860
0.741444 0.745722 0.267112
0.989318 0.744659 0.271364
0.000000 0.995335 0.268660
0.238544 0.994272 0.272912
0.486418 0.993209 0.277164
0.734292 0.992146 0.281416
0.982166 0.991083 0.285668
0.046390 0.018556 0.472166
0.291075 0.016430 0.475355
0.535760 0.014304 0.478544
0.780445 0.012178 0.481733
1.000000 0.010052 0.484922
0.028510 0.261404 0.482894
0.273195 0.259278 0.486083
0.517880 0.257152 0.489272
0.762565 0.255026 0.492461
1.000000 0.252900 0.495650
0.010630 0.504252 0.493622
0.255315 0.502126 0.496811
0.500000 0.500000 0.500000
0.747874 0.498937 0.504252
0.995748 0.497874 0.508504
0.000000 0.748550 0.505800
0.244974 0.747487 0.510052
0.492848 0.746424 0.514304
0.740722 0.745361 0.518556
0.988596 0.744298 0.522808
0.000000 0.994974 0.520104
0.237822 0.993911 0.524356
0.485696 0.992848 0.528608
0.733570 0.991785 0.532860
0.981444 0.990722 0.537112
0.044585 0.017834 0.723249
0.289270 0.015708 0.726438
0.533955 0.013582 0.729627
0.778640 0.011456 0.732816
1.000000 0.009330 0.736005
0.026705 0.260682 0.733977
0.271390 0.258556 0.737166
0.516075 0.256430 0.740355
0.760760 0.254304 0.743544
1.000000 0.252178 0.746733
0.008825 0.503530 0.744705
0.253510 0.501404 0.747894
0.499278 0.499639 0.751444
0.747152 0.498576 0.755696
0.995026 0.497513 0.759948
0.000000 0.748189 0.757244
0.244252 0.747126 0.761496
0.492126 0.746063 0.765748
0.740000 0.745000 0.770000
0.987874 0.743937 0.774252
0.000000 0.994613 0.771548
0.237100 0.993550 0.775800
0.484974 0.992487 0.780052
0.732848 0.991424 0.784304
0.980722 0.990361 0.788556
0.042780 0.017112 0.974332
0.287465 0.014986 0.977521
0.532150 0.012860 0.980710
0.776835 0.010734 0.983899
1.000000 0.008608 0.987088
0.024900 0.259960 0.985060
0.269585 0.257834 0.988249
0.514270 0.255708 0.991438
0.758955 0.253582 0.994627
1.000000 0.251456 0.997816
0.007020 0.502808 0.995788
0.251705 0.500682 0.998977
0.498556 0.499278 1.000000
0.746430 0.498215 1.000000
0.994304 0.497152 1.000000
0.000000 0.747828 1.000000
0.243530 0.746765 1.000000
0.491404 0.745702 1.000000
0.739278 0.744639 1.000000
0.987152 0.743576 1.000000
0.000000 0.994252 1.000000
0.236378 0.993189 1.000000
0.484252 0.992126 1.000000
0.732126 0.991063 1.000000
0.980000 0.990000 1.000000
