luts/creative/teal_orange_blockbuster.cube
TITLE "Teal Orange Blockbuster"
LUT_3D_SIZE 9
DOMAIN_MIN 0.0 0.0 0.0
DOMAIN_MAX 1.0 1.0 1.0
0.000000 0.020281 0.042281
0.146939 0.017351 0.039351
0.301657 0.014302 0.036302
0.448409 0.011410 0.033410
0.588801 0.008643 0.030643
0.723613 0.005986 0.027986
0.853317 0.003430 0.025430
0.978234 0.000968 0.022968
1.000000 0.000000 0.021021
0.000000 0.134380 0.034346
0.139005 0.131450 0.031417
0.293722 0.128401 0.028367
0.440474 0.125509 0.025475
0.580866 0.122742 0.022708
0.715679 0.120085 0.020051
0.845383 0.117529 0.017495
0.970299 0.115067 0.015033
1.000000 0.113120 0.013086
0.000000 0.253270 0.026079
0.130737 0.250340 0.023149
0.285455 0.247291 0.020100
0.432207 0.244399 0.017208
0.572599 0.241632 0.014441
0.707411 0.238975 0.011784
0.837115 0.236419 0.009228
0.962032 0.233957 0.006766
1.000000 0.232010 0.004819
0.000000 0.375022 0.017612
0.122271 0.372092 0.014682
0.276988 0.369043 0.011633
0.423740 0.366151 0.008741
0.564132 0.363384 0.005974
0.698944 0.360727 0.003317
0.828649 0.358171 0.000761
0.953565 0.355709 0.000000
1.000000 0.353762 0.000000
0.000000 0.499234 0.008975
0.113633 0.496304 0.006045
0.268350 0.493255 0.002996
0.415102 0.490362 0.000103
0.555494 0.487596 0.000000
0.690307 0.484939 0.000000
0.820011 0.482382 0.000000
0.944928 0.479921 0.000000
1.000000 0.477974 0.000000
0.000000 0.625717 0.000179
0.104837 0.622788 0.000000
0.259555 0.619738 0.000000
0.406307 0.616846 0.000000
0.546699 0.614079 0.000000
0.681511 0.611422 0.000000
0.811216 0.608866 0.000000
0.936132 0.606404 0.000000
1.000000 0.604457 0.000000
0.000000 0.754366 0.000000
0.095891 0.751436 0.000000
0.250609 0.748387 0.000000
0.397361 0.745495 0.000000
0.537753 0.742728 0.000000
0.672565 0.740071 0.000000
0.802269 0.737515 0.000000
0.927186 0.735053 0.000000
1.000000 0.733106 0.000000
0.000000 0.885112 0.000000
0.086799 0.882182 0.000000
0.241517 0.879133 0.000000
0.388269 0.876240 0.000000
0.528661 0.873473 0.000000
0.663473 0.870817 0.000000
0.793178 0.868260 0.000000
0.918094 0.865798 0.000000
1.000000 0.863852 0.000000
0.000000 1.000000 0.000000
0.077565 1.000000 0.000000
0.232282 1.000000 0.000000
0.379034 1.000000 0.000000
0.519426 1.000000 0.000000
0.654239 1.000000 0.000000
0.783943 1.000000 0.000000
0.908859 0.998593 0.000000
1.000000 0.996646 0.000000
0.000000 0.019382 0.178316
0.146040 0.016452 0.175386
0.300758 0.013403 0.172337
0.447510 0.010511 0.169445
0.587902 0.007744 0.166678
0.722714 0.005087 0.164021
0.852419 0.002531 0.161465
0.977335 0.000069 0.159003
1.000000 0.000000 0.157056
0.000000 0.133481 0.170382
0.138106 0.130551 0.167452
0.292823 0.127502 0.164403
0.439575 0.124610 0.161510
0.579967 0.121843 0.158743
0.714780 0.119186 0.156087
0.844484 0.116630 0.153530
0.969401 0.114168 0.151068
1.000000 0.112221 0.149122
0.000000 0.252371 0.162114
0.129838 0.249441 0.159184
0.284556 0.246392 0.156135
0.431308 0.243500 0.153243
0.571700 0.240733 0.150476
0.706512 0.238076 0.147819
0.836217 0.235520 0.145263
0.961133 0.233058 0.142801
1.000000 0.231111 0.140854
0.000000 0.374123 0.153647
0.121372 0.371194 0.150718
0.276089 0.368144 0.147668
0.422841 0.365252 0.144776
0.563233 0.362485 0.142009
0.698046 0.359828 0.139352
0.827750 0.357272 0.136796
0.952666 0.354810 0.134334
1.000000 0.352863 0.132387
0.000000 0.498335 0.145010
0.112734 0.495405 0.142080
0.267452 0.492356 0.139031
0.414204 0.489464 0.136139
0.554596 0.486697 0.133372
0.689408 0.484040 0.130715
0.819112 0.481484 0.128159
0.944029 0.479022 0.125697
1.000000 0.477075 0.123750
0.000000 0.624819 0.136214
0.103939 0.621889 0.133284
0.258656 0.618840 0.130235
0.405408 0.615947 0.127343
0.545800 0.613180 0.124576
0.680612 0.610524 0.121919
0.810317 0.607967 0.119363
0.935233 0.605505 0.116901
1.000000 0.603559 0.114954
0.000000 0.753467 0.127268
0.094992 0.750538 0.124338
0.249710 0.747488 0.121289
0.396462 0.744596 0.118397
0.536854 0.741829 0.115630
0.671666 0.739172 0.112973
0.801371 0.736616 0.110417
0.926287 0.734154 0.107955
1.000000 0.732207 0.106008
0.000000 0.884213 0.118176
0.085900 0.881283 0.115246
0.240618 0.878234 0.112197
0.387370 0.875342 0.109305
0.527762 0.872575 0.106538
0.662574 0.869918 0.103881
0.792279 0.867362 0.101325
0.917195 0.864900 0.098863
1.000000 0.862953 0.096916
0.000000 1.000000 0.108941
0.076666 1.000000 0.106012
0.231383 1.000000 0.102963
0.378135 1.000000 0.100070
0.518527 1.000000 0.097303
0.653340 1.000000 0.094647
0.783044 1.000000 0.092090
0.907961 0.997695 0.089628
1.000000 0.995748 0.087681
0.000000 0.018515 0.309611
0.145173 0.015585 0.306682
0.299890 0.012536 0.303632
0.446642 0.009643 0.300740
0.587034 0.006876 0.297973
0.721847 0.004220 0.295316
0.851551 0.001663 0.292760
0.976468 0.000000 0.290298
1.000000 0.000000 0.288351
0.000000 0.132614 0.301677
0.137238 0.129684 0.298747
0.291956 0.126635 0.295698
0.438708 0.123742 0.292806
0.579100 0.120975 0.290039
0.713912 0.118319 0.287382
0.843617 0.115762 0.284826
0.968533 0.113300 0.282364
1.000000 0.111354 0.280417
0.000000 0.251504 0.293409
0.128971 0.248574 0.290480
0.283688 0.245525 0.287430
0.430440 0.242632 0.284538
0.570832 0.239865 0.281771
0.705645 0.237209 0.279114
0.835349 0.234652 0.276558
0.960266 0.232190 0.274096
1.000000 0.230244 0.272149
0.000000 0.373256 0.284943
0.120504 0.370326 0.282013
0.275222 0.367277 0.278964
0.421974 0.364385 0.276072
0.562366 0.361618 0.273305
0.697178 0.358961 0.270648
0.826883 0.356405 0.268092
0.951799 0.353943 0.265630
1.000000 0.351996 0.263683
0.000000 0.497467 0.276305
0.111867 0.494538 0.273375
0.266584 0.491488 0.270326
0.413336 0.488596 0.267434
0.553728 0.485829 0.264667
0.688541 0.483172 0.262010
0.818245 0.480616 0.259454
0.943161 0.478154 0.256992
1.000000 0.476207 0.255045
0.000000 0.623951 0.267510
0.103071 0.621021 0.264580
0.257788 0.617972 0.261531
0.404541 0.615080 0.258638
0.544933 0.612313 0.255872
0.679745 0.609656 0.253215
0.809449 0.607100 0.250658
0.934366 0.604638 0.248196
1.000000 0.602691 0.246250
0.000000 0.752600 0.258563
0.094125 0.749670 0.255634
0.248842 0.746621 0.252584
0.395594 0.743729 0.249692
0.535986 0.740962 0.246925
0.670799 0.738305 0.244268
0.800503 0.735749 0.241712
0.925420 0.733287 0.239250
1.000000 0.731340 0.237303
0.000000 0.883345 0.249471
0.085033 0.880416 0.246542
0.239750 0.877366 0.243492
0.386502 0.874474 0.240600
0.526894 0.871707 0.237833
0.661707 0.869050 0.235176
0.791411 0.866494 0.232620
0.916328 0.864032 0.230158
1.000000 0.862085 0.228211
0.000000 1.000000 0.240237
0.075798 1.000000 0.237307
0.230516 1.000000 0.234258
0.377268 1.000000 0.231366
0.517660 1.000000 0.228599
0.652472 1.000000 0.225942
0.782177 0.999289 0.223386
0.907093 0.996827 0.220924
1.000000 0.994880 0.218977
0.000000 0.017663 0.438530
0.144321 0.014733 0.435600
0.299038 0.011684 0.432551
0.445791 0.008792 0.429659
0.586183 0.006025 0.426892
0.720995 0.003368 0.424235
0.850699 0.000812 0.421679
0.975616 0.000000 0.419217
1.000000 0.000000 0.417270
0.000000 0.131762 0.430595
0.136387 0.128832 0.427666
0.291104 0.125783 0.424616
0.437856 0.122891 0.421724
0.578248 0.120124 0.418957
0.713061 0.117467 0.416300
0.842765 0.114911 0.413744
0.967681 0.112449 0.411282
1.000000 0.110502 0.409335
0.000000 0.250652 0.422328
0.128119 0.247722 0.419398
0.282837 0.244673 0.416349
0.429589 0.241781 0.413457
0.569981 0.239014 0.410690
0.704793 0.236357 0.408033
0.834497 0.233801 0.405477
0.959414 0.231339 0.403015
1.000000 0.229392 0.401068
0.000000 0.372404 0.413861
0.119653 0.369474 0.410931
0.274370 0.366425 0.407882
0.421122 0.363533 0.404990
0.561514 0.360766 0.402223
0.696326 0.358109 0.399566
0.826031 0.355553 0.397010
0.950947 0.353091 0.394548
1.000000 0.351144 0.392601
0.000000 0.496616 0.405224
0.111015 0.493686 0.402294
0.265732 0.490637 0.399245
0.412484 0.487744 0.396352
0.552876 0.484978 0.393586
0.687689 0.482321 0.390929
0.817393 0.479764 0.388372
0.942310 0.477303 0.385911
1.000000 0.475356 0.383964
0.000000 0.623099 0.396428
0.102219 0.620170 0.393498
0.256937 0.617120 0.390449
0.403689 0.614228 0.387557
0.544081 0.611461 0.384790
0.678893 0.608804 0.382133
0.808598 0.606248 0.379577
0.933514 0.603786 0.377115
1.000000 0.601839 0.375168
0.000000 0.751748 0.387482
0.093273 0.748818 0.384552
0.247991 0.745769 0.381503
0.394743 0.742877 0.378611
0.535135 0.740110 0.375844
0.669947 0.737453 0.373187
0.799651 0.734897 0.370631
0.924568 0.732435 0.368169
1.000000 0.730488 0.366222
0.000000 0.882494 0.378390
0.084181 0.879564 0.375460
0.238899 0.876515 0.372411
0.385651 0.873622 0.369519
0.526043 0.870855 0.366752
0.660855 0.868199 0.364095
0.790560 0.865642 0.361539
0.915476 0.863180 0.359077
1.000000 0.861234 0.357130
0.000000 1.000000 0.369155
0.074947 1.000000 0.366226
0.229664 1.000000 0.363176
0.376416 1.000000 0.360284
0.516808 1.000000 0.357517
0.651621 1.000000 0.354860
0.781325 0.998437 0.352304
0.906241 0.995975 0.349842
1.000000 0.994028 0.347895
0.000000 0.016823 0.565571
0.143482 0.013894 0.562641
0.298199 0.010844 0.559592
0.444951 0.007952 0.556700
0.585343 0.005185 0.553933
0.720156 0.002528 0.551276
0.849860 0.000000 0.548720
0.974776 0.000000 0.546258
1.000000 0.000000 0.544311
0.000000 0.130922 0.557637
0.135547 0.127993 0.554707
0.290265 0.124943 0.551658
0.437017 0.122051 0.548766
0.577409 0.119284 0.545999
0.712221 0.116627 0.543342
0.841926 0.114071 0.540786
0.966842 0.111609 0.538324
1.000000 0.109662 0.536377
0.000000 0.249812 0.549369
0.127280 0.246883 0.546439
0.281997 0.243833 0.543390
0.428749 0.240941 0.540498
0.569141 0.238174 0.537731
0.703954 0.235517 0.535074
0.833658 0.232961 0.532518
0.958574 0.230499 0.530056
1.000000 0.228552 0.528109
0.000000 0.371565 0.540903
0.118813 0.368635 0.537973
0.273531 0.365586 0.534924
0.420283 0.362694 0.532031
0.560675 0.359927 0.529265
0.695487 0.357270 0.526608
0.825192 0.354714 0.524051
0.950108 0.352252 0.521590
1.000000 0.350305 0.519643
0.000000 0.495776 0.532265
0.110176 0.492847 0.529335
0.264893 0.489797 0.526286
0.411645 0.486905 0.523394
0.552037 0.484138 0.520627
0.686849 0.481481 0.517970
0.816554 0.478925 0.515414
0.941470 0.476463 0.512952
1.000000 0.474516 0.511005
0.000000 0.622260 0.523469
0.101380 0.619330 0.520540
0.256097 0.616281 0.517490
0.402849 0.613389 0.514598
0.543241 0.610622 0.511831
0.678054 0.607965 0.509174
0.807758 0.605409 0.506618
0.932675 0.602947 0.504156
1.000000 0.601000 0.502209
0.000000 0.750909 0.514523
0.092434 0.747979 0.511593
0.247151 0.744930 0.508544
0.393903 0.742038 0.505652
0.534295 0.739271 0.502885
0.669108 0.736614 0.500228
0.798812 0.734058 0.497672
0.923728 0.731596 0.495210
1.000000 0.729649 0.493263
0.000000 0.881654 0.505431
0.083342 0.878724 0.502501
0.238059 0.875675 0.499452
0.384811 0.872783 0.496560
0.525203 0.870016 0.493793
0.660016 0.867359 0.491136
0.789720 0.864803 0.488580
0.914637 0.862341 0.486118
1.000000 0.860394 0.484171
0.000000 1.000000 0.496197
0.074107 1.000000 0.493267
0.228825 1.000000 0.490218
0.375577 1.000000 0.487326
0.515969 1.000000 0.484559
0.650781 1.000000 0.481902
0.780486 0.997598 0.479346
0.905402 0.995136 0.476884
1.000000 0.993189 0.474937
0.000000 0.015995 0.690975
0.142653 0.013065 0.688045
0.297371 0.010016 0.684996
0.444123 0.007124 0.682104
0.584515 0.004357 0.679337
0.719327 0.001700 0.676680
0.849032 0.000000 0.674124
0.973948 0.000000 0.671662
1.000000 0.000000 0.669715
0.000000 0.130094 0.683041
0.134719 0.127164 0.680111
0.289436 0.124115 0.677062
0.436188 0.121223 0.674169
0.576580 0.118456 0.671403
0.711393 0.115799 0.668746
0.841097 0.113243 0.666189
0.966013 0.110781 0.663727
1.000000 0.108834 0.661781
0.000000 0.248984 0.674773
0.126451 0.246054 0.671843
0.281169 0.243005 0.668794
0.427921 0.240113 0.665902
0.568313 0.237346 0.663135
0.703125 0.234689 0.660478
0.832830 0.232133 0.657922
0.957746 0.229671 0.655460
1.000000 0.227724 0.653513
0.000000 0.370736 0.666306
0.117985 0.367807 0.663377
0.272702 0.364757 0.660327
0.419454 0.361865 0.657435
0.559846 0.359098 0.654668
0.694659 0.356441 0.652011
0.824363 0.353885 0.649455
0.949279 0.351423 0.646993
1.000000 0.349476 0.645046
0.000000 0.494948 0.657669
0.109347 0.492018 0.654739
0.264064 0.488969 0.651690
0.410817 0.486077 0.648798
0.551209 0.483310 0.646031
0.686021 0.480653 0.643374
0.815725 0.478097 0.640818
0.940642 0.475635 0.638356
1.000000 0.473688 0.636409
0.000000 0.621431 0.648873
0.100551 0.618502 0.645943
0.255269 0.615452 0.642894
0.402021 0.612560 0.640002
0.542413 0.609793 0.637235
0.677225 0.607136 0.634578
0.806930 0.604580 0.632022
0.931846 0.602118 0.629560
1.000000 0.600171 0.627613
0.000000 0.750080 0.639927
0.091605 0.747150 0.636997
0.246323 0.744101 0.633948
0.393075 0.741209 0.631056
0.533467 0.738442 0.628289
0.668279 0.735785 0.625632
0.797984 0.733229 0.623076
0.922900 0.730767 0.620614
1.000000 0.728820 0.618667
0.000000 0.880826 0.630835
0.082513 0.877896 0.627905
0.237231 0.874847 0.624856
0.383983 0.871954 0.621964
0.524375 0.869188 0.619197
0.659187 0.866531 0.616540
0.788892 0.863974 0.613984
0.913808 0.861513 0.611522
1.000000 0.859566 0.609575
0.000000 1.000000 0.621601
0.073279 1.000000 0.618671
0.227996 1.000000 0.615622
0.374748 1.000000 0.612729
0.515140 1.000000 0.609962
0.649953 0.999325 0.607306
0.779657 0.996769 0.604749
0.904573 0.994307 0.602287
1.000000 0.992360 0.600341
0.000000 0.015176 0.814883
0.141834 0.012246 0.811953
0.296552 0.009197 0.808904
0.443304 0.006305 0.806012
0.583696 0.003538 0.803245
0.718508 0.000881 0.800588
0.848213 0.000000 0.798032
0.973129 0.000000 0.795570
1.000000 0.000000 0.793623
0.000000 0.129275 0.806949
0.133900 0.126345 0.804019
0.288618 0.123296 0.800970
0.435370 0.120404 0.798078
0.575762 0.117637 0.795311
0.710574 0.114980 0.792654
0.840278 0.112424 0.790098
0.965195 0.109962 0.787636
1.000000 0.108015 0.785689
0.000000 0.248165 0.798681
0.125633 0.245235 0.795752
0.280350 0.242186 0.792702
0.427102 0.239294 0.789810
0.567494 0.236527 0.787043
0.702306 0.233870 0.784386
0.832011 0.231314 0.781830
0.956927 0.228852 0.779368
1.000000 0.226905 0.777421
0.000000 0.369918 0.790215
0.117166 0.366988 0.787285
0.271883 0.363939 0.784236
0.418635 0.361046 0.781344
0.559027 0.358280 0.778577
0.693840 0.355623 0.775920
0.823544 0.353066 0.773364
0.948461 0.350605 0.770902
1.000000 0.348658 0.768955
0.000000 0.494129 0.781577
0.108528 0.491199 0.778647
0.263246 0.488150 0.775598
0.409998 0.485258 0.772706
0.550390 0.482491 0.769939
0.685202 0.479834 0.767282
0.814907 0.477278 0.764726
0.939823 0.474816 0.762264
1.000000 0.472869 0.760317
0.000000 0.620613 0.772782
0.099733 0.617683 0.769852
0.254450 0.614634 0.766803
0.401202 0.611742 0.763910
0.541594 0.608975 0.761143
0.676407 0.606318 0.758487
0.806111 0.603762 0.755930
0.931027 0.601300 0.753468
1.000000 0.599353 0.751522
0.000000 0.749262 0.763835
0.090787 0.746332 0.760906
0.245504 0.743283 0.757856
0.392256 0.740390 0.754964
0.532648 0.737623 0.752197
0.667460 0.734967 0.749540
0.797165 0.732410 0.746984
0.922081 0.729948 0.744522
1.000000 0.728002 0.742575
0.000000 0.880007 0.754743
0.081695 0.877077 0.751814
0.236412 0.874028 0.748764
0.383164 0.871136 0.745872
0.523556 0.868369 0.743105
0.658369 0.865712 0.740448
0.788073 0.863156 0.737892
0.912989 0.860694 0.735430
1.000000 0.858747 0.733483
0.000000 1.000000 0.745509
0.072460 1.000000 0.742579
0.227178 1.000000 0.739530
0.373930 1.000000 0.736638
0.514322 1.000000 0.733871
0.649134 0.998507 0.731214
0.778838 0.995951 0.728658
0.903755 0.993489 0.726196
1.000000 0.991542 0.724249
0.000000 0.014367 0.937391
0.141025 0.011437 0.934461
0.295743 0.008388 0.931412
0.442495 0.005496 0.928520
0.582887 0.002729 0.925753
0.717699 0.000072 0.923096
0.847403 0.000000 0.920540
0.972320 0.000000 0.918078
1.000000 0.000000 0.916131
0.000000 0.128466 0.929457
0.133091 0.125536 0.926527
0.287808 0.122487 0.923478
0.434560 0.119595 0.920585
0.574952 0.116828 0.917819
0.709765 0.114171 0.915162
0.839469 0.111615 0.912605
0.964385 0.109153 0.910143
1.000000 0.107206 0.908197
0.000000 0.247356 0.921189
0.124823 0.244426 0.918259
0.279541 0.241377 0.915210
0.426293 0.238485 0.912318
0.566685 0.235718 0.909551
0.701497 0.233061 0.906894
0.831201 0.230505 0.904338
0.956118 0.228043 0.901876
1.000000 0.226096 0.899929
0.000000 0.369108 0.912722
0.116357 0.366178 0.909793
0.271074 0.363129 0.906743
0.417826 0.360237 0.903851
0.558218 0.357470 0.901084
0.693030 0.354813 0.898427
0.822735 0.352257 0.895871
0.947651 0.349795 0.893409
1.000000 0.347848 0.891462
0.000000 0.493320 0.904085
0.107719 0.490390 0.901155
0.262436 0.487341 0.898106
0.409188 0.484448 0.895214
0.549580 0.481682 0.892447
0.684393 0.479025 0.889790
0.814097 0.476468 0.887234
0.939014 0.474007 0.884772
1.000000 0.472060 0.882825
0.000000 0.619803 0.895289
0.098923 0.616874 0.892359
0.253641 0.613824 0.889310
0.400393 0.610932 0.886418
0.540785 0.608165 0.883651
0.675597 0.605508 0.880994
0.805302 0.602952 0.878438
0.930218 0.600490 0.875976
1.000000 0.598543 0.874029
0.000000 0.748452 0.886343
0.089977 0.745522 0.883413
0.244695 0.742473 0.880364
0.391447 0.739581 0.877472
0.531839 0.736814 0.874705
0.666651 0.734157 0.872048
0.796355 0.731601 0.869492
0.921272 0.729139 0.867030
1.000000 0.727192 0.865083
0.000000 0.879198 0.877251
0.080885 0.876268 0.874321
0.235603 0.873219 0.871272
0.382355 0.870326 0.868380
0.522747 0.867559 0.865613
0.657559 0.864903 0.862956
0.787264 0.862346 0.860400
0.912180 0.859884 0.857938
1.000000 0.857938 0.855991
0.000000 1.000000 0.868017
0.071651 1.000000 0.865087
0.226368 1.000000 0.862038
0.373120 1.000000 0.859145
0.513512 1.000000 0.856379
0.648325 0.997697 0.853722
0.778029 0.995141 0.851165
0.902945 0.992679 0.848703
1.000000 0.990732 0.846757
0.000000 0.013566 1.000000
0.140224 0.010636 1.000000
0.294942 0.007587 1.000000
0.441694 0.004695 1.000000
0.582086 0.001928 1.000000
0.716898 0.000000 1.000000
0.846603 0.000000 1.000000
0.971519 0.000000 1.000000
1.000000 0.000000 1.000000
0.000000 0.127665 1.000000
0.132290 0.124735 1.000000
0.287008 0.121686 1.000000
0.433760 0.118794 1.000000
0.574152 0.116027 1.000000
0.708964 0.113370 1.000000
0.838668 0.110814 1.000000
0.963585 0.108352 1.000000
1.000000 0.106405 1.000000
0.000000 0.246555 1.000000
0.124023 0.243625 1.000000
0.278740 0.240576 1.000000
0.425492 0.237684 1.000000
0.565884 0.234917 1.000000
0.700696 0.232260 1.000000
0.830401 0.229704 1.000000
0.955317 0.227242 1.000000
1.000000 0.225295 1.000000
0.000000 0.368308 1.000000
0.115556 0.365378 1.000000
0.270273 0.362329 1.000000
0.417025 0.359436 1.000000
0.557417 0.356670 1.000000
0.692230 0.354013 1.000000
0.821934 0.351456 1.000000
0.946851 0.348995 1.000000
1.000000 0.347048 1.000000
0.000000 0.492519 1.000000
0.106918 0.489589 1.000000
0.261636 0.486540 1.000000
0.408388 0.483648 1.000000
0.548780 0.480881 1.000000
0.683592 0.478224 1.000000
0.813297 0.475668 1.000000
0.938213 0.473206 1.000000
1.000000 0.471259 1.000000
0.000000 0.619003 1.000000
0.098123 0.616073 1.000000
0.252840 0.613024 1.000000
0.399592 0.610132 1.000000
0.539984 0.607365 1.000000
0.674797 0.604708 1.000000
0.804501 0.602151 0.999613
0.929417 0.599690 0.997151
1.000000 0.597743 0.995204
0.000000 0.747652 1.000000
0.089177 0.744722 1.000000
0.243894 0.741673 1.000000
0.390646 0.738780 0.998647
0.531038 0.736013 0.995880
0.665850 0.733357 0.993223
0.795555 0.730800 0.990667
0.920471 0.728338 0.988205
1.000000 0.726392 0.986258
0.000000 0.878397 0.998426
0.080085 0.875467 0.995497
0.234802 0.872418 0.992447
0.381554 0.869526 0.989555
0.521946 0.866759 0.986788
0.656759 0.864102 0.984131
0.786463 0.861546 0.981575
0.911379 0.859084 0.979113
1.000000 0.857137 0.977166
0.000000 1.000000 0.989192
0.070850 1.000000 0.986262
0.225568 1.000000 0.983213
0.372320 1.000000 0.980321
0.512712 0.999554 0.977554
0.647524 0.996897 0.974897
0.777228 0.994341 0.972341
0.902145 0.991879 0.969879
1.000000 0.989932 0.967932
