luts/creative/teal_orange_blockbuster.cube
TITLE "Teal Orange Blockbuster"
LUT_3D_SIZE 17
DOMAIN_MIN 0.0 0.0 0.0
DOMAIN_MAX 1.0 1.0 1.0
0.000000 0.020281 0.042281
0.065295 0.018960 0.040960
0.146939 0.017351 0.039351
0.225463 0.015803 0.037803
0.301657 0.014302 0.036302
0.375897 0.012839 0.034839
0.448409 0.011410 0.033410
0.519341 0.010012 0.032012
0.588801 0.008643 0.030643
0.656870 0.007301 0.029301
0.723613 0.005986 0.027986
0.789081 0.004696 0.026696
0.853317 0.003430 0.025430
0.916358 0.002187 0.024187
0.978234 0.000968 0.022968
1.000000 0.000000 0.021771
1.000000 0.000000 0.021021
0.000000 0.076344 0.038382
0.061396 0.075024 0.037061
0.143040 0.073415 0.035452
0.221564 0.071867 0.033905
0.297758 0.070365 0.032403
0.371998 0.068902 0.030940
0.444510 0.067473 0.029511
0.515442 0.066075 0.028113
0.584902 0.064706 0.026744
0.652971 0.063365 0.025403
0.719714 0.062050 0.024087
0.785183 0.060759 0.022797
0.849419 0.059493 0.021531
0.912459 0.058251 0.020289
0.974335 0.057031 0.019069
1.000000 0.055834 0.017872
1.000000 0.055084 0.017122
0.000000 0.134380 0.034346
0.057360 0.133059 0.033026
0.139005 0.131450 0.031417
0.217528 0.129902 0.029869
0.293722 0.128401 0.028367
0.367963 0.126938 0.026904
0.440474 0.125509 0.025475
0.511406 0.124111 0.024077
0.580866 0.122742 0.022708
0.648936 0.121400 0.021367
0.715679 0.120085 0.020051
0.781147 0.118795 0.018761
0.845383 0.117529 0.017495
0.908424 0.116286 0.016253
0.970299 0.115067 0.015033
1.000000 0.113870 0.013836
1.000000 0.113120 0.013086
0.000000 0.193424 0.030241
0.053254 0.192103 0.028920
0.134899 0.190494 0.027311
0.213423 0.188946 0.025763
0.289616 0.187445 0.024262
0.363857 0.185981 0.022798
0.436368 0.184552 0.021369
0.507300 0.183154 0.019971
0.576760 0.181785 0.018602
0.644830 0.180444 0.017261
0.711573 0.179129 0.015946
0.777041 0.177838 0.014655
0.841277 0.176572 0.013389
0.904318 0.175330 0.012147
0.966194 0.174110 0.010927
1.000000 0.172913 0.009730
1.000000 0.172164 0.008981
0.000000 0.253270 0.026079
0.049093 0.251949 0.024758
0.130737 0.250340 0.023149
0.209261 0.248792 0.021602
0.285455 0.247291 0.020100
0.359695 0.245828 0.018637
0.432207 0.244399 0.017208
0.503139 0.243001 0.015810
0.572599 0.241632 0.014441
0.640668 0.240290 0.013099
0.707411 0.238975 0.011784
0.772879 0.237685 0.010494
0.837115 0.236419 0.009228
0.900156 0.235176 0.007985
0.962032 0.233957 0.006766
1.000000 0.232760 0.005569
1.000000 0.232010 0.004819
0.000000 0.313822 0.021868
0.044882 0.312501 0.020547
0.126526 0.310892 0.018938
0.205050 0.309344 0.017391
0.281244 0.307843 0.015889
0.355484 0.306379 0.014426
0.427996 0.304950 0.012997
0.498928 0.303552 0.011599
0.568388 0.302183 0.010230
0.636457 0.300842 0.008889
0.703200 0.299527 0.007573
0.768668 0.298236 0.006283
0.832905 0.296970 0.005017
0.895945 0.295728 0.003774
0.957821 0.294508 0.002555
1.000000 0.293311 0.001358
1.000000 0.292562 0.000608
0.000000 0.375022 0.017612
0.040626 0.373701 0.016292
0.122271 0.372092 0.014682
0.200794 0.370545 0.013135
0.276988 0.369043 0.011633
0.351229 0.367580 0.010170
0.423740 0.366151 0.008741
0.494672 0.364753 0.007343
0.564132 0.363384 0.005974
0.632202 0.362043 0.004633
0.698944 0.360727 0.003317
0.764413 0.359437 0.002027
0.828649 0.358171 0.000761
0.891689 0.356929 0.000000
0.953565 0.355709 0.000000
1.000000 0.354512 0.000000
1.000000 0.353762 0.000000
0.000000 0.436835 0.013314
0.036328 0.435514 0.011993
0.117972 0.433905 0.010384
0.196496 0.432358 0.008836
0.272690 0.430856 0.007335
0.346930 0.429393 0.005872
0.419442 0.427964 0.004443
0.490374 0.426566 0.003045
0.559834 0.425197 0.001676
0.627903 0.423855 0.000334
0.694646 0.422540 0.000000
0.760114 0.421250 0.000000
0.824350 0.419984 0.000000
0.887391 0.418741 0.000000
0.949267 0.417522 0.000000
1.000000 0.416325 0.000000
1.000000 0.415575 0.000000
0.000000 0.499234 0.008975
0.031988 0.497913 0.007654
0.113633 0.496304 0.006045
0.192157 0.494756 0.004497
0.268350 0.493255 0.002996
0.342591 0.491792 0.001533
0.415102 0.490362 0.000103
0.486034 0.488965 0.000000
0.555494 0.487596 0.000000
0.623564 0.486254 0.000000
0.690307 0.484939 0.000000
0.755775 0.483648 0.000000
0.820011 0.482382 0.000000
0.883052 0.481140 0.000000
0.944928 0.479921 0.000000
1.000000 0.478724 0.000000
1.000000 0.477974 0.000000
0.000000 0.562199 0.004596
0.027610 0.560879 0.003275
0.109254 0.559270 0.001666
0.187778 0.557722 0.000119
0.263972 0.556220 0.000000
0.338212 0.554757 0.000000
0.410724 0.553328 0.000000
0.481656 0.551930 0.000000
0.551116 0.550561 0.000000
0.619185 0.549220 0.000000
0.685928 0.547904 0.000000
0.751396 0.546614 0.000000
0.815633 0.545348 0.000000
0.878673 0.544106 0.000000
0.940549 0.542886 0.000000
1.000000 0.541689 0.000000
1.000000 0.540939 0.000000
0.000000 0.625717 0.000179
0.023193 0.624397 0.000000
0.104837 0.622788 0.000000
0.183361 0.621240 0.000000
0.259555 0.619738 0.000000
0.333795 0.618275 0.000000
0.406307 0.616846 0.000000
0.477239 0.615448 0.000000
0.546699 0.614079 0.000000
0.614768 0.612738 0.000000
0.681511 0.611422 0.000000
0.746979 0.610132 0.000000
0.811216 0.608866 0.000000
0.874256 0.607624 0.000000
0.936132 0.606404 0.000000
0.996870 0.605207 0.000000
1.000000 0.604457 0.000000
0.000000 0.689776 0.000000
0.018738 0.688455 0.000000
0.100383 0.686846 0.000000
0.178906 0.685299 0.000000
0.255100 0.683797 0.000000
0.329341 0.682334 0.000000
0.401852 0.680905 0.000000
0.472784 0.679507 0.000000
0.542244 0.678138 0.000000
0.610314 0.676796 0.000000
0.677057 0.675481 0.000000
0.742525 0.674191 0.000000
0.806761 0.672925 0.000000
0.869802 0.671682 0.000000
0.931677 0.670463 0.000000
0.992415 0.669266 0.000000
1.000000 0.668516 0.000000
0.000000 0.754366 0.000000
0.014247 0.753045 0.000000
0.095891 0.751436 0.000000
0.174415 0.749889 0.000000
0.250609 0.748387 0.000000
0.324849 0.746924 0.000000
0.397361 0.745495 0.000000
0.468293 0.744097 0.000000
0.537753 0.742728 0.000000
0.605822 0.741387 0.000000
0.672565 0.740071 0.000000
0.738033 0.738781 0.000000
0.802269 0.737515 0.000000
0.865310 0.736273 0.000000
0.927186 0.735053 0.000000
0.987924 0.733856 0.000000
1.000000 0.733106 0.000000
0.000000 0.819480 0.000000
0.009719 0.818159 0.000000
0.091363 0.816550 0.000000
0.169887 0.815003 0.000000
0.246081 0.813501 0.000000
0.320321 0.812038 0.000000
0.392833 0.810609 0.000000
0.463765 0.809211 0.000000
0.533225 0.807842 0.000000
0.601294 0.806501 0.000000
0.668037 0.805185 0.000000
0.733505 0.803895 0.000000
0.797741 0.802629 0.000000
0.860782 0.801386 0.000000
0.922658 0.800167 0.000000
0.983396 0.798970 0.000000
1.000000 0.798220 0.000000
0.000000 0.885112 0.000000
0.005155 0.883791 0.000000
0.086799 0.882182 0.000000
0.165323 0.880634 0.000000
0.241517 0.879133 0.000000
0.315757 0.877669 0.000000
0.388269 0.876240 0.000000
0.459201 0.874842 0.000000
0.528661 0.873473 0.000000
0.596730 0.872132 0.000000
0.663473 0.870817 0.000000
0.728941 0.869526 0.000000
0.793178 0.868260 0.000000
0.856218 0.867018 0.000000
0.918094 0.865798 0.000000
0.978832 0.864601 0.000000
1.000000 0.863852 0.000000
0.000000 0.951255 0.000000
0.000555 0.949934 0.000000
0.082200 0.948325 0.000000
0.160723 0.946778 0.000000
0.236917 0.945276 0.000000
0.311158 0.943813 0.000000
0.383669 0.942384 0.000000
0.454601 0.940986 0.000000
0.524061 0.939617 0.000000
0.592131 0.938276 0.000000
0.658874 0.936960 0.000000
0.724342 0.935670 0.000000
0.788578 0.934404 0.000000
0.851618 0.933162 0.000000
0.913494 0.931942 0.000000
0.974232 0.930745 0.000000
1.000000 0.929995 0.000000
0.000000 1.000000 0.000000
0.000000 1.000000 0.000000
0.077565 1.000000 0.000000
0.156088 1.000000 0.000000
0.232282 1.000000 0.000000
0.306523 1.000000 0.000000
0.379034 1.000000 0.000000
0.449966 1.000000 0.000000
0.519426 1.000000 0.000000
0.587496 1.000000 0.000000
0.654239 1.000000 0.000000
0.719707 1.000000 0.000000
0.783943 1.000000 0.000000
0.846984 0.999813 0.000000
0.908859 0.998593 0.000000
0.969597 0.997396 0.000000
1.000000 0.996646 0.000000
0.000000 0.019824 0.111368
0.064838 0.018504 0.110047
0.146483 0.016895 0.108438
0.225006 0.015347 0.106891
0.301200 0.013845 0.105389
0.375441 0.012382 0.103926
0.447952 0.010953 0.102497
0.518884 0.009555 0.101099
0.588344 0.008186 0.099730
0.656414 0.006845 0.098388
0.723157 0.005529 0.097073
0.788625 0.004239 0.095783
0.852861 0.002973 0.094517
0.915902 0.001731 0.093274
0.977777 0.000511 0.092055
1.000000 0.000000 0.090858
1.000000 0.000000 0.090108
0.000000 0.075888 0.107469
0.060939 0.074567 0.106149
0.142584 0.072958 0.104540
0.221108 0.071411 0.102992
0.297301 0.069909 0.101490
0.371542 0.068446 0.100027
0.444053 0.067017 0.098598
0.514985 0.065619 0.097200
0.584446 0.064250 0.095831
0.652515 0.062908 0.094490
0.719258 0.061593 0.093174
0.784726 0.060303 0.091884
0.848962 0.059037 0.090618
0.912003 0.057794 0.089376
0.973879 0.056575 0.088156
1.000000 0.055378 0.086959
1.000000 0.054628 0.086209
0.000000 0.133923 0.103434
0.056904 0.132603 0.102113
0.138548 0.130994 0.100504
0.217072 0.129446 0.098956
0.293266 0.127944 0.097455
0.367506 0.126481 0.095991
0.440018 0.125052 0.094562
0.510950 0.123654 0.093164
0.580410 0.122285 0.091796
0.648479 0.120944 0.090454
0.715222 0.119628 0.089139
0.780690 0.118338 0.087848
0.844927 0.117072 0.086582
0.907967 0.115830 0.085340
0.969843 0.114610 0.084121
1.000000 0.113413 0.082923
1.000000 0.112663 0.082174
0.000000 0.192967 0.099328
0.052798 0.191646 0.098007
0.134442 0.190037 0.096398
0.212966 0.188490 0.094850
0.289160 0.186988 0.093349
0.363400 0.185525 0.091886
0.435912 0.184096 0.090457
0.506844 0.182698 0.089059
0.576304 0.181329 0.087690
0.644373 0.179987 0.086348
0.711116 0.178672 0.085033
0.776584 0.177382 0.083743
0.840821 0.176116 0.082477
0.903861 0.174873 0.081234
0.965737 0.173654 0.080015
1.000000 0.172457 0.078818
1.000000 0.171707 0.078068
0.000000 0.252813 0.095166
0.048636 0.251493 0.093845
0.130281 0.249884 0.092236
0.208804 0.248336 0.090689
0.284998 0.246834 0.089187
0.359239 0.245371 0.087724
0.431750 0.243942 0.086295
0.502682 0.242544 0.084897
0.572142 0.241175 0.083528
0.640212 0.239834 0.082186
0.706955 0.238518 0.080871
0.772423 0.237228 0.079581
0.836659 0.235962 0.078315
0.899700 0.234720 0.077072
0.961575 0.233500 0.075853
1.000000 0.232303 0.074656
1.000000 0.231553 0.073906
0.000000 0.313365 0.090955
0.044425 0.312044 0.089635
0.126070 0.310435 0.088026
0.204594 0.308888 0.086478
0.280787 0.307386 0.084976
0.355028 0.305923 0.083513
0.427539 0.304494 0.082084
0.498471 0.303096 0.080686
0.567931 0.301727 0.079317
0.636001 0.300385 0.077976
0.702744 0.299070 0.076660
0.768212 0.297780 0.075370
0.832448 0.296514 0.074104
0.895489 0.295271 0.072862
0.957365 0.294052 0.071642
1.000000 0.292855 0.070445
1.000000 0.292105 0.069695
0.000000 0.374566 0.086699
0.040170 0.373245 0.085379
0.121814 0.371636 0.083770
0.200338 0.370088 0.082222
0.276532 0.368587 0.080720
0.350772 0.367124 0.079257
0.423284 0.365695 0.077828
0.494216 0.364297 0.076430
0.563676 0.362928 0.075061
0.631745 0.361586 0.073720
0.698488 0.360271 0.072404
0.763956 0.358981 0.071114
0.828192 0.357715 0.069848
0.891233 0.356472 0.068606
0.953109 0.355253 0.067386
1.000000 0.354056 0.066189
1.000000 0.353306 0.065439
0.000000 0.436378 0.082401
0.035871 0.435058 0.081080
0.117516 0.433449 0.079471
0.196039 0.431901 0.077924
0.272233 0.430399 0.076422
0.346474 0.428936 0.074959
0.418985 0.427507 0.073530
0.489917 0.426109 0.072132
0.559377 0.424740 0.070763
0.627447 0.423399 0.069421
0.694190 0.422083 0.068106
0.759658 0.420793 0.066816
0.823894 0.419527 0.065550
0.886935 0.418285 0.064307
0.948810 0.417065 0.063088
1.000000 0.415868 0.061891
1.000000 0.415118 0.061141
0.000000 0.498777 0.078062
0.031532 0.497456 0.076741
0.113176 0.495847 0.075132
0.191700 0.494300 0.073585
0.267894 0.492798 0.072083
0.342134 0.491335 0.070620
0.414646 0.489906 0.069191
0.485578 0.488508 0.067793
0.555038 0.487139 0.066424
0.623107 0.485798 0.065082
0.689850 0.484482 0.063767
0.755319 0.483192 0.062477
0.819555 0.481926 0.061211
0.882595 0.480684 0.059968
0.944471 0.479464 0.058749
1.000000 0.478267 0.057552
1.000000 0.477517 0.056802
0.000000 0.561743 0.073683
0.027153 0.560422 0.072363
0.108798 0.558813 0.070753
0.187322 0.557266 0.069206
0.263515 0.555764 0.067704
0.337756 0.554301 0.066241
0.410267 0.552872 0.064812
0.481199 0.551474 0.063414
0.550659 0.550105 0.062045
0.618729 0.548763 0.060704
0.685472 0.547448 0.059388
0.750940 0.546158 0.058098
0.815176 0.544892 0.056832
0.878217 0.543649 0.055590
0.940093 0.542430 0.054370
1.000000 0.541233 0.053173
1.000000 0.540483 0.052423
0.000000 0.625261 0.069266
0.022736 0.623940 0.067946
0.104381 0.622331 0.066336
0.182905 0.620784 0.064789
0.259098 0.619282 0.063287
0.333339 0.617819 0.061824
0.405850 0.616390 0.060395
0.476782 0.614992 0.058997
0.546242 0.613623 0.057628
0.614312 0.612281 0.056287
0.681055 0.610966 0.054971
0.746523 0.609676 0.053681
0.810759 0.608410 0.052415
0.873800 0.607167 0.051173
0.935676 0.605948 0.049953
0.996414 0.604751 0.048756
1.000000 0.604001 0.048006
0.000000 0.689320 0.064812
0.018282 0.687999 0.063491
0.099926 0.686390 0.061882
0.178450 0.684842 0.060334
0.254644 0.683341 0.058833
0.328884 0.681877 0.057370
0.401396 0.680448 0.055940
0.472328 0.679050 0.054542
0.541788 0.677681 0.053174
0.609857 0.676340 0.051832
0.676600 0.675025 0.050517
0.742068 0.673734 0.049226
0.806305 0.672468 0.047960
0.869345 0.671226 0.046718
0.931221 0.670006 0.045499
0.991959 0.668809 0.044302
1.000000 0.668060 0.043552
0.000000 0.753910 0.060320
0.013790 0.752589 0.058999
0.095435 0.750980 0.057390
0.173958 0.749432 0.055843
0.250152 0.747931 0.054341
0.324393 0.746468 0.052878
0.396904 0.745038 0.051449
0.467836 0.743641 0.050051
0.537296 0.742272 0.048682
0.605366 0.740930 0.047340
0.672109 0.739615 0.046025
0.737577 0.738324 0.044735
0.801813 0.737058 0.043469
0.864854 0.735816 0.042226
0.926729 0.734597 0.041007
0.987467 0.733400 0.039810
1.000000 0.732650 0.039060
0.000000 0.819024 0.055792
0.009262 0.817703 0.054471
0.090907 0.816094 0.052862
0.169430 0.814546 0.051315
0.245624 0.813045 0.049813
0.319865 0.811582 0.048350
0.392376 0.810152 0.046921
0.463308 0.808755 0.045523
0.532768 0.807386 0.044154
0.600838 0.806044 0.042812
0.667581 0.804729 0.041497
0.733049 0.803438 0.040207
0.797285 0.802172 0.038941
0.860326 0.800930 0.037698
0.922201 0.799711 0.036479
0.982939 0.798514 0.035282
1.000000 0.797764 0.034532
0.000000 0.884655 0.051228
0.004698 0.883334 0.049907
0.086343 0.881725 0.048298
0.164866 0.880178 0.046751
0.241060 0.878676 0.045249
0.315301 0.877213 0.043786
0.387812 0.875784 0.042357
0.458744 0.874386 0.040959
0.528204 0.873017 0.039590
0.596274 0.871676 0.038249
0.663017 0.870360 0.036933
0.728485 0.869070 0.035643
0.792721 0.867804 0.034377
0.855762 0.866561 0.033134
0.917637 0.865342 0.031915
0.978375 0.864145 0.030718
1.000000 0.863395 0.029968
0.000000 0.950799 0.046629
0.000099 0.949478 0.045308
0.081743 0.947869 0.043699
0.160267 0.946321 0.042151
0.236461 0.944820 0.040650
0.310701 0.943357 0.039186
0.383213 0.941928 0.037757
0.454145 0.940530 0.036359
0.523605 0.939161 0.034990
0.591674 0.937819 0.033649
0.658417 0.936504 0.032334
0.723885 0.935213 0.031043
0.788121 0.933948 0.029777
0.851162 0.932705 0.028535
0.913038 0.931486 0.027315
0.973776 0.930289 0.026118
1.000000 0.929539 0.025369
0.000000 1.000000 0.041994
0.000000 1.000000 0.040673
0.077108 1.000000 0.039064
0.155632 1.000000 0.037516
0.231826 1.000000 0.036015
0.306066 1.000000 0.034551
0.378578 1.000000 0.033122
0.449510 1.000000 0.031724
0.518970 1.000000 0.030356
0.587039 1.000000 0.029014
0.653782 1.000000 0.027699
0.719250 1.000000 0.026408
0.783487 1.000000 0.025142
0.846527 0.999356 0.023900
0.908403 0.998137 0.022681
0.969141 0.996940 0.021483
1.000000 0.996190 0.020734
0.000000 0.019382 0.178316
0.064396 0.018061 0.176995
0.146040 0.016452 0.175386
0.224564 0.014905 0.173839
0.300758 0.013403 0.172337
0.374998 0.011940 0.170874
0.447510 0.010511 0.169445
0.518442 0.009113 0.168047
0.587902 0.007744 0.166678
0.655971 0.006402 0.165336
0.722714 0.005087 0.164021
0.788182 0.003797 0.162731
0.852419 0.002531 0.161465
0.915459 0.001288 0.160222
0.977335 0.000069 0.159003
1.000000 0.000000 0.157806
1.000000 0.000000 0.157056
0.000000 0.075446 0.174417
0.060497 0.074125 0.173097
0.142142 0.072516 0.171487
0.220665 0.070968 0.169940
0.296859 0.069467 0.168438
0.371100 0.068004 0.166975
0.443611 0.066574 0.165546
0.514543 0.065177 0.164148
0.584003 0.063808 0.162779
0.652073 0.062466 0.161438
0.718816 0.061151 0.160122
0.784284 0.059860 0.158832
0.848520 0.058594 0.157566
0.911561 0.057352 0.156324
0.973436 0.056133 0.155104
1.000000 0.054936 0.153907
1.000000 0.054186 0.153157
0.000000 0.133481 0.170382
0.056461 0.132160 0.169061
0.138106 0.130551 0.167452
0.216630 0.129004 0.165904
0.292823 0.127502 0.164403
0.367064 0.126039 0.162939
0.439575 0.124610 0.161510
0.510507 0.123212 0.160112
0.579967 0.121843 0.158743
0.648037 0.120501 0.157402
0.714780 0.119186 0.156087
0.780248 0.117896 0.154796
0.844484 0.116630 0.153530
0.907525 0.115387 0.152288
0.969401 0.114168 0.151068
1.000000 0.112971 0.149871
1.000000 0.112221 0.149122
0.000000 0.192525 0.166276
0.052356 0.191204 0.164955
0.134000 0.189595 0.163346
0.212524 0.188047 0.161798
0.288717 0.186546 0.160297
0.362958 0.185083 0.158834
0.435470 0.183654 0.157404
0.506402 0.182256 0.156006
0.575862 0.180887 0.154638
0.643931 0.179545 0.153296
0.710674 0.178230 0.151981
0.776142 0.176940 0.150690
0.840378 0.175674 0.149424
0.903419 0.174431 0.148182
0.965295 0.173212 0.146963
1.000000 0.172015 0.145766
1.000000 0.171265 0.145016
0.000000 0.252371 0.162114
0.048194 0.251050 0.160793
0.129838 0.249441 0.159184
0.208362 0.247894 0.157637
0.284556 0.246392 0.156135
0.358796 0.244929 0.154672
0.431308 0.243500 0.153243
0.502240 0.242102 0.151845
0.571700 0.240733 0.150476
0.639769 0.239391 0.149134
0.706512 0.238076 0.147819
0.771980 0.236786 0.146529
0.836217 0.235520 0.145263
0.899257 0.234277 0.144020
0.961133 0.233058 0.142801
1.000000 0.231861 0.141604
1.000000 0.231111 0.140854
0.000000 0.312923 0.157903
0.043983 0.311602 0.156582
0.125628 0.309993 0.154973
0.204151 0.308445 0.153426
0.280345 0.306944 0.151924
0.354586 0.305481 0.150461
0.427097 0.304052 0.149032
0.498029 0.302654 0.147634
0.567489 0.301285 0.146265
0.635559 0.299943 0.144924
0.702302 0.298628 0.143608
0.767770 0.297337 0.142318
0.832006 0.296072 0.141052
0.895047 0.294829 0.139810
0.956922 0.293610 0.138590
1.000000 0.292413 0.137393
1.000000 0.291663 0.136643
0.000000 0.374123 0.153647
0.039727 0.372803 0.152327
0.121372 0.371194 0.150718
0.199896 0.369646 0.149170
0.276089 0.368144 0.147668
0.350330 0.366681 0.146205
0.422841 0.365252 0.144776
0.493773 0.363854 0.143378
0.563233 0.362485 0.142009
0.631303 0.361144 0.140668
0.698046 0.359828 0.139352
0.763514 0.358538 0.138062
0.827750 0.357272 0.136796
0.890791 0.356030 0.135554
0.952666 0.354810 0.134334
1.000000 0.353613 0.133137
1.000000 0.352863 0.132387
0.000000 0.435936 0.149349
0.035429 0.434615 0.148028
0.117073 0.433006 0.146419
0.195597 0.431459 0.144872
0.271791 0.429957 0.143370
0.346031 0.428494 0.141907
0.418543 0.427065 0.140478
0.489475 0.425667 0.139080
0.558935 0.424298 0.137711
0.627004 0.422957 0.136369
0.693747 0.421641 0.135054
0.759215 0.420351 0.133764
0.823452 0.419085 0.132498
0.886492 0.417842 0.131255
0.948368 0.416623 0.130036
1.000000 0.415426 0.128839
1.000000 0.414676 0.128089
0.000000 0.498335 0.145010
0.031090 0.497014 0.143689
0.112734 0.495405 0.142080
0.191258 0.493858 0.140532
0.267452 0.492356 0.139031
0.341692 0.490893 0.137568
0.414204 0.489464 0.136139
0.485136 0.488066 0.134741
0.554596 0.486697 0.133372
0.622665 0.485355 0.132030
0.689408 0.484040 0.130715
0.754876 0.482750 0.129425
0.819112 0.481484 0.128159
0.882153 0.480241 0.126916
0.944029 0.479022 0.125697
1.000000 0.477825 0.124500
1.000000 0.477075 0.123750
0.000000 0.561301 0.140631
0.026711 0.559980 0.139310
0.108356 0.558371 0.137701
0.186879 0.556823 0.136154
0.263073 0.555322 0.134652
0.337314 0.553858 0.133189
0.409825 0.552429 0.131760
0.480757 0.551031 0.130362
0.550217 0.549663 0.128993
0.618287 0.548321 0.127652
0.685029 0.547006 0.126336
0.750498 0.545715 0.125046
0.814734 0.544449 0.123780
0.877774 0.543207 0.122538
0.939650 0.541987 0.121318
1.000000 0.540790 0.120121
1.000000 0.540041 0.119371
0.000000 0.624819 0.136214
0.022294 0.623498 0.134893
0.103939 0.621889 0.133284
0.182462 0.620341 0.131737
0.258656 0.618840 0.130235
0.332897 0.617376 0.128772
0.405408 0.615947 0.127343
0.476340 0.614549 0.125945
0.545800 0.613180 0.124576
0.613870 0.611839 0.123235
0.680612 0.610524 0.121919
0.746081 0.609233 0.120629
0.810317 0.607967 0.119363
0.873357 0.606725 0.118121
0.935233 0.605505 0.116901
0.995971 0.604308 0.115704
1.000000 0.603559 0.114954
0.000000 0.688877 0.131760
0.017839 0.687556 0.130439
0.099484 0.685947 0.128830
0.178008 0.684400 0.127282
0.254201 0.682898 0.125781
0.328442 0.681435 0.124317
0.400953 0.680006 0.122888
0.471885 0.678608 0.121490
0.541345 0.677239 0.120121
0.609415 0.675898 0.118780
0.676158 0.674582 0.117465
0.741626 0.673292 0.116174
0.805862 0.672026 0.114908
0.868903 0.670784 0.113666
0.930779 0.669564 0.112446
0.991517 0.668367 0.111249
1.000000 0.667617 0.110500
0.000000 0.753467 0.127268
0.013348 0.752147 0.125947
0.094992 0.750538 0.124338
0.173516 0.748990 0.122791
0.249710 0.747488 0.121289
0.323950 0.746025 0.119826
0.396462 0.744596 0.118397
0.467394 0.743198 0.116999
0.536854 0.741829 0.115630
0.604923 0.740488 0.114288
0.671666 0.739172 0.112973
0.737134 0.737882 0.111683
0.801371 0.736616 0.110417
0.864411 0.735374 0.109174
0.926287 0.734154 0.107955
0.987025 0.732957 0.106758
1.000000 0.732207 0.106008
0.000000 0.818581 0.122740
0.008820 0.817261 0.121419
0.090464 0.815652 0.119810
0.168988 0.814104 0.118263
0.245182 0.812602 0.116761
0.319422 0.811139 0.115298
0.391934 0.809710 0.113869
0.462866 0.808312 0.112471
0.532326 0.806943 0.111102
0.600395 0.805602 0.109760
0.667138 0.804286 0.108445
0.732606 0.802996 0.107155
0.796843 0.801730 0.105889
0.859883 0.800488 0.104646
0.921759 0.799268 0.103427
0.982497 0.798071 0.102230
1.000000 0.797321 0.101480
0.000000 0.884213 0.118176
0.004256 0.882892 0.116855
0.085900 0.881283 0.115246
0.164424 0.879735 0.113699
0.240618 0.878234 0.112197
0.314858 0.876771 0.110734
0.387370 0.875342 0.109305
0.458302 0.873944 0.107907
0.527762 0.872575 0.106538
0.595831 0.871233 0.105196
0.662574 0.869918 0.103881
0.728042 0.868628 0.102591
0.792279 0.867362 0.101325
0.855319 0.866119 0.100082
0.917195 0.864900 0.098863
0.977933 0.863703 0.097666
1.000000 0.862953 0.096916
0.000000 0.950356 0.113576
0.000000 0.949036 0.112256
0.081301 0.947427 0.110647
0.159825 0.945879 0.109099
0.236018 0.944377 0.107597
0.310259 0.942914 0.106134
0.382770 0.941485 0.104705
0.453702 0.940087 0.103307
0.523162 0.938718 0.101938
0.591232 0.937377 0.100597
0.657975 0.936061 0.099281
0.723443 0.934771 0.097991
0.787679 0.933505 0.096725
0.850720 0.932263 0.095483
0.912596 0.931043 0.094263
0.973334 0.929846 0.093066
1.000000 0.929096 0.092316
0.000000 1.000000 0.108941
0.000000 1.000000 0.107621
0.076666 1.000000 0.106012
0.155190 1.000000 0.104464
0.231383 1.000000 0.102963
0.305624 1.000000 0.101499
0.378135 1.000000 0.100070
0.449067 1.000000 0.098672
0.518527 1.000000 0.097303
0.586597 1.000000 0.095962
0.653340 1.000000 0.094647
0.718808 1.000000 0.093356
0.783044 1.000000 0.092090
0.846085 0.998914 0.090848
0.907961 0.997695 0.089628
0.968699 0.996497 0.088431
1.000000 0.995748 0.087681
0.000000 0.018946 0.244314
0.063960 0.017625 0.242993
0.145604 0.016016 0.241384
0.224128 0.014469 0.239837
0.300322 0.012967 0.238335
0.374562 0.011504 0.236872
0.447074 0.010075 0.235443
0.518006 0.008677 0.234045
0.587466 0.007308 0.232676
0.655535 0.005966 0.231334
0.722278 0.004651 0.230019
0.787746 0.003361 0.228729
0.851983 0.002095 0.227463
0.915023 0.000852 0.226220
0.976899 0.000000 0.225001
1.000000 0.000000 0.223804
1.000000 0.000000 0.223054
0.000000 0.075010 0.240415
