luts/creative/teal_orange_blockbuster.cube
TITLE "Teal Orange Blockbuster"
LUT_3D_SIZE 5
DOMAIN_MIN 0.0 0.0 0.0
DOMAIN_MAX 1.0 1.0 1.0
0.000000 0.020281 0.042281
0.301657 0.014302 0.036302
0.588801 0.008643 0.030643
0.853317 0.003430 0.025430
1.000000 0.000000 0.021021
0.000000 0.253270 0.026079
0.285455 0.247291 0.020100
0.572599 0.241632 0.014441
0.837115 0.236419 0.009228
1.000000 0.232010 0.004819
0.000000 0.499234 0.008975
0.268350 0.493255 0.002996
0.555494 0.487596 0.000000
0.820011 0.482382 0.000000
1.000000 0.477974 0.000000
0.000000 0.754366 0.000000
0.250609 0.748387 0.000000
0.537753 0.742728 0.000000
0.802269 0.737515 0.000000
1.000000 0.733106 0.000000
0.000000 1.000000 0.000000
0.232282 1.000000 0.000000
0.519426 1.000000 0.000000
0.783943 1.000000 0.000000
1.000000 0.996646 0.000000
0.000000 0.018515 0.309611
0.299890 0.012536 0.303632
0.587034 0.006876 0.297973
0.851551 0.001663 0.292760
1.000000 0.000000 0.288351
0.000000 0.251504 0.293409
0.283688 0.245525 0.287430
0.570832 0.239865 0.281771
0.835349 0.234652 0.276558
1.000000 0.230244 0.272149
0.000000 0.497467 0.276305
0.266584 0.491488 0.270326
0.553728 0.485829 0.264667
0.818245 0.480616 0.259454
1.000000 0.476207 0.255045
0.000000 0.752600 0.258563
0.248842 0.746621 0.252584
0.535986 0.740962 0.246925
0.800503 0.735749 0.241712
1.000000 0.731340 0.237303
0.000000 1.000000 0.240237
0.230516 1.000000 0.234258
0.517660 1.000000 0.228599
0.782177 0.999289 0.223386
1.000000 0.994880 0.218977
0.000000 0.016823 0.565571
0.298199 0.010844 0.559592
0.585343 0.005185 0.553933
0.849860 0.000000 0.548720
1.000000 0.000000 0.544311
0.000000 0.249812 0.549369
0.281997 0.243833 0.543390
0.569141 0.238174 0.537731
0.833658 0.232961 0.532518
1.000000 0.228552 0.528109
0.000000 0.495776 0.532265
0.264893 0.489797 0.526286
0.552037 0.484138 0.520627
0.816554 0.478925 0.515414
1.000000 0.474516 0.511005
0.000000 0.750909 0.514523
0.247151 0.744930 0.508544
0.534295 0.739271 0.502885
0.798812 0.734058 0.497672
1.000000 0.729649 0.493263
0.000000 1.000000 0.496197
0.228825 1.000000 0.490218
0.515969 1.000000 0.484559
0.780486 0.997598 0.479346
1.000000 0.993189 0.474937
0.000000 0.015176 0.814883
0.296552 0.009197 0.808904
0.583696 0.003538 0.803245
0.848213 0.000000 0.798032
1.000000 0.000000 0.793623
0.000000 0.248165 0.798681
0.280350 0.242186 0.792702
0.567494 0.236527 0.787043
0.832011 0.231314 0.781830
1.000000 0.226905 0.777421
0.000000 0.494129 0.781577
0.263246 0.488150 0.775598
0.550390 0.482491 0.769939
0.814907 0.477278 0.764726
1.000000 0.472869 0.760317
0.000000 0.749262 0.763835
0.245504 0.743283 0.757856
0.532648 0.737623 0.752197
0.797165 0.732410 0.746984
1.000000 0.728002 0.742575
0.000000 1.000000 0.745509
0.227178 1.000000 0.739530
0.514322 1.000000 0.733871
0.778838 0.995951 0.728658
1.000000 0.991542 0.724249
0.000000 0.013566 1.000000
0.294942 0.007587 1.000000
0.582086 0.001928 1.000000
0.846603 0.000000 1.000000
1.000000 0.000000 1.000000
0.000000 0.246555 1.000000
0.278740 0.240576 1.000000
0.565884 0.234917 1.000000
0.830401 0.229704 1.000000
1.000000 0.225295 1.000000
0.000000 0.492519 1.000000
0.261636 0.486540 1.000000
0.548780 0.480881 1.000000
0.813297 0.475668 1.000000
1.000000 0.471259 1.000000
0.000000 0.747652 1.000000
0.243894 0.741673 1.000000
0.531038 0.736013 0.995880
0.795555 0.730800 0.990667
1.000000 0.726392 0.986258
0.000000 1.000000 0.989192
0.225568 1.000000 0.983213
0.512712 0.999554 0.977554
0.777228 0.994341 0.972341
1.000000 0.989932 0.967932
