luts/film_stocks/16mm_reversal_vintage.cube
TITLE "16mm Reversal Vintage"
LUT_3D_SIZE 5
DOMAIN_MIN 0.0 0.0 0.0
DOMAIN_MAX 1.0 1.0 1.0
0.129508 0.063573 0.038257
0.310072 0.075522 0.050206
0.497553 0.087929 0.062613
0.689101 0.100605 0.075289
0.782129 0.106762 0.081446
0.168636 0.266830 0.077385
0.349200 0.278779 0.089335
0.536682 0.291186 0.101741
0.728230 0.303862 0.114418
0.821258 0.310019 0.120574
0.210877 0.486257 0.119626
0.391441 0.498206 0.131575
0.578923 0.510613 0.143982
0.770471 0.523289 0.156659
0.863499 0.529445 0.162815
0.254673 0.713762 0.163423
0.435237 0.725711 0.175372
0.622719 0.738118 0.187779
0.814267 0.750794 0.200455
0.907295 0.756950 0.206611
0.292304 0.909236 0.201053
0.472867 0.921186 0.213002
0.660349 0.933593 0.225409
0.851897 0.946269 0.238085
0.944925 0.952425 0.244241
0.131666 0.065731 0.130076
0.312229 0.077680 0.142025
0.499711 0.090087 0.154432
0.691259 0.102763 0.167108
0.784287 0.108919 0.173264
0.170794 0.268988 0.169204
0.351358 0.280937 0.181153
0.538840 0.293344 0.193560
0.730388 0.306020 0.206236
0.823415 0.312177 0.212392
0.213035 0.488414 0.211445
0.393599 0.500364 0.223394
0.581081 0.512770 0.235801
0.772628 0.525447 0.248477
0.865656 0.531603 0.254633
0.256831 0.715920 0.255241
0.437395 0.727869 0.267190
0.624877 0.740276 0.279597
0.816425 0.752952 0.292273
0.909453 0.759108 0.298430
0.294461 0.911394 0.292871
0.475025 0.923343 0.304820
0.662507 0.935750 0.317227
0.854055 0.948426 0.329903
0.947083 0.954583 0.336060
0.135838 0.069904 0.307629
0.316402 0.081853 0.319578
0.503884 0.094260 0.331985
0.695432 0.106936 0.344661
0.788460 0.113092 0.350817
0.174967 0.273161 0.346757
0.355530 0.285110 0.358706
0.543012 0.297517 0.371113
0.734560 0.310193 0.383789
0.827588 0.316349 0.389946
0.217208 0.492587 0.388998
0.397771 0.504536 0.400947
0.585253 0.516943 0.413354
0.776801 0.529619 0.426030
0.869829 0.535776 0.432187
0.261004 0.720092 0.432794
0.441568 0.732041 0.444743
0.629050 0.744448 0.457150
0.820597 0.757124 0.469826
0.913625 0.763281 0.475983
0.298634 0.915567 0.470424
0.479198 0.927516 0.482374
0.666680 0.939923 0.494781
0.858228 0.952599 0.507457
0.951255 0.958755 0.513613
0.140324 0.074390 0.498517
0.320888 0.086339 0.510466
0.508370 0.098746 0.522873
0.699918 0.111422 0.535549
0.792946 0.117578 0.541705
0.179453 0.277647 0.537645
0.360016 0.289596 0.549594
0.547498 0.302003 0.562001
0.739046 0.314679 0.574677
0.832074 0.320835 0.580834
0.221694 0.497073 0.579886
0.402257 0.509022 0.591835
0.589739 0.521429 0.604242
0.781287 0.534105 0.616918
0.874315 0.540262 0.623075
0.265490 0.724578 0.623682
0.446054 0.736527 0.635632
0.633536 0.748934 0.648039
0.825083 0.761610 0.660715
0.918111 0.767767 0.666871
0.303120 0.920053 0.661313
0.483684 0.932002 0.673262
0.671166 0.944409 0.685669
0.862714 0.957085 0.698345
0.955741 0.963241 0.704501
0.145008 0.079073 0.697811
0.325572 0.091022 0.709760
0.513054 0.103429 0.722167
0.704602 0.116106 0.734843
0.797629 0.122262 0.740999
0.184136 0.282331 0.736939
0.364700 0.294280 0.748888
0.552182 0.306687 0.761295
0.743730 0.319363 0.773972
0.836758 0.325519 0.780128
0.226377 0.501757 0.779180
0.406941 0.513706 0.791129
0.594423 0.526113 0.803536
0.785971 0.538789 0.816212
0.878999 0.544945 0.822369
0.270174 0.729262 0.822977
0.450737 0.741211 0.834926
0.638219 0.753618 0.847333
0.829767 0.766294 0.860009
0.922795 0.772450 0.866165
0.307804 0.924737 0.860607
0.488367 0.936686 0.872556
0.675849 0.949093 0.884963
0.867397 0.961769 0.897639
0.960425 0.967925 0.903795
