luts/film_stocks/16mm_reversal_vintage.cube
TITLE "16mm Reversal Vintage"
LUT_3D_SIZE 17
DOMAIN_MIN 0.0 0.0 0.0
DOMAIN_MAX 1.0 1.0 1.0
0.129508 0.063573 0.038257
0.173654 0.066495 0.041179
0.218575 0.069467 0.044151
0.264085 0.072479 0.047163
0.310072 0.075522 0.050206
0.356460 0.078592 0.053276
0.403196 0.081685 0.056369
0.450238 0.084798 0.059482
0.497553 0.087929 0.062613
0.545117 0.091077 0.065761
0.592908 0.094240 0.068923
0.640908 0.097416 0.072100
0.689101 0.100605 0.075289
0.737475 0.103807 0.078490
0.782129 0.106762 0.081446
0.782129 0.106762 0.081446
0.782129 0.106762 0.081446
0.138745 0.111554 0.047494
0.182891 0.114476 0.050415
0.227812 0.117448 0.053388
0.273321 0.120460 0.056400
0.319308 0.123503 0.059443
0.365697 0.126573 0.062513
0.412432 0.129666 0.065606
0.459474 0.132779 0.068719
0.506790 0.135910 0.071850
0.554354 0.139058 0.074997
0.602145 0.142221 0.078160
0.650145 0.145397 0.081337
0.698338 0.148586 0.084526
0.746712 0.151788 0.087727
0.791366 0.154743 0.090682
0.791366 0.154743 0.090682
0.791366 0.154743 0.090682
0.148446 0.161951 0.057195
0.192592 0.164873 0.060117
0.237513 0.167845 0.063090
0.283023 0.170857 0.066101
0.329010 0.173900 0.069145
0.375398 0.176970 0.072214
0.422134 0.180063 0.075307
0.469176 0.183176 0.078420
0.516492 0.186307 0.081552
0.564056 0.189455 0.084699
0.611847 0.192618 0.087862
0.659846 0.195794 0.091038
0.708040 0.198983 0.094228
0.756414 0.202185 0.097429
0.801068 0.205140 0.100384
0.801068 0.205140 0.100384
0.801068 0.205140 0.100384
0.158436 0.213842 0.067185
0.202582 0.216763 0.070106
0.247503 0.219736 0.073079
0.293012 0.222748 0.076091
0.338999 0.225791 0.079134
0.385388 0.228861 0.082204
0.432123 0.231954 0.085297
0.479165 0.235067 0.088410
0.526481 0.238198 0.091541
0.574045 0.241346 0.094689
0.621836 0.244508 0.097851
0.669836 0.247685 0.101028
0.718029 0.250874 0.104217
0.766403 0.254075 0.107418
0.811057 0.257030 0.110373
0.811057 0.257030 0.110373
0.811057 0.257030 0.110373
0.168636 0.266830 0.077385
0.212782 0.269752 0.080307
0.257703 0.272724 0.083280
0.303213 0.275736 0.086291
0.349200 0.278779 0.089335
0.395588 0.281849 0.092404
0.442324 0.284942 0.095497
0.489366 0.288055 0.098610
0.536682 0.291186 0.101741
0.584246 0.294334 0.104889
0.632037 0.297497 0.108052
0.680036 0.300673 0.111228
0.728230 0.303862 0.114418
0.776604 0.307064 0.117619
0.821258 0.310019 0.120574
0.821258 0.310019 0.120574
0.821258 0.310019 0.120574
0.179005 0.320692 0.087754
0.223151 0.323613 0.090676
0.268072 0.326586 0.093648
0.313582 0.329598 0.096660
0.359569 0.332641 0.099703
0.405957 0.335711 0.102773
0.452693 0.338804 0.105866
0.499735 0.341917 0.108979
0.547051 0.345048 0.112110
0.594615 0.348196 0.115258
0.642405 0.351358 0.118421
0.690405 0.354535 0.121597
0.738598 0.357724 0.124786
0.786972 0.360925 0.127988
0.831626 0.363880 0.130943
0.831626 0.363880 0.130943
0.831626 0.363880 0.130943
0.189514 0.375281 0.098263
0.233660 0.378202 0.101184
0.278581 0.381175 0.104157
0.324090 0.384187 0.107169
0.370077 0.387230 0.110212
0.416466 0.390300 0.113282
0.463201 0.393393 0.116375
0.510243 0.396506 0.119488
0.557559 0.399637 0.122619
0.605123 0.402785 0.125767
0.652914 0.405947 0.128929
0.700914 0.409124 0.132106
0.749107 0.412313 0.135295
0.797481 0.415514 0.138496
0.842135 0.418470 0.141451
0.842135 0.418470 0.141451
0.842135 0.418470 0.141451
0.200143 0.430495 0.108892
0.244289 0.433416 0.111813
0.289210 0.436389 0.114786
0.334719 0.439401 0.117798
0.380706 0.442444 0.120841
0.427095 0.445514 0.123911
0.473830 0.448607 0.127004
0.520872 0.451720 0.130117
0.568188 0.454851 0.133248
0.615752 0.457998 0.136396
0.663543 0.461161 0.139558
0.711543 0.464338 0.142735
0.759736 0.467527 0.145924
0.808110 0.470728 0.149125
0.852764 0.473683 0.152080
0.852764 0.473683 0.152080
0.852764 0.473683 0.152080
0.210877 0.486257 0.119626
0.255023 0.489178 0.122548
0.299944 0.492151 0.125521
0.345454 0.495162 0.128532
0.391441 0.498206 0.131575
0.437829 0.501276 0.134645
0.484565 0.504368 0.137738
0.531607 0.507481 0.140851
0.578923 0.510613 0.143982
0.626487 0.513760 0.147130
0.674278 0.516923 0.150293
0.722277 0.520099 0.153469
0.770471 0.523289 0.156659
0.818845 0.526490 0.159860
0.863499 0.529445 0.162815
0.863499 0.529445 0.162815
0.863499 0.529445 0.162815
0.221706 0.542507 0.130455
0.265852 0.545429 0.133376
0.310773 0.548401 0.136349
0.356283 0.551413 0.139361
0.402269 0.554456 0.142404
0.448658 0.557526 0.145474
0.495394 0.560619 0.148567
0.542436 0.563732 0.151680
0.589751 0.566863 0.154811
0.637315 0.570011 0.157959
0.685106 0.573174 0.161121
0.733106 0.576350 0.164298
0.781299 0.579539 0.167487
0.829673 0.582741 0.170688
0.874327 0.585696 0.173643
0.874327 0.585696 0.173643
0.874327 0.585696 0.173643
0.232619 0.599200 0.141369
0.276766 0.602121 0.144290
0.321686 0.605094 0.147263
0.367196 0.608106 0.150275
0.413183 0.611149 0.153318
0.459572 0.614219 0.156388
0.506307 0.617312 0.159480
0.553349 0.620425 0.162594
0.600665 0.623556 0.165725
0.648229 0.626704 0.168872
0.696020 0.629866 0.172035
0.744020 0.633043 0.175212
0.792213 0.636232 0.178401
0.840587 0.639433 0.181602
0.885241 0.642388 0.184557
0.885241 0.642388 0.184557
0.885241 0.642388 0.184557
0.243611 0.656295 0.152360
0.287757 0.659217 0.155281
0.332678 0.662190 0.158254
0.378188 0.665201 0.161266
0.424174 0.668244 0.164309
0.470563 0.671314 0.167379
0.517299 0.674407 0.170472
0.564340 0.677520 0.173585
0.611656 0.680651 0.176716
0.659220 0.683799 0.179864
0.707011 0.686962 0.183026
0.755011 0.690138 0.186203
0.803204 0.693328 0.189392
0.851578 0.696529 0.192593
0.896232 0.699484 0.195548
0.896232 0.699484 0.195548
0.896232 0.699484 0.195548
0.254673 0.713762 0.163423
0.298820 0.716683 0.166344
0.343740 0.719656 0.169317
0.389250 0.722668 0.172328
0.435237 0.725711 0.175372
0.481625 0.728781 0.178442
0.528361 0.731874 0.181534
0.575403 0.734987 0.184647
0.622719 0.738118 0.187779
0.670283 0.741265 0.190926
0.718074 0.744428 0.194089
0.766073 0.747605 0.197265
0.814267 0.750794 0.200455
0.862641 0.753995 0.203656
0.907295 0.756950 0.206611
0.907295 0.756950 0.206611
0.907295 0.756950 0.206611
0.265802 0.771572 0.174551
0.309948 0.774493 0.177473
0.354869 0.777466 0.180446
0.400379 0.780478 0.183457
0.446366 0.783521 0.186500
0.492754 0.786591 0.189570
0.539490 0.789683 0.192663
0.586532 0.792797 0.195776
0.633848 0.795928 0.198907
0.681412 0.799075 0.202055
0.729203 0.802238 0.205218
0.777202 0.805415 0.208394
0.825396 0.808604 0.211584
0.873770 0.811805 0.214785
0.918424 0.814760 0.217740
0.918424 0.814760 0.217740
0.918424 0.814760 0.217740
0.276993 0.829702 0.185742
0.321139 0.832623 0.188663
0.366060 0.835596 0.191636
0.411569 0.838608 0.194648
0.457556 0.841651 0.197691
0.503945 0.844721 0.200761
0.550680 0.847814 0.203854
0.597722 0.850927 0.206967
0.645038 0.854058 0.210098
0.692602 0.857206 0.213246
0.740393 0.860368 0.216408
0.788393 0.863545 0.219585
0.836586 0.866734 0.222774
0.884960 0.869935 0.225975
0.929614 0.872890 0.228930
0.929614 0.872890 0.228930
0.929614 0.872890 0.228930
0.288241 0.888132 0.196990
0.332387 0.891053 0.199911
0.377308 0.894026 0.202884
0.422818 0.897038 0.205896
0.468804 0.900081 0.208939
0.515193 0.903151 0.212009
0.561929 0.906244 0.215102
0.608970 0.909357 0.218215
0.656286 0.912488 0.221346
0.703850 0.915635 0.224494
0.751641 0.918798 0.227656
0.799641 0.921975 0.230833
0.847834 0.925164 0.234022
0.896208 0.928365 0.237223
0.940862 0.931320 0.240178
0.940862 0.931320 0.240178
0.940862 0.931320 0.240178
0.292304 0.909236 0.201053
0.336450 0.912158 0.203974
0.381370 0.915131 0.206947
0.426880 0.918142 0.209959
0.472867 0.921186 0.213002
0.519256 0.924255 0.216072
0.565991 0.927348 0.219165
0.613033 0.930461 0.222278
0.660349 0.933593 0.225409
0.707913 0.936740 0.228556
0.755704 0.939903 0.231719
0.803704 0.943079 0.234896
0.851897 0.946269 0.238085
0.900271 0.949470 0.241286
0.944925 0.952425 0.244241
0.944925 0.952425 0.244241
0.944925 0.952425 0.244241
0.129508 0.063573 0.038257
0.173654 0.066495 0.041179
0.218575 0.069467 0.044151
0.264085 0.072479 0.047163
0.310072 0.075522 0.050206
0.356460 0.078592 0.053276
0.403196 0.081685 0.056369
0.450238 0.084798 0.059482
0.497553 0.087929 0.062613
0.545117 0.091077 0.065761
0.592908 0.094240 0.068923
0.640908 0.097416 0.072100
0.689101 0.100605 0.075289
0.737475 0.103807 0.078490
0.782129 0.106762 0.081446
0.782129 0.106762 0.081446
0.782129 0.106762 0.081446
0.138745 0.111554 0.047494
0.182891 0.114476 0.050415
0.227812 0.117448 0.053388
0.273321 0.120460 0.056400
0.319308 0.123503 0.059443
0.365697 0.126573 0.062513
0.412432 0.129666 0.065606
0.459474 0.132779 0.068719
0.506790 0.135910 0.071850
0.554354 0.139058 0.074997
0.602145 0.142221 0.078160
0.650145 0.145397 0.081337
0.698338 0.148586 0.084526
0.746712 0.151788 0.087727
0.791366 0.154743 0.090682
0.791366 0.154743 0.090682
0.791366 0.154743 0.090682
0.148446 0.161951 0.057195
0.192592 0.164873 0.060117
0.237513 0.167845 0.063090
0.283023 0.170857 0.066101
0.329010 0.173900 0.069145
0.375398 0.176970 0.072214
0.422134 0.180063 0.075307
0.469176 0.183176 0.078420
0.516492 0.186307 0.081552
0.564056 0.189455 0.084699
0.611847 0.192618 0.087862
0.659846 0.195794 0.091038
0.708040 0.198983 0.094228
0.756414 0.202185 0.097429
0.801068 0.205140 0.100384
0.801068 0.205140 0.100384
0.801068 0.205140 0.100384
0.158436 0.213842 0.067185
0.202582 0.216763 0.070106
0.247503 0.219736 0.073079
0.293012 0.222748 0.076091
0.338999 0.225791 0.079134
0.385388 0.228861 0.082204
0.432123 0.231954 0.085297
0.479165 0.235067 0.088410
0.526481 0.238198 0.091541
0.574045 0.241346 0.094689
0.621836 0.244508 0.097851
0.669836 0.247685 0.101028
0.718029 0.250874 0.104217
0.766403 0.254075 0.107418
0.811057 0.257030 0.110373
0.811057 0.257030 0.110373
0.811057 0.257030 0.110373
0.168636 0.266830 0.077385
0.212782 0.269752 0.080307
0.257703 0.272724 0.083280
0.303213 0.275736 0.086291
0.349200 0.278779 0.089335
0.395588 0.281849 0.092404
0.442324 0.284942 0.095497
0.489366 0.288055 0.098610
0.536682 0.291186 0.101741
0.584246 0.294334 0.104889
0.632037 0.297497 0.108052
0.680036 0.300673 0.111228
0.728230 0.303862 0.114418
0.776604 0.307064 0.117619
0.821258 0.310019 0.120574
0.821258 0.310019 0.120574
0.821258 0.310019 0.120574
0.179005 0.320692 0.087754
0.223151 0.323613 0.090676
0.268072 0.326586 0.093648
0.313582 0.329598 0.096660
0.359569 0.332641 0.099703
0.405957 0.335711 0.102773
0.452693 0.338804 0.105866
0.499735 0.341917 0.108979
0.547051 0.345048 0.112110
0.594615 0.348196 0.115258
0.642405 0.351358 0.118421
0.690405 0.354535 0.121597
0.738598 0.357724 0.124786
0.786972 0.360925 0.127988
0.831626 0.363880 0.130943
0.831626 0.363880 0.130943
0.831626 0.363880 0.130943
0.189514 0.375281 0.098263
0.233660 0.378202 0.101184
0.278581 0.381175 0.104157
0.324090 0.384187 0.107169
0.370077 0.387230 0.110212
0.416466 0.390300 0.113282
0.463201 0.393393 0.116375
0.510243 0.396506 0.119488
0.557559 0.399637 0.122619
0.605123 0.402785 0.125767
0.652914 0.405947 0.128929
0.700914 0.409124 0.132106
0.749107 0.412313 0.135295
0.797481 0.415514 0.138496
0.842135 0.418470 0.141451
0.842135 0.418470 0.141451
0.842135 0.418470 0.141451
0.200143 0.430495 0.108892
0.244289 0.433416 0.111813
0.289210 0.436389 0.114786
0.334719 0.439401 0.117798
0.380706 0.442444 0.120841
0.427095 0.445514 0.123911
0.473830 0.448607 0.127004
0.520872 0.451720 0.130117
0.568188 0.454851 0.133248
0.615752 0.457998 0.136396
0.663543 0.461161 0.139558
0.711543 0.464338 0.142735
0.759736 0.467527 0.145924
0.808110 0.470728 0.149125
0.852764 0.473683 0.152080
0.852764 0.473683 0.152080
0.852764 0.473683 0.152080
0.210877 0.486257 0.119626
0.255023 0.489178 0.122548
0.299944 0.492151 0.125521
0.345454 0.495162 0.128532
0.391441 0.498206 0.131575
0.437829 0.501276 0.134645
0.484565 0.504368 0.137738
0.531607 0.507481 0.140851
0.578923 0.510613 0.143982
0.626487 0.513760 0.147130
0.674278 0.516923 0.150293
0.722277 0.520099 0.153469
0.770471 0.523289 0.156659
0.818845 0.526490 0.159860
0.863499 0.529445 0.162815
0.863499 0.529445 0.162815
0.863499 0.529445 0.162815
0.221706 0.542507 0.130455
0.265852 0.545429 0.133376
0.310773 0.548401 0.136349
0.356283 0.551413 0.139361
0.402269 0.554456 0.142404
0.448658 0.557526 0.145474
0.495394 0.560619 0.148567
0.542436 0.563732 0.151680
0.589751 0.566863 0.154811
0.637315 0.570011 0.157959
0.685106 0.573174 0.161121
0.733106 0.576350 0.164298
0.781299 0.579539 0.167487
0.829673 0.582741 0.170688
0.874327 0.585696 0.173643
0.874327 0.585696 0.173643
0.874327 0.585696 0.173643
0.232619 0.599200 0.141369
0.276766 0.602121 0.144290
0.321686 0.605094 0.147263
0.367196 0.608106 0.150275
0.413183 0.611149 0.153318
0.459572 0.614219 0.156388
0.506307 0.617312 0.159480
0.553349 0.620425 0.162594
0.600665 0.623556 0.165725
0.648229 0.626704 0.168872
0.696020 0.629866 0.172035
0.744020 0.633043 0.175212
0.792213 0.636232 0.178401
0.840587 0.639433 0.181602
0.885241 0.642388 0.184557
0.885241 0.642388 0.184557
0.885241 0.642388 0.184557
0.243611 0.656295 0.152360
0.287757 0.659217 0.155281
0.332678 0.662190 0.158254
0.378188 0.665201 0.161266
0.424174 0.668244 0.164309
0.470563 0.671314 0.167379
0.517299 0.674407 0.170472
0.564340 0.677520 0.173585
0.611656 0.680651 0.176716
0.659220 0.683799 0.179864
0.707011 0.686962 0.183026
0.755011 0.690138 0.186203
0.803204 0.693328 0.189392
0.851578 0.696529 0.192593
0.896232 0.699484 0.195548
0.896232 0.699484 0.195548
0.896232 0.699484 0.195548
0.254673 0.713762 0.163423
0.298820 0.716683 0.166344
0.343740 0.719656 0.169317
0.389250 0.722668 0.172328
0.435237 0.725711 0.175372
0.481625 0.728781 0.178442
0.528361 0.731874 0.181534
0.575403 0.734987 0.184647
0.622719 0.738118 0.187779
0.670283 0.741265 0.190926
0.718074 0.744428 0.194089
0.766073 0.747605 0.197265
0.814267 0.750794 0.200455
0.862641 0.753995 0.203656
0.907295 0.756950 0.206611
0.907295 0.756950 0.206611
0.907295 0.756950 0.206611
0.265802 0.771572 0.174551
0.309948 0.774493 0.177473
0.354869 0.777466 0.180446
0.400379 0.780478 0.183457
0.446366 0.783521 0.186500
0.492754 0.786591 0.189570
0.539490 0.789683 0.192663
0.586532 0.792797 0.195776
0.633848 0.795928 0.198907
0.681412 0.799075 0.202055
0.729203 0.802238 0.205218
0.777202 0.805415 0.208394
0.825396 0.808604 0.211584
0.873770 0.811805 0.214785
0.918424 0.814760 0.217740
0.918424 0.814760 0.217740
0.918424 0.814760 0.217740
0.276993 0.829702 0.185742
0.321139 0.832623 0.188663
0.366060 0.835596 0.191636
0.411569 0.838608 0.194648
0.457556 0.841651 0.197691
0.503945 0.844721 0.200761
0.550680 0.847814 0.203854
0.597722 0.850927 0.206967
0.645038 0.854058 0.210098
0.692602 0.857206 0.213246
0.740393 0.860368 0.216408
0.788393 0.863545 0.219585
0.836586 0.866734 0.222774
0.884960 0.869935 0.225975
0.929614 0.872890 0.228930
0.929614 0.872890 0.228930
0.929614 0.872890 0.228930
0.288241 0.888132 0.196990
0.332387 0.891053 0.199911
0.377308 0.894026 0.202884
0.422818 0.897038 0.205896
0.468804 0.900081 0.208939
0.515193 0.903151 0.212009
0.561929 0.906244 0.215102
0.608970 0.909357 0.218215
0.656286 0.912488 0.221346
0.703850 0.915635 0.224494
0.751641 0.918798 0.227656
0.799641 0.921975 0.230833
0.847834 0.925164 0.234022
0.896208 0.928365 0.237223
0.940862 0.931320 0.240178
0.940862 0.931320 0.240178
0.940862 0.931320 0.240178
0.292304 0.909236 0.201053
0.336450 0.912158 0.203974
0.381370 0.915131 0.206947
0.426880 0.918142 0.209959
0.472867 0.921186 0.213002
0.519256 0.924255 0.216072
0.565991 0.927348 0.219165
0.613033 0.930461 0.222278
0.660349 0.933593 0.225409
0.707913 0.936740 0.228556
0.755704 0.939903 0.231719
0.803704 0.943079 0.234896
0.851897 0.946269 0.238085
0.900271 0.949470 0.241286
0.944925 0.952425 0.244241
0.944925 0.952425 0.244241
0.944925 0.952425 0.244241
0.129822 0.063887 0.051618
0.173968 0.066809 0.054539
0.218889 0.069781 0.057512
0.264399 0.072793 0.060524
0.310386 0.075836 0.063567
0.356774 0.078906 0.066637
0.403510 0.081999 0.069730
0.450552 0.085112 0.072843
0.497867 0.088243 0.075974
0.545431 0.091391 0.079122
0.593222 0.094554 0.082284
0.641222 0.097730 0.085461
0.689415 0.100919 0.088650
0.737789 0.104121 0.091851
0.782443 0.107076 0.094806
0.782443 0.107076 0.094806
0.782443 0.107076 0.094806
0.139059 0.111868 0.060855
0.183205 0.114790 0.063776
0.228125 0.117762 0.066749
0.273635 0.120774 0.069761
0.319622 0.123817 0.072804
0.366011 0.126887 0.075874
0.412746 0.129980 0.078966
0.459788 0.133093 0.082080
0.507104 0.136224 0.085211
0.554668 0.139372 0.088358
0.602459 0.142535 0.091521
0.650459 0.145711 0.094698
0.698652 0.148900 0.097887
0.747026 0.152102 0.101088
0.791680 0.155057 0.104043
0.791680 0.155057 0.104043
0.791680 0.155057 0.104043
0.148760 0.162265 0.070556
0.192906 0.165187 0.073478
0.237827 0.168159 0.076451
0.283337 0.171171 0.079462
0.329324 0.174214 0.082506
0.375712 0.177284 0.085575
0.422448 0.180377 0.088668
0.469490 0.183490 0.091781
0.516806 0.186621 0.094913
0.564370 0.189769 0.098060
0.612161 0.192932 0.101223
0.660160 0.196108 0.104399
0.708354 0.199297 0.107589
0.756728 0.202499 0.110790
0.801382 0.205454 0.113745
0.801382 0.205454 0.113745
0.801382 0.205454 0.113745
0.158750 0.214156 0.080546
0.202896 0.217077 0.083467
0.247817 0.220050 0.086440
0.293326 0.223062 0.089452
0.339313 0.226105 0.092495
0.385702 0.229175 0.095565
0.432437 0.232268 0.098657
0.479479 0.235381 0.101771
0.526795 0.238512 0.104902
0.574359 0.241660 0.108049
0.622150 0.244822 0.111212
0.670150 0.247999 0.114389
0.718343 0.251188 0.117578
0.766717 0.254389 0.120779
0.811371 0.257344 0.123734
0.811371 0.257344 0.123734
0.811371 0.257344 0.123734
0.168950 0.267144 0.090746
0.213096 0.270066 0.093668
0.258017 0.273038 0.096640
0.303527 0.276050 0.099652
0.349514 0.279093 0.102695
0.395902 0.282163 0.105765
0.442638 0.285256 0.108858
0.489680 0.288369 0.111971
0.536996 0.291500 0.115102
0.584560 0.294648 0.118250
0.632351 0.297811 0.121413
0.680350 0.300987 0.124589
0.728544 0.304176 0.127778
0.776918 0.307378 0.130980
0.821572 0.310333 0.133935
0.821572 0.310333 0.133935
0.821572 0.310333 0.133935
0.179319 0.321006 0.101115
0.223465 0.323927 0.104036
0.268386 0.326900 0.107009
0.313896 0.329912 0.110021
0.359883 0.332955 0.113064
0.406271 0.336025 0.116134
0.453007 0.339118 0.119227
0.500049 0.342231 0.122340
0.547365 0.345362 0.125471
0.594929 0.348510 0.128619
0.642719 0.351672 0.131781
0.690719 0.354849 0.134958
0.738912 0.358038 0.138147
0.787286 0.361239 0.141348
0.831940 0.364194 0.144303
0.831940 0.364194 0.144303
0.831940 0.364194 0.144303
0.189828 0.375595 0.111624
0.233974 0.378516 0.114545
0.278895 0.381489 0.117518
0.324404 0.384501 0.120530
0.370391 0.387544 0.123573
0.416780 0.390614 0.126643
0.463515 0.393707 0.129736
0.510557 0.396820 0.132849
0.557873 0.399951 0.135980
0.605437 0.403099 0.139128
0.653228 0.406261 0.142290
0.701228 0.409438 0.145467
0.749421 0.412627 0.148656
0.797795 0.415828 0.151857
0.842449 0.418784 0.154812
0.842449 0.418784 0.154812
0.842449 0.418784 0.154812
0.200457 0.430809 0.122253
0.244603 0.433730 0.125174
0.289524 0.436703 0.128147
0.335033 0.439715 0.131159
0.381020 0.442758 0.134202
0.427409 0.445828 0.137272
0.474144 0.448921 0.140365
0.521186 0.452034 0.143478
0.568502 0.455165 0.146609
0.616066 0.458312 0.149757
0.663857 0.461475 0.152919
0.711857 0.464652 0.156096
0.760050 0.467841 0.159285
0.808424 0.471042 0.162486
0.853078 0.473997 0.165441
0.853078 0.473997 0.165441
0.853078 0.473997 0.165441
0.211191 0.486571 0.132987
0.255337 0.489492 0.135909
0.300258 0.492465 0.138881
0.345768 0.495476 0.141893
0.391755 0.498520 0.144936
0.438143 0.501590 0.148006
0.484879 0.504682 0.151099
0.531921 0.507795 0.154212
0.579237 0.510927 0.157343
0.626801 0.514074 0.160491
0.674592 0.517237 0.163654
0.722591 0.520413 0.166830
0.770785 0.523603 0.170019
0.819159 0.526804 0.173221
0.863813 0.529759 0.176176
0.863813 0.529759 0.176176
0.863813 0.529759 0.176176
0.222020 0.542821 0.143816
0.266166 0.545743 0.146737
0.311087 0.548715 0.149710
0.356597 0.551727 0.152722
0.402583 0.554770 0.155765
0.448972 0.557840 0.158835
0.495708 0.560933 0.161928
0.542750 0.564046 0.165041
0.590065 0.567177 0.168172
0.637629 0.570325 0.171320
0.685420 0.573488 0.174482
0.733420 0.576664 0.177659
0.781613 0.579853 0.180848
0.829987 0.583055 0.184049
0.874641 0.586010 0.187004
0.874641 0.586010 0.187004
0.874641 0.586010 0.187004
0.232933 0.599514 0.154730
0.277080 0.602435 0.157651
0.322000 0.605408 0.160624
0.367510 0.608420 0.163635
0.413497 0.611463 0.166679
0.459886 0.614533 0.169749
0.506621 0.617626 0.172841
0.553663 0.620739 0.175954
0.600979 0.623870 0.179086
0.648543 0.627018 0.182233
0.696334 0.630180 0.185396
0.744334 0.633357 0.188572
0.792527 0.636546 0.191762
0.840901 0.639747 0.194963
0.885555 0.642702 0.197918
0.885555 0.642702 0.197918
0.885555 0.642702 0.197918
0.243925 0.656609 0.165721
0.288071 0.659531 0.168642
0.332992 0.662504 0.171615
0.378502 0.665515 0.174627
0.424488 0.668558 0.177670
0.470877 0.671628 0.180740
0.517613 0.674721 0.183833
0.564654 0.677834 0.186946
0.611970 0.680965 0.190077
0.659534 0.684113 0.193225
0.707325 0.687276 0.196387
0.755325 0.690452 0.199564
0.803518 0.693642 0.202753
0.851892 0.696843 0.205954
0.896546 0.699798 0.208909
0.896546 0.699798 0.208909
0.896546 0.699798 0.208909
0.254987 0.714076 0.176783
0.299134 0.716997 0.179705
0.344054 0.719970 0.182678
0.389564 0.722982 0.185689
0.435551 0.726025 0.188733
0.481939 0.729095 0.191802
0.528675 0.732188 0.194895
0.575717 0.735301 0.198008
0.623033 0.738432 0.201140
0.670597 0.741579 0.204287
0.718388 0.744742 0.207450
0.766387 0.747919 0.210626
0.814581 0.751108 0.213816
0.862955 0.754309 0.217017
0.907609 0.757264 0.219972
0.907609 0.757264 0.219972
0.907609 0.757264 0.219972
0.266116 0.771886 0.187912
0.310262 0.774807 0.190834
0.355183 0.777780 0.193806
0.400693 0.780792 0.196818
0.446680 0.783835 0.199861
0.493068 0.786905 0.202931
0.539804 0.789997 0.206024
0.586846 0.793111 0.209137
0.634162 0.796242 0.212268
0.681726 0.799389 0.215416
0.729517 0.802552 0.218579
0.777516 0.805729 0.221755
0.825710 0.808918 0.224944
0.874084 0.812119 0.228146
0.918738 0.815074 0.231101
0.918738 0.815074 0.231101
0.918738 0.815074 0.231101
0.277307 0.830016 0.199103
0.321453 0.832937 0.202024
0.366374 0.835910 0.204997
0.411883 0.838922 0.208009
0.457870 0.841965 0.211052
0.504259 0.845035 0.214122
0.550994 0.848128 0.217215
0.598036 0.851241 0.220328
0.645352 0.854372 0.223459
0.692916 0.857520 0.226606
0.740707 0.860682 0.229769
0.788707 0.863859 0.232946
0.836900 0.867048 0.236135
0.885274 0.870249 0.239336
0.929928 0.873204 0.242291
0.929928 0.873204 0.242291
0.929928 0.873204 0.242291
0.288555 0.888446 0.210351
0.332701 0.891367 0.213272
0.377622 0.894340 0.216245
0.423132 0.897352 0.219257
0.469118 0.900395 0.222300
0.515507 0.903465 0.225370
0.562243 0.906558 0.228463
0.609284 0.909671 0.231576
0.656600 0.912802 0.234707
0.704164 0.915949 0.237855
0.751955 0.919112 0.241017
0.799955 0.922289 0.244194
0.848148 0.925478 0.247383
0.896522 0.928679 0.250584
0.941176 0.931634 0.253539
0.941176 0.931634 0.253539
0.941176 0.931634 0.253539
0.292618 0.909550 0.214414
0.336764 0.912472 0.217335
0.381684 0.915445 0.220308
0.427194 0.918456 0.223320
0.473181 0.921500 0.226363
0.519570 0.924569 0.229433
0.566305 0.927662 0.232525
0.613347 0.930775 0.235639
0.660663 0.933907 0.238770
0.708227 0.937054 0.241917
0.756018 0.940217 0.245080
0.804018 0.943393 0.248257
0.852211 0.946583 0.251446
0.900585 0.949784 0.254647
0.945239 0.952739 0.257602
0.945239 0.952739 0.257602
0.945239 0.952739 0.257602
0.130708 0.064774 0.089342
0.174855 0.067695 0.092263
0.219775 0.070668 0.095236
0.265285 0.073680 0.098248
0.311272 0.076723 0.101291
0.357661 0.079793 0.104361
0.404396 0.082885 0.107454
0.451438 0.085999 0.110567
0.498754 0.089130 0.113698
0.546318 0.092277 0.116846
0.594109 0.095440 0.120008
0.642109 0.098617 0.123185
0.690302 0.101806 0.126374
0.738676 0.105007 0.129575
0.783330 0.107962 0.132530
0.783330 0.107962 0.132530
0.783330 0.107962 0.132530
0.139945 0.112755 0.098579
