luts/film_stocks/16mm_reversal_vintage.cube
TITLE "16mm Reversal Vintage"
LUT_3D_SIZE 9
DOMAIN_MIN 0.0 0.0 0.0
DOMAIN_MAX 1.0 1.0 1.0
0.129508 0.063573 0.038257
0.218575 0.069467 0.044151
0.310072 0.075522 0.050206
0.403196 0.081685 0.056369
0.497553 0.087929 0.062613
0.592908 0.094240 0.068923
0.689101 0.100605 0.075289
0.782129 0.106762 0.081446
0.782129 0.106762 0.081446
0.148446 0.161951 0.057195
0.237513 0.167845 0.063090
0.329010 0.173900 0.069145
0.422134 0.180063 0.075307
0.516492 0.186307 0.081552
0.611847 0.192618 0.087862
0.708040 0.198983 0.094228
0.801068 0.205140 0.100384
0.801068 0.205140 0.100384
0.168636 0.266830 0.077385
0.257703 0.272724 0.083280
0.349200 0.278779 0.089335
0.442324 0.284942 0.095497
0.536682 0.291186 0.101741
0.632037 0.297497 0.108052
0.728230 0.303862 0.114418
0.821258 0.310019 0.120574
0.821258 0.310019 0.120574
0.189514 0.375281 0.098263
0.278581 0.381175 0.104157
0.370077 0.387230 0.110212
0.463201 0.393393 0.116375
0.557559 0.399637 0.122619
0.652914 0.405947 0.128929
0.749107 0.412313 0.135295
0.842135 0.418470 0.141451
0.842135 0.418470 0.141451
0.210877 0.486257 0.119626
0.299944 0.492151 0.125521
0.391441 0.498206 0.131575
0.484565 0.504368 0.137738
0.578923 0.510613 0.143982
0.674278 0.516923 0.150293
0.770471 0.523289 0.156659
0.863499 0.529445 0.162815
0.863499 0.529445 0.162815
0.232619 0.599200 0.141369
0.321686 0.605094 0.147263
0.413183 0.611149 0.153318
0.506307 0.617312 0.159480
0.600665 0.623556 0.165725
0.696020 0.629866 0.172035
0.792213 0.636232 0.178401
0.885241 0.642388 0.184557
0.885241 0.642388 0.184557
0.254673 0.713762 0.163423
0.343740 0.719656 0.169317
0.435237 0.725711 0.175372
0.528361 0.731874 0.181534
0.622719 0.738118 0.187779
0.718074 0.744428 0.194089
0.814267 0.750794 0.200455
0.907295 0.756950 0.206611
0.907295 0.756950 0.206611
0.276993 0.829702 0.185742
0.366060 0.835596 0.191636
0.457556 0.841651 0.197691
0.550680 0.847814 0.203854
0.645038 0.854058 0.210098
0.740393 0.860368 0.216408
0.836586 0.866734 0.222774
0.929614 0.872890 0.228930
0.929614 0.872890 0.228930
0.292304 0.909236 0.201053
0.381370 0.915131 0.206947
0.472867 0.921186 0.213002
0.565991 0.927348 0.219165
0.660349 0.933593 0.225409
0.755704 0.939903 0.231719
0.851897 0.946269 0.238085
0.944925 0.952425 0.244241
0.944925 0.952425 0.244241
0.129822 0.063887 0.051618
0.218889 0.069781 0.057512
0.310386 0.075836 0.063567
0.403510 0.081999 0.069730
0.497867 0.088243 0.075974
0.593222 0.094554 0.082284
0.689415 0.100919 0.088650
0.782443 0.107076 0.094806
0.782443 0.107076 0.094806
0.148760 0.162265 0.070556
0.237827 0.168159 0.076451
0.329324 0.174214 0.082506
0.422448 0.180377 0.088668
0.516806 0.186621 0.094913
0.612161 0.192932 0.101223
0.708354 0.199297 0.107589
0.801382 0.205454 0.113745
0.801382 0.205454 0.113745
0.168950 0.267144 0.090746
0.258017 0.273038 0.096640
0.349514 0.279093 0.102695
0.442638 0.285256 0.108858
0.536996 0.291500 0.115102
0.632351 0.297811 0.121413
0.728544 0.304176 0.127778
0.821572 0.310333 0.133935
0.821572 0.310333 0.133935
0.189828 0.375595 0.111624
0.278895 0.381489 0.117518
0.370391 0.387544 0.123573
0.463515 0.393707 0.129736
0.557873 0.399951 0.135980
0.653228 0.406261 0.142290
0.749421 0.412627 0.148656
0.842449 0.418784 0.154812
0.842449 0.418784 0.154812
0.211191 0.486571 0.132987
0.300258 0.492465 0.138881
0.391755 0.498520 0.144936
0.484879 0.504682 0.151099
0.579237 0.510927 0.157343
0.674592 0.517237 0.163654
0.770785 0.523603 0.170019
0.863813 0.529759 0.176176
0.863813 0.529759 0.176176
0.232933 0.599514 0.154730
0.322000 0.605408 0.160624
0.413497 0.611463 0.166679
0.506621 0.617626 0.172841
0.600979 0.623870 0.179086
0.696334 0.630180 0.185396
0.792527 0.636546 0.191762
0.885555 0.642702 0.197918
0.885555 0.642702 0.197918
0.254987 0.714076 0.176783
0.344054 0.719970 0.182678
0.435551 0.726025 0.188733
0.528675 0.732188 0.194895
0.623033 0.738432 0.201140
0.718388 0.744742 0.207450
0.814581 0.751108 0.213816
0.907609 0.757264 0.219972
0.907609 0.757264 0.219972
0.277307 0.830016 0.199103
0.366374 0.835910 0.204997
0.457870 0.841965 0.211052
0.550994 0.848128 0.217215
0.645352 0.854372 0.223459
0.740707 0.860682 0.229769
0.836900 0.867048 0.236135
0.929928 0.873204 0.242291
0.929928 0.873204 0.242291
0.292618 0.909550 0.214414
0.381684 0.915445 0.220308
0.473181 0.921500 0.226363
0.566305 0.927662 0.232525
0.660663 0.933907 0.238770
0.756018 0.940217 0.245080
0.852211 0.946583 0.251446
0.945239 0.952739 0.257602
0.945239 0.952739 0.257602
0.131666 0.065731 0.130076
0.220733 0.071625 0.135970
0.312229 0.077680 0.142025
0.405354 0.083843 0.148187
0.499711 0.090087 0.154432
0.595066 0.096397 0.160742
0.691259 0.102763 0.167108
0.784287 0.108919 0.173264
0.784287 0.108919 0.173264
0.150604 0.164109 0.149014
0.239671 0.170003 0.154908
0.331168 0.176058 0.160963
0.424292 0.182221 0.167126
0.518650 0.188465 0.173370
0.614005 0.194775 0.179680
0.710198 0.201141 0.186046
0.803225 0.207297 0.192202
0.803225 0.207297 0.192202
0.170794 0.268988 0.169204
0.259861 0.274882 0.175098
0.351358 0.280937 0.181153
0.444482 0.287100 0.187316
0.538840 0.293344 0.193560
0.634194 0.299655 0.199870
0.730388 0.306020 0.206236
0.823415 0.312177 0.212392
0.823415 0.312177 0.212392
0.191672 0.377439 0.190081
0.280738 0.383333 0.195976
0.372235 0.389388 0.202030
0.465359 0.395551 0.208193
0.559717 0.401795 0.214437
0.655072 0.408105 0.220748
0.751265 0.414471 0.227114
0.844293 0.420627 0.233270
0.844293 0.420627 0.233270
0.213035 0.488414 0.211445
0.302102 0.494309 0.217339
0.393599 0.500364 0.223394
0.486723 0.506526 0.229557
0.581081 0.512770 0.235801
0.676435 0.519081 0.242111
0.772628 0.525447 0.248477
0.865656 0.531603 0.254633
0.865656 0.531603 0.254633
0.234777 0.601358 0.233187
0.323844 0.607252 0.239081
0.415341 0.613307 0.245136
0.508465 0.619469 0.251299
0.602823 0.625714 0.257543
0.698178 0.632024 0.263854
0.794371 0.638390 0.270219
0.887399 0.644546 0.276376
0.887399 0.644546 0.276376
0.256831 0.715920 0.255241
0.345898 0.721814 0.261135
0.437395 0.727869 0.267190
0.530519 0.734031 0.273353
0.624877 0.740276 0.279597
0.720232 0.746586 0.285907
0.816425 0.752952 0.292273
0.909453 0.759108 0.298430
0.909453 0.759108 0.298430
0.279150 0.831860 0.277560
0.368217 0.837754 0.283454
0.459714 0.843809 0.289509
0.552838 0.849971 0.295672
0.647196 0.856216 0.301916
0.742551 0.862526 0.308227
0.838744 0.868892 0.314592
0.931772 0.875048 0.320749
0.931772 0.875048 0.320749
0.294461 0.911394 0.292871
0.383528 0.917288 0.298765
0.475025 0.923343 0.304820
0.568149 0.929506 0.310983
0.662507 0.935750 0.317227
0.757862 0.942061 0.323538
0.854055 0.948426 0.329903
0.947083 0.954583 0.336060
0.947083 0.954583 0.336060
0.133700 0.067765 0.216619
0.222767 0.073659 0.222513
0.314263 0.079714 0.228568
0.407387 0.085877 0.234730
0.501745 0.092121 0.240975
0.597100 0.098431 0.247285
0.693293 0.104797 0.253651
0.786321 0.110953 0.259807
0.786321 0.110953 0.259807
0.152638 0.166143 0.235557
0.241705 0.172037 0.241451
0.333202 0.178092 0.247506
0.426326 0.184255 0.253669
0.520684 0.190499 0.259913
0.616038 0.196809 0.266223
0.712231 0.203175 0.272589
0.805259 0.209331 0.278745
0.805259 0.209331 0.278745
0.172828 0.271022 0.255747
0.261895 0.276916 0.261641
0.353392 0.282971 0.267696
0.446516 0.289134 0.273859
0.540874 0.295378 0.280103
0.636228 0.301688 0.286413
0.732421 0.308054 0.292779
0.825449 0.314210 0.298935
0.825449 0.314210 0.298935
0.193705 0.379473 0.276624
0.282772 0.385367 0.282519
0.374269 0.391422 0.288574
0.467393 0.397585 0.294736
0.561751 0.403829 0.300981
0.657106 0.410139 0.307291
0.753299 0.416505 0.313657
0.846327 0.422661 0.319813
0.846327 0.422661 0.319813
0.215069 0.490448 0.297988
0.304136 0.496342 0.303882
0.395633 0.502397 0.309937
0.488757 0.508560 0.316100
0.583114 0.514804 0.322344
0.678469 0.521115 0.328654
0.774662 0.527480 0.335020
0.867690 0.533637 0.341176
0.867690 0.533637 0.341176
0.236811 0.603391 0.319730
0.325878 0.609286 0.325624
0.417375 0.615341 0.331679
0.510499 0.621503 0.337842
0.604857 0.627748 0.344086
0.700212 0.634058 0.350397
0.796405 0.640424 0.356762
0.889433 0.646580 0.362919
0.889433 0.646580 0.362919
0.258865 0.717953 0.341784
0.347932 0.723848 0.347678
0.439429 0.729903 0.353733
0.532553 0.736065 0.359896
0.626911 0.742310 0.366140
0.722265 0.748620 0.372451
0.818459 0.754986 0.378816
0.911486 0.761142 0.384973
0.911486 0.761142 0.384973
0.281184 0.833893 0.364103
0.370251 0.839788 0.369997
0.461748 0.845843 0.376052
0.554872 0.852005 0.382215
0.649230 0.858250 0.388459
0.744585 0.864560 0.394770
0.840778 0.870926 0.401135
0.933806 0.877082 0.407292
0.933806 0.877082 0.407292
0.296495 0.913428 0.379414
0.385562 0.919322 0.385308
0.477059 0.925377 0.391363
0.570183 0.931540 0.397526
0.664541 0.937784 0.403770
0.759896 0.944095 0.410081
0.856089 0.950460 0.416446
0.949117 0.956617 0.422603
0.949117 0.956617 0.422603
0.135838 0.069904 0.307629
0.224905 0.075798 0.313523
0.316402 0.081853 0.319578
0.409526 0.088015 0.325741
0.503884 0.094260 0.331985
0.599239 0.100570 0.338295
0.695432 0.106936 0.344661
0.788460 0.113092 0.350817
0.788460 0.113092 0.350817
0.154777 0.168282 0.326567
0.243844 0.174176 0.332461
0.335340 0.180231 0.338516
0.428465 0.186394 0.344679
0.522822 0.192638 0.350923
0.618177 0.198948 0.357234
0.714370 0.205314 0.363599
0.807398 0.211470 0.369756
0.807398 0.211470 0.369756
0.174967 0.273161 0.346757
0.264034 0.279055 0.352651
0.355530 0.285110 0.358706
0.448655 0.291273 0.364869
0.543012 0.297517 0.371113
0.638367 0.303827 0.377423
0.734560 0.310193 0.383789
0.827588 0.316349 0.389946
0.827588 0.316349 0.389946
0.195844 0.381612 0.367635
0.284911 0.387506 0.373529
0.376408 0.393561 0.379584
0.469532 0.399723 0.385746
0.563890 0.405968 0.391991
0.659245 0.412278 0.398301
0.755438 0.418644 0.404667
0.848466 0.424800 0.410823
0.848466 0.424800 0.410823
0.217208 0.492587 0.388998
0.306275 0.498481 0.394892
0.397771 0.504536 0.400947
0.490896 0.510699 0.407110
0.585253 0.516943 0.413354
0.680608 0.523253 0.419664
0.776801 0.529619 0.426030
0.869829 0.535776 0.432187
0.869829 0.535776 0.432187
0.238950 0.605530 0.410740
0.328017 0.611425 0.416635
0.419514 0.617479 0.422690
0.512638 0.623642 0.428852
0.606996 0.629886 0.435096
0.702350 0.636197 0.441407
0.798543 0.642563 0.447773
0.891571 0.648719 0.453929
0.891571 0.648719 0.453929
0.261004 0.720092 0.432794
0.350071 0.725986 0.438688
0.441568 0.732041 0.444743
0.534692 0.738204 0.450906
0.629050 0.744448 0.457150
0.724404 0.750759 0.463461
0.820597 0.757124 0.469826
0.913625 0.763281 0.475983
0.913625 0.763281 0.475983
0.283323 0.836032 0.455113
0.372390 0.841926 0.461008
0.463887 0.847981 0.467063
0.557011 0.854144 0.473225
0.651369 0.860388 0.479470
0.746724 0.866699 0.485780
0.842917 0.873064 0.492146
0.935944 0.879221 0.498302
0.935944 0.879221 0.498302
0.298634 0.915567 0.470424
0.387701 0.921461 0.476319
0.479198 0.927516 0.482374
0.572322 0.933679 0.488536
0.666680 0.939923 0.494781
0.762034 0.946233 0.501091
0.858228 0.952599 0.507457
0.951255 0.958755 0.513613
0.951255 0.958755 0.513613
0.138052 0.072117 0.401823
0.227119 0.078011 0.407717
0.318616 0.084066 0.413772
0.411740 0.090229 0.419935
0.506098 0.096473 0.426179
0.601452 0.102784 0.432490
0.697646 0.109149 0.438855
0.790673 0.115306 0.445012
0.790673 0.115306 0.445012
0.156990 0.170495 0.420762
0.246057 0.176390 0.426656
0.337554 0.182445 0.432711
0.430678 0.188607 0.438873
0.525036 0.194851 0.445118
0.620391 0.201162 0.451428
0.716584 0.207528 0.457794
0.809612 0.213684 0.463950
0.809612 0.213684 0.463950
0.177180 0.275374 0.440951
0.266247 0.281269 0.446846
0.357744 0.287324 0.452901
0.450868 0.293486 0.459063
0.545226 0.299731 0.465308
0.640581 0.306041 0.471618
0.736774 0.312407 0.477984
0.829802 0.318563 0.484140
0.829802 0.318563 0.484140
0.198058 0.383825 0.461829
0.287125 0.389719 0.467723
0.378622 0.395774 0.473778
0.471746 0.401937 0.479941
0.566103 0.408181 0.486185
0.661458 0.414492 0.492495
0.757651 0.420857 0.498861
0.850679 0.427014 0.505017
0.850679 0.427014 0.505017
0.219421 0.494801 0.483192
0.308488 0.500695 0.489087
0.399985 0.506750 0.495142
0.493109 0.512913 0.501304
0.587467 0.519157 0.507549
0.682822 0.525467 0.513859
0.779015 0.531833 0.520225
0.872043 0.537989 0.526381
0.872043 0.537989 0.526381
0.241164 0.607744 0.504935
0.330231 0.613638 0.510829
0.421727 0.619693 0.516884
0.514851 0.625856 0.523047
0.609209 0.632100 0.529291
0.704564 0.638410 0.535601
0.800757 0.644776 0.541967
0.893785 0.650932 0.548123
0.893785 0.650932 0.548123
0.263218 0.722306 0.526989
0.352285 0.728200 0.532883
0.443781 0.734255 0.538938
0.536905 0.740418 0.545100
0.631263 0.746662 0.551345
0.726618 0.752972 0.557655
0.822811 0.759338 0.564021
0.915839 0.765494 0.570177
0.915839 0.765494 0.570177
0.285537 0.838246 0.549308
0.374604 0.844140 0.555202
0.466100 0.850195 0.561257
0.559225 0.856358 0.567420
0.653582 0.862602 0.573664
0.748937 0.868912 0.579974
0.845130 0.875278 0.586340
0.938158 0.881434 0.592496
0.938158 0.881434 0.592496
0.300848 0.917781 0.564619
0.389915 0.923675 0.570513
0.481411 0.929730 0.576568
0.574536 0.935892 0.582731
0.668893 0.942137 0.588975
0.764248 0.948447 0.595285
0.860441 0.954813 0.601651
0.953469 0.960969 0.607807
0.953469 0.960969 0.607807
0.140324 0.074390 0.498517
0.229391 0.080284 0.504411
0.320888 0.086339 0.510466
0.414012 0.092502 0.516629
0.508370 0.098746 0.522873
0.603725 0.105056 0.529183
0.699918 0.111422 0.535549
0.792946 0.117578 0.541705
0.792946 0.117578 0.541705
0.159263 0.172768 0.517455
0.248330 0.178662 0.523349
0.339827 0.184717 0.529404
0.432951 0.190880 0.535567
0.527309 0.197124 0.541811
0.622663 0.203434 0.548122
0.718856 0.209800 0.554487
0.811884 0.215956 0.560644
0.811884 0.215956 0.560644
0.179453 0.277647 0.537645
0.268520 0.283541 0.543539
0.360016 0.289596 0.549594
0.453141 0.295759 0.555757
0.547498 0.302003 0.562001
0.642853 0.308313 0.568312
0.739046 0.314679 0.574677
0.832074 0.320835 0.580834
0.832074 0.320835 0.580834
0.200330 0.386098 0.558523
0.289397 0.391992 0.564417
0.380894 0.398047 0.570472
0.474018 0.404209 0.576634
0.568376 0.410454 0.582879
0.663731 0.416764 0.589189
0.759924 0.423130 0.595555
0.852952 0.429286 0.601711
0.852952 0.429286 0.601711
0.221694 0.497073 0.579886
0.310761 0.502967 0.585780
0.402257 0.509022 0.591835
0.495382 0.515185 0.597998
0.589739 0.521429 0.604242
0.685094 0.527740 0.610553
0.781287 0.534105 0.616918
0.874315 0.540262 0.623075
0.874315 0.540262 0.623075
0.243436 0.610016 0.601628
0.332503 0.615911 0.607523
0.424000 0.621966 0.613578
0.517124 0.628128 0.619740
0.611482 0.634373 0.625985
0.706836 0.640683 0.632295
0.803030 0.647049 0.638661
0.896057 0.653205 0.644817
0.896057 0.653205 0.644817
0.265490 0.724578 0.623682
0.354557 0.730472 0.629577
0.446054 0.736527 0.635632
0.539178 0.742690 0.641794
0.633536 0.748934 0.648039
0.728890 0.755245 0.654349
0.825083 0.761610 0.660715
0.918111 0.767767 0.666871
0.918111 0.767767 0.666871
0.287809 0.840518 0.646002
0.376876 0.846413 0.651896
0.468373 0.852467 0.657951
0.561497 0.858630 0.664113
0.655855 0.864874 0.670358
0.751210 0.871185 0.676668
0.847403 0.877551 0.683034
0.940431 0.883707 0.689190
0.940431 0.883707 0.689190
0.303120 0.920053 0.661313
0.392187 0.925947 0.667207
0.483684 0.932002 0.673262
0.576808 0.938165 0.679424
0.671166 0.944409 0.685669
0.766521 0.950719 0.691979
0.862714 0.957085 0.698345
0.955741 0.963241 0.704501
0.955741 0.963241 0.704501
0.142646 0.076711 0.597279
0.231712 0.082605 0.603173
0.323209 0.088660 0.609228
0.416333 0.094823 0.615391
0.510691 0.101067 0.621635
0.606046 0.107377 0.627945
0.702239 0.113743 0.634311
0.795267 0.119899 0.640467
0.795267 0.119899 0.640467
0.161584 0.175089 0.616217
0.250651 0.180983 0.622111
0.342148 0.187038 0.628166
0.435272 0.193201 0.634329
0.529630 0.199445 0.640573
0.624984 0.205755 0.646884
0.721177 0.212121 0.653249
0.814205 0.218277 0.659406
0.814205 0.218277 0.659406
0.181774 0.279968 0.636407
0.270841 0.285862 0.642301
0.362337 0.291917 0.648356
0.455462 0.298080 0.654519
0.549819 0.304324 0.660763
0.645174 0.310634 0.667074
0.741367 0.317000 0.673439
0.834395 0.323156 0.679596
0.834395 0.323156 0.679596
0.202651 0.388419 0.657285
0.291718 0.394313 0.663179
0.383215 0.400368 0.669234
0.476339 0.406530 0.675397
0.570697 0.412775 0.681641
0.666052 0.419085 0.687951
0.762245 0.425451 0.694317
0.855273 0.431607 0.700473
0.855273 0.431607 0.700473
0.224015 0.499394 0.678648
0.313082 0.505288 0.684542
0.404578 0.511343 0.690597
0.497703 0.517506 0.696760
0.592060 0.523750 0.703004
0.687415 0.530061 0.709315
0.783608 0.536426 0.715680
0.876636 0.542583 0.721837
0.876636 0.542583 0.721837
0.245757 0.612337 0.700390
0.334824 0.618232 0.706285
0.426321 0.624287 0.712340
0.519445 0.630449 0.718502
0.613803 0.636694 0.724747
0.709157 0.643004 0.731057
0.805351 0.649370 0.737423
0.898378 0.655526 0.743579
0.898378 0.655526 0.743579
0.267811 0.726899 0.722444
0.356878 0.732793 0.728339
0.448375 0.738848 0.734394
0.541499 0.745011 0.740556
0.635857 0.751255 0.746801
0.731211 0.757566 0.753111
0.827404 0.763931 0.759477
0.920432 0.770088 0.765633
0.920432 0.770088 0.765633
0.290130 0.842839 0.744764
0.379197 0.848734 0.750658
0.470694 0.854789 0.756713
0.563818 0.860951 0.762875
0.658176 0.867195 0.769120
0.753531 0.873506 0.775430
0.849724 0.879872 0.781796
0.942752 0.886028 0.787952
0.942752 0.886028 0.787952
0.305441 0.922374 0.760075
0.394508 0.928268 0.765969
0.486005 0.934323 0.772024
0.579129 0.940486 0.778186
0.673487 0.946730 0.784431
0.768842 0.953040 0.790741
0.865035 0.959406 0.797107
0.958062 0.965562 0.803263
0.958062 0.965562 0.803263
0.145008 0.079073 0.697811
0.234075 0.084968 0.703705
0.325572 0.091022 0.709760
0.418696 0.097185 0.715923
0.513054 0.103429 0.722167
0.608409 0.109740 0.728477
0.704602 0.116106 0.734843
0.797629 0.122262 0.740999
0.797629 0.122262 0.740999
0.163947 0.177451 0.716749
0.253013 0.183346 0.722644
0.344510 0.189401 0.728699
0.437634 0.195563 0.734861
0.531992 0.201808 0.741106
0.627347 0.208118 0.747416
0.723540 0.214484 0.753782
0.816568 0.220640 0.759938
0.816568 0.220640 0.759938
0.184136 0.282331 0.736939
0.273203 0.288225 0.742834
0.364700 0.294280 0.748888
0.457824 0.300442 0.755051
0.552182 0.306687 0.761295
0.647537 0.312997 0.767606
0.743730 0.319363 0.773972
0.836758 0.325519 0.780128
0.836758 0.325519 0.780128
0.205014 0.390781 0.757817
0.294081 0.396675 0.763711
0.385578 0.402730 0.769766
0.478702 0.408893 0.775929
0.573060 0.415137 0.782173
0.668414 0.421448 0.788483
0.764607 0.427813 0.794849
0.857635 0.433970 0.801005
0.857635 0.433970 0.801005
0.226377 0.501757 0.779180
0.315444 0.507651 0.785074
0.406941 0.513706 0.791129
0.500065 0.519869 0.797292
0.594423 0.526113 0.803536
0.689778 0.532423 0.809847
0.785971 0.538789 0.816212
0.878999 0.544945 0.822369
0.878999 0.544945 0.822369
0.248120 0.614700 0.800923
0.337187 0.620594 0.806817
0.428683 0.626649 0.812872
0.521808 0.632812 0.819034
0.616165 0.639056 0.825279
0.711520 0.645366 0.831589
0.807713 0.651732 0.837955
0.900741 0.657889 0.844111
0.900741 0.657889 0.844111
0.270174 0.729262 0.822977
0.359241 0.735156 0.828871
0.450737 0.741211 0.834926
0.543861 0.747374 0.841088
0.638219 0.753618 0.847333
0.733574 0.759928 0.853643
0.829767 0.766294 0.860009
0.922795 0.772450 0.866165
0.922795 0.772450 0.866165
0.292493 0.845202 0.845296
0.381560 0.851096 0.851190
0.473056 0.857151 0.857245
0.566181 0.863314 0.863408
0.660538 0.869558 0.869652
0.755893 0.875868 0.875962
0.852086 0.882234 0.882328
0.945114 0.888390 0.888484
0.945114 0.888390 0.888484
0.307804 0.924737 0.860607
0.396871 0.930631 0.866501
0.488367 0.936686 0.872556
0.581492 0.942848 0.878718
0.675849 0.949093 0.884963
0.771204 0.955403 0.891273
0.867397 0.961769 0.897639
0.960425 0.967925 0.903795
0.960425 0.967925 0.903795
