luts/film_stocks/fuji_eterna_vivid_500.cube
TITLE "Fuji Eterna Vivid 500"
LUT_3D_SIZE 9
DOMAIN_MIN 0.0 0.0 0.0
DOMAIN_MAX 1.0 1.0 1.0
0.008927 0.020427 0.008927
0.156471 0.016219 0.004719
0.298212 0.012176 0.000676
0.436739 0.008225 0.000000
0.572605 0.004350 0.000000
0.706077 0.000544 0.000000
0.837316 0.000000 0.000000
0.966429 0.000000 0.000000
1.000000 0.000000 0.000000
0.000000 0.173861 0.000000
0.140685 0.169653 0.000000
0.282426 0.165610 0.000000
0.420953 0.161659 0.000000
0.556819 0.157784 0.000000
0.690291 0.153977 0.000000
0.821530 0.150234 0.000000
0.950643 0.146551 0.000000
1.000000 0.142927 0.000000
0.000000 0.313737 0.000000
0.126294 0.309529 0.000000
0.268035 0.305486 0.000000
0.406562 0.301535 0.000000
0.542428 0.297660 0.000000
0.675900 0.293854 0.000000
0.807139 0.290110 0.000000
0.936252 0.286428 0.000000
1.000000 0.282804 0.000000
0.000000 0.446822 0.000000
0.112602 0.442614 0.000000
0.254343 0.438571 0.000000
0.392869 0.434620 0.000000
0.528735 0.430745 0.000000
0.662208 0.426938 0.000000
0.793447 0.423195 0.000000
0.922560 0.419513 0.000000
1.000000 0.415888 0.000000
0.000000 0.574544 0.000000
0.099461 0.570336 0.000000
0.241202 0.566294 0.000000
0.379729 0.562343 0.000000
0.515595 0.558468 0.000000
0.649067 0.554661 0.000000
0.780306 0.550918 0.000000
0.909419 0.547235 0.000000
1.000000 0.543611 0.000000
0.000000 0.697598 0.000000
0.086801 0.693389 0.000000
0.228542 0.689347 0.000000
0.367068 0.685396 0.000000
0.502934 0.681521 0.000000
0.636407 0.677714 0.000000
0.767646 0.673971 0.000000
0.896759 0.670288 0.000000
1.000000 0.666664 0.000000
0.000000 0.816398 0.000000
0.074578 0.812190 0.000000
0.216319 0.808147 0.000000
0.354846 0.804196 0.000000
0.490712 0.800321 0.000000
0.624184 0.796514 0.000000
0.755423 0.792771 0.000000
0.884536 0.789089 0.000000
1.000000 0.785465 0.000000
0.000000 0.931228 0.000000
0.062764 0.927020 0.000000
0.204505 0.922977 0.000000
0.343031 0.919026 0.000000
0.478897 0.915151 0.000000
0.612370 0.911345 0.000000
0.743609 0.907601 0.000000
0.872722 0.903919 0.000000
0.999786 0.900295 0.000000
0.000000 1.000000 0.000000
0.051337 1.000000 0.000000
0.193078 1.000000 0.000000
0.331605 1.000000 0.000000
0.467470 1.000000 0.000000
0.600943 1.000000 0.000000
0.732182 1.000000 0.000000
0.861295 1.000000 0.000000
0.988359 1.000000 0.000000
0.007414 0.018914 0.168086
0.154958 0.014706 0.163878
0.296699 0.010663 0.159835
0.435226 0.006712 0.155884
0.571092 0.002837 0.152009
0.704564 0.000000 0.148202
0.835803 0.000000 0.144459
0.964916 0.000000 0.140777
1.000000 0.000000 0.137153
0.000000 0.172348 0.152300
0.139172 0.168139 0.148092
0.280913 0.164097 0.144049
0.419440 0.160146 0.140098
0.555306 0.156271 0.136223
0.688778 0.152464 0.132416
0.820017 0.148721 0.128673
0.949130 0.145038 0.124991
1.000000 0.141414 0.121367
0.000000 0.312224 0.137909
0.124781 0.308016 0.133701
0.266522 0.303973 0.129658
0.405049 0.300022 0.125707
0.540915 0.296147 0.121832
0.674387 0.292340 0.118025
0.805626 0.288597 0.114282
0.934739 0.284915 0.110600
1.000000 0.281291 0.106976
0.000000 0.445309 0.124217
0.111089 0.441101 0.120008
0.252830 0.437058 0.115966
0.391356 0.433107 0.112015
0.527222 0.429232 0.108140
0.660695 0.425425 0.104333
0.791934 0.421682 0.100590
0.921047 0.417999 0.096907
1.000000 0.414375 0.093283
0.000000 0.573031 0.111076
0.097948 0.568823 0.106868
0.239689 0.564781 0.102825
0.378216 0.560830 0.098874
0.514082 0.556954 0.094999
0.647554 0.553148 0.091192
0.778793 0.549405 0.087449
0.907906 0.545722 0.083767
1.000000 0.542098 0.080143
0.000000 0.696084 0.098416
0.085288 0.691876 0.094207
0.227029 0.687834 0.090165
0.365555 0.683883 0.086214
0.501421 0.680008 0.082339
0.634894 0.676201 0.078532
0.766133 0.672458 0.074789
0.895246 0.668775 0.071106
1.000000 0.665151 0.067482
0.000000 0.814885 0.086193
0.073065 0.810677 0.081985
0.214806 0.806634 0.077942
0.353333 0.802683 0.073991
0.489198 0.798808 0.070116
0.622671 0.795001 0.066309
0.753910 0.791258 0.062566
0.883023 0.787576 0.058884
1.000000 0.783952 0.055260
0.000000 0.929715 0.074379
0.061251 0.925507 0.070170
0.202992 0.921464 0.066128
0.341518 0.917513 0.062177
0.477384 0.913638 0.058302
0.610857 0.909831 0.054495
0.742096 0.906088 0.050752
0.871209 0.902406 0.047069
0.998273 0.898782 0.043445
0.000000 1.000000 0.062952
0.049824 1.000000 0.058744
0.191565 1.000000 0.054701
0.330091 1.000000 0.050750
0.465957 1.000000 0.046875
0.599430 1.000000 0.043068
0.730669 1.000000 0.039325
0.859782 1.000000 0.035642
0.986846 1.000000 0.032018
0.005983 0.017483 0.318615
0.153527 0.013275 0.314407
0.295268 0.009232 0.310364
0.433795 0.005281 0.306413
0.569661 0.001406 0.302538
0.703133 0.000000 0.298731
0.834372 0.000000 0.294988
0.963485 0.000000 0.291305
1.000000 0.000000 0.287681
0.000000 0.170917 0.302829
0.137741 0.166708 0.298621
0.279482 0.162666 0.294578
0.418009 0.158715 0.290627
0.553875 0.154840 0.286752
0.687347 0.151033 0.282945
0.818586 0.147290 0.279202
0.947699 0.143607 0.275519
1.000000 0.139983 0.271895
0.000000 0.310793 0.288438
0.123350 0.306585 0.284229
0.265091 0.302542 0.280187
0.403618 0.298591 0.276236
0.539484 0.294716 0.272361
0.672956 0.290909 0.268554
0.804195 0.287166 0.264811
0.933308 0.283484 0.261128
1.000000 0.279860 0.257504
0.000000 0.443878 0.274745
0.109658 0.439669 0.270537
0.251399 0.435627 0.266494
0.389925 0.431676 0.262543
0.525791 0.427801 0.258668
0.659264 0.423994 0.254862
0.790503 0.420251 0.251118
0.919616 0.416568 0.247436
1.000000 0.412944 0.243812
0.000000 0.571600 0.261604
0.096517 0.567392 0.257396
0.238258 0.563349 0.253354
0.376785 0.559398 0.249403
0.512650 0.555523 0.245528
0.646123 0.551717 0.241721
0.777362 0.547973 0.237978
0.906475 0.544291 0.234295
1.000000 0.540667 0.230671
0.000000 0.694653 0.248944
0.083857 0.690445 0.244736
0.225598 0.686403 0.240693
0.364124 0.682452 0.236742
0.499990 0.678577 0.232867
0.633463 0.674770 0.229060
0.764702 0.671027 0.225317
0.893815 0.667344 0.221635
1.000000 0.663720 0.218011
0.000000 0.813454 0.236721
0.071634 0.809246 0.232513
0.213375 0.805203 0.228471
0.351901 0.801252 0.224520
0.487767 0.797377 0.220645
0.621240 0.793570 0.216838
0.752479 0.789827 0.213095
0.881592 0.786145 0.209412
1.000000 0.782521 0.205788
0.000000 0.928284 0.224907
0.059820 0.924076 0.220699
0.201561 0.920033 0.216656
0.340087 0.916082 0.212705
0.475953 0.912207 0.208830
0.609426 0.908400 0.205023
0.740665 0.904657 0.201280
0.869778 0.900975 0.197598
0.996842 0.897351 0.193974
0.000000 1.000000 0.213480
0.048393 1.000000 0.209272
0.190134 1.000000 0.205229
0.328660 1.000000 0.201279
0.464526 1.000000 0.197403
0.597999 1.000000 0.193597
0.729238 1.000000 0.189853
0.858351 1.000000 0.186171
0.985415 1.000000 0.182547
0.004594 0.016094 0.464693
0.152138 0.011886 0.460485
0.293879 0.007843 0.456442
0.432406 0.003893 0.452491
0.568272 0.000017 0.448616
0.701744 0.000000 0.444809
0.832983 0.000000 0.441066
0.962096 0.000000 0.437384
1.000000 0.000000 0.433760
0.000000 0.169528 0.448907
0.136352 0.165320 0.444699
0.278093 0.161277 0.440656
0.416620 0.157326 0.436705
0.552486 0.153451 0.432830
0.685958 0.149644 0.429023
0.817197 0.145901 0.425280
0.946310 0.142219 0.421598
1.000000 0.138594 0.417974
0.000000 0.309404 0.434516
0.121961 0.305196 0.430308
0.263702 0.301153 0.426265
0.402229 0.297202 0.422314
0.538095 0.293327 0.418439
0.671567 0.289521 0.414632
0.802806 0.285777 0.410889
0.931919 0.282095 0.407207
1.000000 0.278471 0.403583
0.000000 0.442489 0.420824
0.108269 0.438281 0.416615
0.250010 0.434238 0.412573
0.388537 0.430287 0.408622
0.524402 0.426412 0.404747
0.657875 0.422605 0.400940
0.789114 0.418862 0.397197
0.918227 0.415180 0.393514
1.000000 0.411556 0.389890
0.000000 0.570211 0.407683
0.095128 0.566003 0.403475
0.236869 0.561961 0.399432
0.375396 0.558010 0.395481
0.511262 0.554135 0.391606
0.644734 0.550328 0.387799
0.775973 0.546585 0.384056
0.905086 0.542902 0.380374
1.000000 0.539278 0.376749
0.000000 0.693265 0.395022
0.082468 0.689056 0.390814
0.224209 0.685014 0.386772
0.362736 0.681063 0.382821
0.498601 0.677188 0.378946
0.632074 0.673381 0.375139
0.763313 0.669638 0.371396
0.892426 0.665955 0.367713
1.000000 0.662331 0.364089
0.000000 0.812065 0.382800
0.070245 0.807857 0.378592
0.211986 0.803814 0.374549
0.350513 0.799863 0.370598
0.486379 0.795988 0.366723
0.619851 0.792182 0.362916
0.751090 0.788438 0.359173
0.880203 0.784756 0.355490
1.000000 0.781132 0.351866
0.000000 0.926895 0.370985
0.058431 0.922687 0.366777
0.200172 0.918644 0.362735
0.338698 0.914693 0.358784
0.474564 0.910818 0.354909
0.608037 0.907012 0.351102
0.739276 0.903268 0.347359
0.868389 0.899586 0.343676
0.995453 0.895962 0.340052
0.000000 1.000000 0.359559
0.047004 1.000000 0.355350
0.188745 1.000000 0.351308
0.327272 1.000000 0.347357
0.463138 1.000000 0.343482
0.596610 1.000000 0.339675
0.727849 1.000000 0.335932
0.856962 1.000000 0.332249
0.984027 1.000000 0.328625
0.003239 0.014739 0.607209
0.150783 0.010531 0.603001
0.292525 0.006489 0.598958
0.431051 0.002538 0.595007
0.566917 0.000000 0.591132
0.700389 0.000000 0.587325
0.831628 0.000000 0.583582
0.960741 0.000000 0.579899
1.000000 0.000000 0.576275
0.000000 0.168173 0.591423
0.134997 0.163965 0.587215
0.276739 0.159922 0.583172
0.415265 0.155971 0.579221
0.551131 0.152096 0.575346
0.684604 0.148289 0.571539
0.815842 0.144546 0.567796
0.944955 0.140864 0.564114
1.000000 0.137240 0.560489
0.000000 0.308049 0.577032
0.120606 0.303841 0.572823
0.262347 0.299799 0.568781
0.400874 0.295848 0.564830
0.536740 0.291973 0.560955
0.670212 0.288166 0.557148
0.801451 0.284423 0.553405
0.930564 0.280740 0.549722
1.000000 0.277116 0.546098
0.000000 0.441134 0.563339
0.106914 0.436926 0.559131
0.248655 0.432883 0.555088
0.387182 0.428932 0.551137
0.523048 0.425057 0.547262
0.656520 0.421250 0.543456
0.787759 0.417507 0.539712
0.916872 0.413825 0.536030
1.000000 0.410201 0.532406
0.000000 0.568857 0.550198
0.093773 0.564648 0.545990
0.235514 0.560606 0.541948
0.374041 0.556655 0.537997
0.509907 0.552780 0.534122
0.643379 0.548973 0.530315
0.774618 0.545230 0.526572
0.903731 0.541547 0.522889
1.000000 0.537923 0.519265
0.000000 0.691910 0.537538
0.081113 0.687702 0.533330
0.222854 0.683659 0.529287
0.361381 0.679708 0.525336
0.497247 0.675833 0.521461
0.630719 0.672026 0.517655
0.761958 0.668283 0.513911
0.891071 0.664600 0.510229
1.000000 0.660976 0.506605
0.000000 0.810710 0.525315
0.068890 0.806502 0.521107
0.210631 0.802460 0.517065
0.349158 0.798509 0.513114
0.485024 0.794633 0.509239
0.618496 0.790827 0.505432
0.749735 0.787084 0.501689
0.878848 0.783401 0.498006
1.000000 0.779777 0.494382
0.000000 0.925540 0.513501
0.057076 0.921332 0.509293
0.198817 0.917290 0.505250
0.337344 0.913339 0.501299
0.473210 0.909464 0.497424
0.606682 0.905657 0.493618
0.737921 0.901914 0.489874
0.867034 0.898231 0.486192
0.994099 0.894607 0.482568
0.000000 1.000000 0.502074
0.045649 1.000000 0.497866
0.187390 1.000000 0.493824
0.325917 1.000000 0.489873
0.461783 1.000000 0.485997
0.595255 1.000000 0.482191
0.726494 1.000000 0.478448
0.855607 1.000000 0.474765
0.982672 1.000000 0.471141
0.001914 0.013414 0.746589
0.149458 0.009206 0.742381
0.291199 0.005164 0.738339
0.429726 0.001213 0.734388
0.565592 0.000000 0.730513
0.699064 0.000000 0.726706
0.830303 0.000000 0.722963
0.959416 0.000000 0.719280
1.000000 0.000000 0.715656
0.000000 0.166848 0.730803
0.133672 0.162640 0.726595
0.275414 0.158597 0.722553
0.413940 0.154646 0.718602
0.549806 0.150771 0.714727
0.683278 0.146964 0.710920
0.814517 0.143221 0.707177
0.943630 0.139539 0.703494
1.000000 0.135915 0.699870
0.000000 0.306724 0.716412
0.119281 0.302516 0.712204
0.261022 0.298473 0.708161
0.399549 0.294523 0.704210
0.535415 0.290647 0.700335
0.668887 0.286841 0.696529
0.800126 0.283098 0.692785
0.929239 0.279415 0.689103
1.000000 0.275791 0.685479
0.000000 0.439809 0.702720
0.105589 0.435601 0.698512
0.247330 0.431558 0.694469
0.385857 0.427607 0.690518
0.521722 0.423732 0.686643
0.655195 0.419925 0.682836
0.786434 0.416182 0.679093
0.915547 0.412500 0.675411
1.000000 0.408876 0.671787
0.000000 0.567532 0.689579
0.092448 0.563323 0.685371
0.234189 0.559281 0.681328
0.372716 0.555330 0.677377
0.508582 0.551455 0.673502
0.642054 0.547648 0.669696
0.773293 0.543905 0.665952
0.902406 0.540222 0.662270
1.000000 0.536598 0.658646
0.000000 0.690585 0.676919
0.079788 0.686377 0.672711
0.221529 0.682334 0.668668
0.360056 0.678383 0.664717
0.495921 0.674508 0.660842
0.629394 0.670701 0.657035
0.760633 0.666958 0.653292
0.889746 0.663275 0.649610
1.000000 0.659651 0.645986
0.000000 0.809385 0.664696
0.067565 0.805177 0.660488
0.209306 0.801134 0.656445
0.347833 0.797183 0.652494
0.483699 0.793308 0.648619
0.617171 0.789502 0.644812
0.748410 0.785758 0.641069
0.877523 0.782076 0.637387
1.000000 0.778452 0.633763
0.000000 0.924215 0.652882
0.055751 0.920007 0.648674
0.197492 0.915964 0.644631
0.336019 0.912014 0.640680
0.471884 0.908138 0.636805
0.605357 0.904332 0.632998
0.736596 0.900589 0.629255
0.865709 0.896906 0.625573
0.992773 0.893282 0.621949
0.000000 1.000000 0.641455
0.044324 1.000000 0.637247
0.186065 1.000000 0.633204
0.324592 1.000000 0.629253
0.460458 1.000000 0.625378
0.593930 1.000000 0.621571
0.725169 1.000000 0.617828
0.854282 1.000000 0.614146
0.981347 1.000000 0.610522
0.000617 0.012117 0.883091
0.148161 0.007908 0.878883
0.289902 0.003866 0.874840
0.428428 0.000000 0.870889
0.564294 0.000000 0.867014
0.697767 0.000000 0.863207
0.829006 0.000000 0.859464
0.958119 0.000000 0.855782
1.000000 0.000000 0.852158
0.000000 0.165550 0.867305
0.132375 0.161342 0.863097
0.274116 0.157299 0.859054
0.412642 0.153348 0.855103
0.548508 0.149473 0.851228
0.681981 0.145666 0.847421
0.813220 0.141923 0.843678
0.942333 0.138241 0.839996
1.000000 0.134617 0.836372
0.000000 0.305427 0.852914
0.117983 0.301218 0.848706
0.259725 0.297176 0.844663
0.398251 0.293225 0.840712
0.534117 0.289350 0.836837
0.667590 0.285543 0.833030
0.798829 0.281800 0.829287
0.927941 0.278117 0.825605
1.000000 0.274493 0.821981
0.000000 0.438511 0.839221
0.104291 0.434303 0.835013
0.246032 0.430260 0.830971
0.384559 0.426309 0.827020
0.520425 0.422434 0.823145
0.653897 0.418628 0.819338
0.785136 0.414884 0.815595
0.914249 0.411202 0.811912
1.000000 0.407578 0.808288
0.000000 0.566234 0.826081
0.091150 0.562026 0.821873
0.232892 0.557983 0.817830
0.371418 0.554032 0.813879
0.507284 0.550157 0.810004
0.640756 0.546350 0.806197
0.771995 0.542607 0.802454
0.901108 0.538925 0.798771
1.000000 0.535301 0.795147
0.000000 0.689287 0.813420
0.078490 0.685079 0.809212
0.220231 0.681036 0.805170
0.358758 0.677085 0.801219
0.494624 0.673210 0.797344
0.628096 0.669403 0.793537
0.759335 0.665660 0.789794
0.888448 0.661978 0.786111
1.000000 0.658354 0.782487
0.000000 0.808088 0.801198
0.066267 0.803879 0.796990
0.208008 0.799837 0.792947
0.346535 0.795886 0.788996
0.482401 0.792011 0.785121
0.615873 0.788204 0.781314
0.747112 0.784461 0.777571
0.876225 0.780778 0.773888
1.000000 0.777154 0.770264
0.000000 0.922918 0.789383
0.054453 0.918709 0.785175
0.196194 0.914667 0.781133
0.334721 0.910716 0.777182
0.470587 0.906841 0.773307
0.604059 0.903034 0.769500
0.735298 0.899291 0.765757
0.864411 0.895608 0.762074
0.991476 0.891984 0.758450
0.000000 1.000000 0.777957
0.043026 1.000000 0.773748
0.184767 1.000000 0.769706
0.323294 1.000000 0.765755
0.459160 1.000000 0.761880
0.592632 1.000000 0.758073
0.723871 1.000000 0.754330
0.852984 1.000000 0.750647
0.980049 1.000000 0.747023
0.000000 0.010845 1.000000
0.146889 0.006636 1.000000
0.288630 0.002594 1.000000
0.427156 0.000000 1.000000
0.563022 0.000000 1.000000
0.696495 0.000000 0.997002
0.827734 0.000000 0.993259
0.956847 0.000000 0.989576
1.000000 0.000000 0.985952
0.000000 0.164278 1.000000
0.131103 0.160070 0.996891
0.272844 0.156027 0.992849
0.411370 0.152076 0.988898
0.547236 0.148201 0.985023
0.680709 0.144394 0.981216
0.811948 0.140651 0.977473
0.941061 0.136969 0.973790
1.000000 0.133345 0.970166
0.000000 0.304155 0.986708
0.116712 0.299946 0.982500
0.258453 0.295904 0.978458
0.396979 0.291953 0.974507
0.532845 0.288078 0.970631
0.666318 0.284271 0.966825
0.797557 0.280528 0.963082
0.926670 0.276845 0.959399
1.000000 0.273221 0.955775
0.000000 0.437239 0.973016
0.103019 0.433031 0.968808
0.244760 0.428988 0.964765
0.383287 0.425037 0.960814
0.519153 0.421162 0.956939
0.652625 0.417356 0.953132
0.783864 0.413612 0.949389
0.912977 0.409930 0.945707
1.000000 0.406306 0.942083
0.000000 0.564962 0.959875
0.089878 0.560754 0.955667
0.231620 0.556711 0.951624
0.370146 0.552760 0.947673
0.506012 0.548885 0.943798
0.639485 0.545078 0.939992
0.770723 0.541335 0.936248
0.899836 0.537653 0.932566
1.000000 0.534029 0.928942
0.000000 0.688015 0.947215
0.077218 0.683807 0.943007
0.218959 0.679764 0.938964
0.357486 0.675813 0.935013
0.493352 0.671938 0.931138
0.626824 0.668131 0.927331
0.758063 0.664388 0.923588
0.887176 0.660706 0.919906
1.000000 0.657082 0.916282
0.000000 0.806816 0.934992
0.064995 0.802607 0.930784
0.206737 0.798565 0.926741
0.345263 0.794614 0.922790
0.481129 0.790739 0.918915
0.614601 0.786932 0.915108
0.745840 0.783189 0.911365
0.874953 0.779506 0.907683
1.000000 0.775882 0.904059
0.000000 0.921646 0.923178
0.053181 0.917437 0.918970
0.194922 0.913395 0.914927
0.333449 0.909444 0.910976
0.469315 0.905569 0.907101
0.602787 0.901762 0.903294
0.734026 0.898019 0.899551
0.863139 0.894336 0.895869
0.990204 0.890712 0.892245
0.000000 1.000000 0.911751
0.041754 1.000000 0.907543
0.183495 1.000000 0.903500
0.322022 1.000000 0.899549
0.457888 1.000000 0.895674
0.591360 1.000000 0.891867
0.722599 1.000000 0.888124
0.851712 1.000000 0.884442
0.978777 1.000000 0.880818
0.000000 0.009706 1.000000
0.145750 0.005497 1.000000
0.287491 0.001455 1.000000
0.426017 0.000000 1.000000
0.561883 0.000000 1.000000
0.695356 0.000000 1.000000
0.826595 0.000000 1.000000
0.955708 0.000000 1.000000
1.000000 0.000000 1.000000
0.000000 0.163139 1.000000
0.129964 0.158931 1.000000
0.271705 0.154888 1.000000
0.410231 0.150937 1.000000
0.546097 0.147062 1.000000
0.679570 0.143255 1.000000
0.810809 0.139512 1.000000
0.939922 0.135830 1.000000
1.000000 0.132206 1.000000
0.000000 0.303015 1.000000
0.115572 0.298807 1.000000
0.257314 0.294765 1.000000
0.395840 0.290814 1.000000
0.531706 0.286939 1.000000
0.665178 0.283132 1.000000
0.796417 0.279389 1.000000
0.925530 0.275706 1.000000
1.000000 0.272082 1.000000
0.000000 0.436100 1.000000
0.101880 0.431892 1.000000
0.243621 0.427849 1.000000
0.382148 0.423898 1.000000
0.518014 0.420023 1.000000
0.651486 0.416216 1.000000
0.782725 0.412473 1.000000
0.911838 0.408791 1.000000
1.000000 0.405167 1.000000
0.000000 0.563823 1.000000
0.088739 0.559615 1.000000
0.230480 0.555572 1.000000
0.369007 0.551621 1.000000
0.504873 0.547746 1.000000
0.638345 0.543939 1.000000
0.769584 0.540196 1.000000
0.898697 0.536513 1.000000
1.000000 0.532889 1.000000
0.000000 0.686876 1.000000
0.076079 0.682668 1.000000
0.217820 0.678625 1.000000
0.356347 0.674674 1.000000
0.492213 0.670799 1.000000
0.625685 0.666992 1.000000
0.756924 0.663249 1.000000
0.886037 0.659567 1.000000
1.000000 0.655943 1.000000
0.000000 0.805676 1.000000
0.063856 0.801468 1.000000
0.205597 0.797426 1.000000
0.344124 0.793475 1.000000
0.479990 0.789600 1.000000
0.613462 0.785793 1.000000
0.744701 0.782050 1.000000
0.873814 0.778367 1.000000
1.000000 0.774743 1.000000
0.000000 0.920506 1.000000
0.052042 0.916298 1.000000
0.193783 0.912256 1.000000
0.332310 0.908305 1.000000
0.468176 0.904430 1.000000
0.601648 0.900623 1.000000
0.732887 0.896880 1.000000
0.862000 0.893197 1.000000
0.989065 0.889573 1.000000
0.000000 1.000000 1.000000
0.040615 1.000000 1.000000
0.182356 1.000000 1.000000
0.320883 1.000000 1.000000
0.456749 1.000000 1.000000
0.590221 1.000000 1.000000
0.721460 1.000000 1.000000
0.850573 1.000000 1.000000
0.977638 1.000000 1.000000
