luts/film_stocks/fuji_eterna_250d.cube
TITLE "Fuji Eterna 250D"
LUT_3D_SIZE 17
DOMAIN_MIN 0.0 0.0 0.0
DOMAIN_MAX 1.0 1.0 1.0
0.005000 0.005000 0.005000
0.067268 0.005689 0.005689
0.128568 0.006367 0.006367
0.189436 0.007041 0.007041
0.249986 0.007711 0.007711
0.310271 0.008378 0.008378
0.370323 0.009043 0.009043
0.430163 0.009705 0.009705
0.489807 0.010365 0.010365
0.549264 0.011023 0.011023
0.608545 0.011679 0.011679
0.667655 0.012333 0.012333
0.726601 0.012985 0.012985
0.785388 0.013636 0.013636
0.844018 0.014284 0.014284
0.902497 0.014931 0.014931
0.960827 0.015577 0.015577
0.007318 0.068897 0.007318
0.069586 0.069586 0.008007
0.130886 0.070264 0.008685
0.191754 0.070938 0.009359
0.252304 0.071608 0.010029
0.312589 0.072275 0.010696
0.372641 0.072939 0.011361
0.432481 0.073602 0.012023
0.492125 0.074262 0.012683
0.551582 0.074920 0.013341
0.610863 0.075576 0.013997
0.669973 0.076230 0.014651
0.728919 0.076882 0.015303
0.787706 0.077532 0.015953
0.846336 0.078181 0.016602
0.904815 0.078828 0.017249
0.963145 0.079474 0.017895
0.009600 0.131800 0.009600
0.071868 0.132489 0.010289
0.133168 0.133168 0.010967
0.194036 0.133841 0.011641
0.254586 0.134511 0.012311
0.314871 0.135178 0.012978
0.374923 0.135843 0.013642
0.434763 0.136505 0.014305
0.494407 0.137165 0.014965
0.553864 0.137823 0.015623
0.613145 0.138479 0.016278
0.672255 0.139133 0.016933
0.731201 0.139785 0.017585
0.789988 0.140436 0.018235
0.848618 0.141085 0.018884
0.907097 0.141732 0.019531
0.965427 0.142377 0.020177
0.011866 0.194261 0.011866
0.074134 0.194950 0.012555
0.135434 0.195628 0.013233
0.196302 0.196302 0.013907
0.256851 0.196972 0.014577
0.317137 0.197639 0.015244
0.377189 0.198303 0.015908
0.437029 0.198965 0.016570
0.496672 0.199625 0.017230
0.556130 0.200283 0.017888
0.615411 0.200939 0.018544
0.674521 0.201593 0.019198
0.733467 0.202246 0.019851
0.792253 0.202896 0.020501
0.850884 0.203545 0.021150
0.909363 0.204192 0.021797
0.967693 0.204838 0.022443
0.014120 0.256394 0.014120
0.076388 0.257084 0.014809
0.137688 0.257762 0.015487
0.198556 0.258435 0.016161
0.259105 0.259105 0.016831
0.319391 0.259772 0.017498
0.379443 0.260437 0.018162
0.439283 0.261099 0.018824
0.498926 0.261759 0.019484
0.558384 0.262417 0.020142
0.617665 0.263073 0.020798
0.676775 0.263727 0.021452
0.735721 0.264379 0.022105
0.794507 0.265030 0.022755
0.853138 0.265679 0.023404
0.911617 0.266326 0.024051
0.969947 0.266971 0.024697
0.016364 0.318257 0.016364
0.078632 0.318946 0.017053
0.139932 0.319624 0.017731
0.200800 0.320298 0.018405
0.261350 0.320968 0.019075
0.321635 0.321635 0.019742
0.381687 0.322299 0.020406
0.441527 0.322961 0.021069
0.501171 0.323621 0.021729
0.560628 0.324279 0.022387
0.619909 0.324935 0.023042
0.679019 0.325589 0.023697
0.737965 0.326242 0.024349
0.796752 0.326892 0.024999
0.855382 0.327541 0.025648
0.913861 0.328188 0.026295
0.972191 0.328834 0.026941
0.018599 0.379880 0.018599
0.080867 0.380569 0.019288
0.142167 0.381247 0.019967
0.203035 0.381921 0.020640
0.263585 0.382591 0.021310
0.323870 0.383258 0.021977
0.383922 0.383922 0.022642
0.443763 0.384585 0.023304
0.503406 0.385245 0.023964
0.562864 0.385903 0.024622
0.622144 0.386558 0.025278
0.681255 0.387213 0.025932
0.740201 0.387865 0.026584
0.798987 0.388515 0.027235
0.857618 0.389164 0.027884
0.916097 0.389811 0.028531
0.974426 0.390457 0.029176
0.020827 0.441286 0.020827
0.083095 0.441975 0.021516
0.144395 0.442653 0.022194
0.205263 0.443327 0.022868
0.265813 0.443997 0.023538
0.326098 0.444664 0.024205
0.386150 0.445328 0.024869
0.445990 0.445990 0.025532
0.505634 0.446650 0.026192
0.565091 0.447308 0.026850
0.624372 0.447964 0.027506
0.683482 0.448618 0.028160
0.742428 0.449271 0.028812
0.801215 0.449921 0.029462
0.859845 0.450570 0.030111
0.918324 0.451217 0.030758
0.976654 0.451862 0.031404
0.023047 0.502489 0.023047
0.085315 0.503178 0.023736
0.146615 0.503857 0.024415
0.207483 0.504530 0.025088
0.268033 0.505200 0.025758
0.328318 0.505867 0.026425
0.388370 0.506532 0.027090
0.448211 0.507194 0.027752
0.507854 0.507854 0.028412
0.567312 0.508512 0.029070
0.626592 0.509168 0.029726
0.685702 0.509822 0.030380
0.744648 0.510474 0.031032
0.803435 0.511125 0.031683
0.862066 0.511774 0.032331
0.920544 0.512421 0.032979
0.978874 0.513066 0.033624
0.025261 0.563502 0.025261
0.087529 0.564191 0.025950
0.148828 0.564870 0.026628
0.209696 0.565543 0.027301
0.270246 0.566213 0.027971
0.330531 0.566880 0.028639
0.390584 0.567545 0.029303
0.450424 0.568207 0.029965
0.510067 0.568867 0.030625
0.569525 0.569525 0.031283
0.628805 0.570181 0.031939
0.687916 0.570835 0.032593
0.746862 0.571487 0.033246
0.805648 0.572138 0.033896
0.864279 0.572787 0.034545
0.922758 0.573434 0.035192
0.981087 0.574079 0.035837
0.027467 0.624333 0.027467
0.089735 0.625023 0.028156
0.151035 0.625701 0.028835
0.211903 0.626374 0.029508
0.272453 0.627044 0.030178
0.332738 0.627712 0.030845
0.392790 0.628376 0.031510
0.452631 0.629038 0.032172
0.512274 0.629698 0.032832
0.571732 0.630356 0.033490
0.631012 0.631012 0.034146
0.690123 0.631666 0.034800
0.749069 0.632318 0.035452
0.807855 0.632969 0.036103
0.866486 0.633618 0.036752
0.924964 0.634265 0.037399
0.983294 0.634910 0.038044
0.029668 0.684990 0.029668
0.091936 0.685679 0.030357
0.153235 0.686358 0.031035
0.214104 0.687031 0.031709
0.274653 0.687701 0.032379
0.334939 0.688368 0.033046
0.394991 0.689033 0.033710
0.454831 0.689695 0.034372
0.514474 0.690355 0.035032
0.573932 0.691013 0.035690
0.633213 0.691669 0.036346
0.692323 0.692323 0.037000
0.751269 0.692975 0.037653
0.810055 0.693626 0.038303
0.868686 0.694275 0.038952
0.927165 0.694922 0.039599
0.985495 0.695567 0.040245
0.031862 0.745478 0.031862
0.094130 0.746167 0.032551
0.155430 0.746846 0.033229
0.216298 0.747519 0.033903
0.276848 0.748189 0.034573
0.337133 0.748856 0.035240
0.397185 0.749521 0.035905
0.457025 0.750183 0.036567
0.516669 0.750843 0.037227
0.576126 0.751501 0.037885
0.635407 0.752157 0.038541
0.694517 0.752811 0.039195
0.753463 0.753463 0.039847
0.812250 0.754114 0.040498
0.870880 0.754763 0.041146
0.929359 0.755410 0.041793
0.987689 0.756055 0.042439
0.034050 0.805803 0.034050
0.096318 0.806492 0.034739
0.157618 0.807170 0.035418
0.218486 0.807843 0.036091
0.279036 0.808513 0.036761
0.339321 0.809181 0.037428
0.399373 0.809845 0.038093
0.459214 0.810507 0.038755
0.518857 0.811167 0.039415
0.578315 0.811825 0.040073
0.637595 0.812481 0.040729
0.696706 0.813135 0.041383
0.755652 0.813787 0.042035
0.814438 0.814438 0.042686
0.873069 0.815087 0.043335
0.931548 0.815734 0.043982
0.989877 0.816379 0.044627
0.036233 0.865967 0.036233
0.098501 0.866656 0.036922
0.159801 0.867334 0.037600
0.220669 0.868008 0.038274
0.281219 0.868678 0.038944
0.341504 0.869345 0.039611
0.401556 0.870010 0.040275
0.461396 0.870672 0.040938
0.521040 0.871332 0.041598
0.580497 0.871990 0.042256
0.639778 0.872646 0.042912
0.698888 0.873300 0.043566
0.757834 0.873952 0.044218
0.816621 0.874603 0.044868
0.875251 0.875251 0.045517
0.933730 0.875899 0.046164
0.992060 0.876544 0.046810
0.038410 0.925976 0.038410
0.100678 0.926665 0.039099
0.161978 0.927343 0.039777
0.222846 0.928017 0.040451
0.283396 0.928687 0.041121
0.343681 0.929354 0.041788
0.403733 0.930018 0.042452
0.463573 0.930680 0.043115
0.523217 0.931340 0.043775
0.582674 0.931998 0.044432
0.641955 0.932654 0.045088
0.701065 0.933308 0.045743
0.760011 0.933961 0.046395
0.818797 0.934611 0.047045
0.877428 0.935260 0.047694
0.935907 0.935907 0.048341
0.994237 0.936552 0.048987
0.040581 0.985831 0.040581
0.102849 0.986520 0.041270
0.164149 0.987199 0.041949
0.225017 0.987872 0.042622
0.285567 0.988542 0.043292
0.345852 0.989209 0.043959
0.405904 0.989874 0.044624
0.465745 0.990536 0.045286
0.525388 0.991196 0.045946
0.584846 0.991854 0.046604
0.644126 0.992510 0.047260
0.703236 0.993164 0.047914
0.762182 0.993816 0.048566
0.820969 0.994467 0.049217
0.879600 0.995115 0.049865
0.938078 0.995763 0.050513
0.996408 0.996408 0.051158
0.005228 0.005228 0.065141
0.067496 0.005917 0.065830
0.128795 0.006595 0.066508
0.189664 0.007269 0.067182
0.250213 0.007939 0.067852
0.310498 0.008606 0.068519
0.370551 0.009270 0.069183
0.430391 0.009932 0.069845
0.490034 0.010592 0.070505
0.549492 0.011250 0.071163
0.608772 0.011906 0.071819
0.667883 0.012560 0.072473
0.726829 0.013213 0.073126
0.785615 0.013863 0.073776
0.844246 0.014512 0.074425
0.902725 0.015159 0.075072
0.961055 0.015805 0.075718
0.007546 0.069125 0.067459
0.069814 0.069814 0.068148
0.131113 0.070492 0.068826
0.191982 0.071166 0.069500
0.252531 0.071836 0.070170
0.312816 0.072503 0.070837
0.372869 0.073167 0.071501
0.432709 0.073829 0.072163
0.492352 0.074489 0.072823
0.551810 0.075147 0.073481
0.611090 0.075803 0.074137
0.670201 0.076457 0.074791
0.729147 0.077110 0.075444
0.787933 0.077760 0.076094
0.846564 0.078409 0.076743
0.905043 0.079056 0.077390
0.963372 0.079701 0.078036
0.009828 0.132028 0.069741
0.072096 0.132717 0.070430
0.133395 0.133395 0.071108
0.194263 0.134069 0.071782
0.254813 0.134739 0.072452
0.315098 0.135406 0.073119
0.375151 0.136071 0.073783
0.434991 0.136733 0.074445
0.494634 0.137393 0.075105
0.554092 0.138051 0.075763
0.613372 0.138707 0.076419
0.672483 0.139361 0.077073
0.731429 0.140013 0.077726
0.790215 0.140663 0.078376
0.848846 0.141312 0.079025
0.907325 0.141959 0.079672
0.965654 0.142605 0.080317
0.012093 0.194488 0.072006
0.074361 0.195177 0.072696
0.135661 0.195856 0.073374
0.196529 0.196529 0.074047
0.257079 0.197199 0.074717
0.317364 0.197866 0.075385
0.377416 0.198531 0.076049
0.437257 0.199193 0.076711
0.496900 0.199853 0.077371
0.556358 0.200511 0.078029
0.615638 0.201167 0.078685
0.674749 0.201821 0.079339
0.733695 0.202473 0.079991
0.792481 0.203124 0.080642
0.851112 0.203773 0.081291
0.909591 0.204420 0.081938
0.967920 0.205065 0.082583
0.014347 0.256622 0.074260
0.076615 0.257311 0.074950
0.137915 0.257989 0.075628
0.198783 0.258663 0.076301
0.259333 0.259333 0.076971
0.319618 0.260000 0.077639
0.379670 0.260665 0.078303
0.439511 0.261327 0.078965
0.499154 0.261987 0.079625
0.558612 0.262645 0.080283
0.617892 0.263301 0.080939
0.677003 0.263955 0.081593
0.735949 0.264607 0.082245
0.794735 0.265258 0.082896
0.853366 0.265906 0.083545
0.911845 0.266554 0.084192
0.970174 0.267199 0.084837
0.016592 0.318484 0.076505
0.078860 0.319173 0.077194
0.140159 0.319852 0.077872
0.201027 0.320525 0.078546
0.261577 0.321195 0.079216
0.321862 0.321862 0.079883
0.381915 0.322527 0.080547
0.441755 0.323189 0.081209
0.501398 0.323849 0.081869
0.560856 0.324507 0.082527
0.620136 0.325163 0.083183
0.679247 0.325817 0.083837
0.738193 0.326469 0.084490
0.796979 0.327120 0.085140
0.855610 0.327769 0.085789
0.914089 0.328416 0.086436
0.972418 0.329061 0.087081
0.018827 0.380108 0.078740
0.081095 0.380797 0.079429
0.142395 0.381475 0.080107
0.203263 0.382148 0.080781
0.263813 0.382818 0.081451
0.324098 0.383486 0.082118
0.384150 0.384150 0.082783
0.443990 0.384812 0.083445
0.503634 0.385472 0.084105
0.563091 0.386130 0.084763
0.622372 0.386786 0.085419
0.681482 0.387440 0.086073
0.740428 0.388093 0.086725
0.799215 0.388743 0.087376
0.857845 0.389392 0.088024
0.916324 0.390039 0.088672
0.974654 0.390684 0.089317
0.021055 0.441513 0.080968
0.083323 0.442202 0.081657
0.144622 0.442881 0.082335
0.205491 0.443554 0.083009
0.266040 0.444224 0.083679
0.326325 0.444891 0.084346
0.386378 0.445556 0.085010
0.446218 0.446218 0.085672
0.505861 0.446878 0.086332
0.565319 0.447536 0.086990
0.624599 0.448192 0.087646
0.683710 0.448846 0.088300
0.742656 0.449498 0.088953
0.801442 0.450149 0.089603
0.860073 0.450798 0.090252
0.918552 0.451445 0.090899
0.976881 0.452090 0.091545
0.023275 0.502717 0.083188
0.085543 0.503406 0.083877
0.146843 0.504084 0.084555
0.207711 0.504758 0.085229
0.268261 0.505428 0.085899
0.328546 0.506095 0.086566
0.388598 0.506759 0.087231
0.448438 0.507422 0.087893
0.508082 0.508082 0.088553
0.567539 0.508740 0.089211
0.626820 0.509396 0.089867
0.685930 0.510050 0.090521
0.744876 0.510702 0.091173
0.803663 0.511352 0.091823
0.862293 0.512001 0.092472
0.920772 0.512648 0.093119
0.979102 0.513294 0.093765
0.025488 0.563730 0.085401
0.087756 0.564419 0.086090
0.149056 0.565097 0.086769
0.209924 0.565771 0.087442
0.270474 0.566441 0.088112
0.330759 0.567108 0.088779
0.390811 0.567772 0.089444
0.450652 0.568435 0.090106
0.510295 0.569095 0.090766
0.569753 0.569753 0.091424
0.629033 0.570409 0.092080
0.688143 0.571063 0.092734
0.747089 0.571715 0.093386
0.805876 0.572365 0.094037
0.864507 0.573014 0.094686
0.922985 0.573661 0.095333
0.981315 0.574307 0.095978
0.027695 0.624561 0.087608
0.089963 0.625250 0.088297
0.151263 0.625929 0.088975
0.212131 0.626602 0.089649
0.272681 0.627272 0.090319
0.332966 0.627939 0.090986
0.393018 0.628604 0.091651
0.452858 0.629266 0.092313
0.512502 0.629926 0.092973
0.571959 0.630584 0.093631
0.631240 0.631240 0.094287
0.690350 0.631894 0.094941
0.749296 0.632546 0.095593
0.808083 0.633197 0.096244
0.866713 0.633845 0.096892
0.925192 0.634493 0.097539
0.983522 0.635138 0.098185
0.029895 0.685218 0.089808
0.092163 0.685907 0.090498
0.153463 0.686585 0.091176
0.214331 0.687259 0.091849
0.274881 0.687929 0.092519
0.335166 0.688596 0.093186
0.395218 0.689260 0.093851
0.455059 0.689923 0.094513
0.514702 0.690583 0.095173
0.574160 0.691241 0.095831
0.633440 0.691897 0.096487
0.692551 0.692551 0.097141
0.751497 0.693203 0.097793
0.810283 0.693853 0.098444
0.868914 0.694502 0.099093
0.927393 0.695149 0.099740
0.985722 0.695795 0.100385
0.032090 0.745706 0.092003
0.094358 0.746395 0.092692
0.155657 0.747073 0.093370
0.216526 0.747747 0.094044
0.277075 0.748417 0.094714
0.337360 0.749084 0.095381
0.397413 0.749748 0.096045
0.457253 0.750411 0.096707
0.516896 0.751071 0.097367
0.576354 0.751729 0.098025
0.635635 0.752385 0.098681
0.694745 0.753039 0.099335
0.753691 0.753691 0.099988
0.812477 0.754341 0.100638
0.871108 0.754990 0.101287
0.929587 0.755637 0.101934
0.987917 0.756283 0.102580
0.034278 0.806030 0.094191
0.096546 0.806719 0.094880
0.157846 0.807398 0.095558
0.218714 0.808071 0.096232
0.279264 0.808741 0.096902
0.339549 0.809408 0.097569
0.399601 0.810073 0.098234
0.459441 0.810735 0.098896
0.519085 0.811395 0.099556
0.578542 0.812053 0.100214
0.637823 0.812709 0.100870
0.696933 0.813363 0.101524
0.755879 0.814015 0.102176
0.814666 0.814666 0.102827
0.873297 0.815314 0.103475
0.931775 0.815962 0.104123
0.990105 0.816607 0.104768
0.036461 0.866195 0.096374
0.098729 0.866884 0.097063
0.160028 0.867562 0.097741
0.220897 0.868236 0.098415
0.281446 0.868906 0.099085
0.341731 0.869573 0.099752
0.401784 0.870237 0.100416
0.461624 0.870899 0.101078
0.521267 0.871559 0.101738
0.580725 0.872217 0.102396
0.640005 0.872873 0.103052
0.699116 0.873527 0.103706
0.758062 0.874180 0.104359
0.816848 0.874830 0.105009
0.875479 0.875479 0.105658
0.933958 0.876126 0.106305
0.992287 0.876772 0.106951
0.038638 0.926203 0.098551
0.100906 0.926892 0.099240
0.162205 0.927571 0.099918
0.223073 0.928244 0.100592
0.283623 0.928914 0.101262
0.343908 0.929581 0.101929
0.403961 0.930246 0.102593
0.463801 0.930908 0.103255
0.523444 0.931568 0.103915
0.582902 0.932226 0.104573
0.642182 0.932882 0.105229
0.701293 0.933536 0.105883
0.760239 0.934188 0.106536
0.819025 0.934839 0.107186
0.877656 0.935488 0.107835
0.936135 0.936135 0.108482
0.994464 0.936780 0.109127
0.040809 0.986059 0.100722
0.103077 0.986748 0.101411
0.164377 0.987426 0.102089
0.225245 0.988100 0.102763
0.285795 0.988770 0.103433
0.346080 0.989437 0.104100
0.406132 0.990101 0.104764
0.465972 0.990764 0.105427
0.525616 0.991424 0.106087
0.585073 0.992082 0.106745
0.644354 0.992737 0.107401
0.703464 0.993392 0.108055
0.762410 0.994044 0.108707
0.821196 0.994694 0.109357
0.879827 0.995343 0.110006
0.938306 0.995990 0.110653
0.996636 0.996636 0.111299
0.005455 0.005455 0.125170
0.067723 0.006144 0.125859
0.129023 0.006822 0.126537
0.189891 0.007496 0.127211
0.250441 0.008166 0.127881
0.310726 0.008833 0.128548
0.370778 0.009497 0.129212
0.430618 0.010160 0.129874
0.490262 0.010820 0.130534
0.549719 0.011478 0.131192
0.609000 0.012134 0.131848
0.668110 0.012788 0.132502
0.727056 0.013440 0.133155
0.785843 0.014090 0.133805
0.844473 0.014739 0.134454
0.902952 0.015386 0.135101
0.961282 0.016032 0.135747
0.007773 0.069352 0.127488
0.070041 0.070041 0.128177
0.131341 0.070719 0.128855
0.192209 0.071393 0.129529
0.252759 0.072063 0.130199
0.313044 0.072730 0.130866
0.373096 0.073394 0.131530
0.432936 0.074057 0.132192
0.492580 0.074717 0.132852
0.552037 0.075374 0.133510
0.611318 0.076030 0.134166
0.670428 0.076685 0.134820
0.729374 0.077337 0.135473
0.788161 0.077987 0.136123
0.846791 0.078636 0.136772
0.905270 0.079283 0.137419
0.963600 0.079929 0.138065
0.010055 0.132255 0.129770
0.072323 0.132944 0.130459
0.133623 0.133623 0.131137
0.194491 0.134296 0.131811
0.255040 0.134966 0.132481
0.315326 0.135633 0.133148
0.375378 0.136298 0.133812
0.435218 0.136960 0.134474
0.494862 0.137620 0.135134
0.554319 0.138278 0.135792
0.613600 0.138934 0.136448
0.672710 0.139588 0.137102
0.731656 0.140240 0.137755
0.790442 0.140891 0.138405
0.849073 0.141540 0.139054
0.907552 0.142187 0.139701
0.965882 0.142832 0.140346
0.012321 0.194716 0.132035
0.074589 0.195405 0.132725
0.135888 0.196083 0.133403
0.196757 0.196757 0.134076
0.257306 0.197427 0.134746
0.317591 0.198094 0.135414
0.377644 0.198758 0.136078
0.437484 0.199420 0.136740
0.497127 0.200080 0.137400
0.556585 0.200738 0.138058
0.615865 0.201394 0.138714
0.674976 0.202048 0.139368
0.733922 0.202701 0.140020
0.792708 0.203351 0.140671
0.851339 0.204000 0.141320
0.909818 0.204647 0.141967
0.968147 0.205293 0.142612
0.014575 0.256849 0.134289
0.076843 0.257538 0.134979
0.138142 0.258217 0.135657
0.199011 0.258890 0.136330
0.259560 0.259560 0.137000
0.319845 0.260227 0.137668
0.379898 0.260892 0.138332
0.439738 0.261554 0.138994
0.499381 0.262214 0.139654
0.558839 0.262872 0.140312
0.618119 0.263528 0.140968
0.677230 0.264182 0.141622
0.736176 0.264834 0.142274
0.794962 0.265485 0.142925
0.853593 0.266134 0.143574
0.912072 0.266781 0.144221
0.970401 0.267426 0.144866
0.016819 0.318712 0.136534
0.079087 0.319401 0.137223
0.140387 0.320079 0.137901
0.201255 0.320752 0.138575
0.261804 0.321423 0.139245
0.322090 0.322090 0.139912
0.382142 0.322754 0.140576
0.441982 0.323416 0.141238
0.501626 0.324076 0.141898
0.561083 0.324734 0.142556
0.620364 0.325390 0.143212
0.679474 0.326044 0.143866
0.738420 0.326697 0.144519
0.797206 0.327347 0.145169
0.855837 0.327996 0.145818
0.914316 0.328643 0.146465
0.972646 0.329288 0.147110
0.019054 0.380335 0.138769
0.081322 0.381024 0.139458
0.142622 0.381702 0.140136
0.203490 0.382376 0.140810
0.264040 0.383046 0.141480
0.324325 0.383713 0.142147
0.384377 0.384377 0.142812
0.444218 0.385040 0.143474
0.503861 0.385699 0.144134
0.563319 0.386357 0.144792
0.622599 0.387013 0.145448
0.681709 0.387668 0.146102
0.740656 0.388320 0.146754
0.799442 0.388970 0.147405
0.858073 0.389619 0.148053
0.916551 0.390266 0.148701
0.974881 0.390912 0.149346
0.021282 0.441741 0.140997
0.083550 0.442430 0.141686
0.144850 0.443108 0.142364
0.205718 0.443781 0.143038
0.266268 0.444451 0.143708
0.326553 0.445119 0.144375
0.386605 0.445783 0.145039
0.446445 0.446445 0.145701
0.506089 0.447105 0.146361
0.565546 0.447763 0.147019
0.624827 0.448419 0.147675
0.683937 0.449073 0.148329
0.742883 0.449726 0.148982
0.801669 0.450376 0.149632
0.860300 0.451025 0.150281
0.918779 0.451672 0.150928
0.977109 0.452317 0.151574
0.023502 0.502944 0.143217
0.085770 0.503633 0.143906
0.147070 0.504312 0.144584
0.207938 0.504985 0.145258
0.268488 0.505655 0.145928
0.328773 0.506322 0.146595
0.388825 0.506987 0.147260
0.448666 0.507649 0.147922
0.508309 0.508309 0.148582
0.567766 0.508967 0.149240
0.627047 0.509623 0.149896
0.686157 0.510277 0.150550
0.745103 0.510929 0.151202
0.803890 0.511580 0.151852
0.862521 0.512228 0.152501
0.920999 0.512876 0.153148
0.979329 0.513521 0.153794
0.025715 0.563957 0.145430
0.087983 0.564646 0.146119
0.149283 0.565324 0.146798
0.210151 0.565998 0.147471
0.270701 0.566668 0.148141
0.330986 0.567335 0.148808
0.391039 0.568000 0.149473
0.450879 0.568662 0.150135
0.510522 0.569322 0.150795
0.569980 0.569980 0.151453
0.629260 0.570636 0.152109
0.688371 0.571290 0.152763
0.747317 0.571942 0.153415
0.806103 0.572593 0.154066
0.864734 0.573241 0.154715
0.923213 0.573889 0.155362
0.981542 0.574534 0.156007
0.027922 0.624788 0.147637
0.090190 0.625477 0.148326
0.151490 0.626156 0.149004
0.212358 0.626829 0.149678
0.272908 0.627499 0.150348
0.333193 0.628166 0.151015
0.393245 0.628831 0.151680
0.453086 0.629493 0.152342
0.512729 0.630153 0.153002
0.572187 0.630811 0.153660
0.631467 0.631467 0.154316
0.690577 0.632121 0.154970
0.749523 0.632773 0.155622
0.808310 0.633424 0.156273
0.866941 0.634073 0.156921
0.925419 0.634720 0.157568
0.983749 0.635365 0.158214
0.030123 0.685445 0.149837
0.092391 0.686134 0.150527
0.153690 0.686812 0.151205
0.214559 0.687486 0.151878
0.275108 0.688156 0.152548
0.335393 0.688823 0.153216
0.395446 0.689488 0.153880
0.455286 0.690150 0.154542
0.514929 0.690810 0.155202
0.574387 0.691468 0.155860
0.633667 0.692124 0.156516
0.692778 0.692778 0.157170
0.751724 0.693430 0.157822
0.810510 0.694081 0.158473
0.869141 0.694729 0.159122
0.927620 0.695377 0.159769
0.985949 0.696022 0.160414
0.032317 0.745933 0.152032
0.094585 0.746622 0.152721
0.155885 0.747301 0.153399
0.216753 0.747974 0.154073
0.277303 0.748644 0.154743
0.337588 0.749311 0.155410
0.397640 0.749976 0.156074
0.457480 0.750638 0.156736
0.517124 0.751298 0.157396
0.576581 0.751956 0.158054
0.635862 0.752612 0.158710
0.694972 0.753266 0.159364
0.753918 0.753918 0.160017
0.812705 0.754569 0.160667
0.871335 0.755217 0.161316
0.929814 0.755865 0.161963
0.988144 0.756510 0.162609
0.034505 0.806257 0.154220
0.096773 0.806946 0.154909
0.158073 0.807625 0.155587
0.218941 0.808298 0.156261
0.279491 0.808968 0.156931
0.339776 0.809635 0.157598
0.399828 0.810300 0.158263
0.459669 0.810962 0.158925
0.519312 0.811622 0.159585
0.578770 0.812280 0.160243
0.638050 0.812936 0.160899
0.697161 0.813590 0.161553
0.756107 0.814242 0.162205
0.814893 0.814893 0.162856
0.873524 0.815542 0.163504
0.932002 0.816189 0.164152
0.990332 0.816834 0.164797
0.036688 0.866422 0.156403
0.098956 0.867111 0.157092
0.160256 0.867789 0.157770
0.221124 0.868463 0.158444
0.281674 0.869133 0.159114
0.341959 0.869800 0.159781
0.402011 0.870465 0.160445
0.461851 0.871127 0.161107
0.521495 0.871787 0.161767
0.580952 0.872445 0.162425
0.640233 0.873101 0.163081
0.699343 0.873755 0.163735
0.758289 0.874407 0.164388
0.817075 0.875058 0.165038
0.875706 0.875706 0.165687
0.934185 0.876353 0.166334
0.992515 0.876999 0.166980
0.038865 0.926431 0.158580
0.101133 0.927120 0.159269
0.162433 0.927798 0.159947
0.223301 0.928471 0.160621
0.283850 0.929141 0.161291
0.344136 0.929809 0.161958
0.404188 0.930473 0.162622
0.464028 0.931135 0.163284
0.523672 0.931795 0.163944
0.583129 0.932453 0.164602
0.642410 0.933109 0.165258
0.701520 0.933763 0.165912
0.760466 0.934416 0.166565
0.819252 0.935066 0.167215
0.877883 0.935715 0.167864
0.936362 0.936362 0.168511
0.994692 0.937007 0.169156
0.041036 0.986286 0.160751
0.103304 0.986975 0.161440
0.164604 0.987653 0.162118
0.225472 0.988327 0.162792
0.286022 0.988997 0.163462
0.346307 0.989664 0.164129
0.406359 0.990329 0.164793
0.466200 0.990991 0.165456
0.525843 0.991651 0.166116
0.585300 0.992309 0.166774
0.644581 0.992965 0.167430
0.703691 0.993619 0.168084
0.762637 0.994271 0.168736
0.821424 0.994922 0.169386
0.880055 0.995570 0.170035
0.938533 0.996218 0.170682
0.996863 0.996863 0.171328
0.005682 0.005682 0.185087
0.067950 0.006371 0.185776
0.129250 0.007049 0.186454
0.190118 0.007723 0.187128
0.250667 0.008393 0.187798
0.310953 0.009060 0.188465
0.371005 0.009724 0.189130
0.430845 0.010386 0.189792
0.490488 0.011046 0.190452
0.549946 0.011704 0.191110
0.609227 0.012360 0.191766
0.668337 0.013014 0.192420
0.727283 0.013667 0.193072
0.786069 0.014317 0.193723
0.844700 0.014966 0.194371
0.903179 0.015613 0.195018
0.961509 0.016259 0.195664
0.008000 0.069579 0.187405
