luts/film_stocks/fuji_eterna_vivid_500.cube
TITLE "Fuji Eterna Vivid 500"
LUT_3D_SIZE 17
DOMAIN_MIN 0.0 0.0 0.0
DOMAIN_MAX 1.0 1.0 1.0
0.008927 0.020427 0.008927
0.083946 0.018288 0.006788
0.156471 0.016219 0.004719
0.227802 0.014185 0.002685
0.298212 0.012176 0.000676
0.367832 0.010191 0.000000
0.436739 0.008225 0.000000
0.504984 0.006279 0.000000
0.572605 0.004350 0.000000
0.639629 0.002439 0.000000
0.706077 0.000544 0.000000
0.771968 0.000000 0.000000
0.837316 0.000000 0.000000
0.902133 0.000000 0.000000
0.966429 0.000000 0.000000
1.000000 0.000000 0.000000
1.000000 0.000000 0.000000
0.000718 0.100214 0.000718
0.075737 0.098075 0.000000
0.148262 0.096006 0.000000
0.219593 0.093972 0.000000
0.290004 0.091964 0.000000
0.359623 0.089978 0.000000
0.428530 0.088013 0.000000
0.496775 0.086066 0.000000
0.564396 0.084138 0.000000
0.631420 0.082226 0.000000
0.697868 0.080331 0.000000
0.763759 0.078451 0.000000
0.829107 0.076588 0.000000
0.893924 0.074739 0.000000
0.958220 0.072905 0.000000
1.000000 0.071086 0.000000
1.000000 0.069281 0.000000
0.000000 0.173861 0.000000
0.068160 0.171721 0.000000
0.140685 0.169653 0.000000
0.212016 0.167618 0.000000
0.282426 0.165610 0.000000
0.352046 0.163624 0.000000
0.420953 0.161659 0.000000
0.489198 0.159712 0.000000
0.556819 0.157784 0.000000
0.623843 0.155872 0.000000
0.690291 0.153977 0.000000
0.756182 0.152098 0.000000
0.821530 0.150234 0.000000
0.886347 0.148385 0.000000
0.950643 0.146551 0.000000
1.000000 0.144732 0.000000
1.000000 0.142927 0.000000
0.000000 0.244799 0.000000
0.060861 0.242660 0.000000
0.133387 0.240591 0.000000
0.204718 0.238557 0.000000
0.275128 0.236548 0.000000
0.344748 0.234563 0.000000
0.413654 0.232597 0.000000
0.481900 0.230651 0.000000
0.549520 0.228722 0.000000
0.616544 0.226811 0.000000
0.682993 0.224915 0.000000
0.748884 0.223036 0.000000
0.814232 0.221172 0.000000
0.879049 0.219324 0.000000
0.943345 0.217490 0.000000
1.000000 0.215671 0.000000
1.000000 0.213866 0.000000
0.000000 0.313737 0.000000
0.053768 0.311598 0.000000
0.126294 0.309529 0.000000
0.197625 0.307495 0.000000
0.268035 0.305486 0.000000
0.337655 0.303501 0.000000
0.406562 0.301535 0.000000
0.474807 0.299589 0.000000
0.542428 0.297660 0.000000
0.609452 0.295749 0.000000
0.675900 0.293854 0.000000
0.741791 0.291974 0.000000
0.807139 0.290110 0.000000
0.871956 0.288262 0.000000
0.936252 0.286428 0.000000
1.000000 0.284609 0.000000
1.000000 0.282804 0.000000
0.000000 0.381012 0.000000
0.046847 0.378872 0.000000
0.119373 0.376803 0.000000
0.190704 0.374769 0.000000
0.261114 0.372761 0.000000
0.330734 0.370775 0.000000
0.399640 0.368810 0.000000
0.467886 0.366863 0.000000
0.535506 0.364935 0.000000
0.602530 0.363023 0.000000
0.668979 0.361128 0.000000
0.734870 0.359249 0.000000
0.800218 0.357385 0.000000
0.865034 0.355536 0.000000
0.929331 0.353702 0.000000
0.993115 0.351883 0.000000
1.000000 0.350078 0.000000
0.000000 0.446822 0.000000
0.040076 0.444682 0.000000
0.112602 0.442614 0.000000
0.183933 0.440579 0.000000
0.254343 0.438571 0.000000
0.323963 0.436585 0.000000
0.392869 0.434620 0.000000
0.461115 0.432674 0.000000
0.528735 0.430745 0.000000
0.595759 0.428833 0.000000
0.662208 0.426938 0.000000
0.728099 0.425059 0.000000
0.793447 0.423195 0.000000
0.858264 0.421346 0.000000
0.922560 0.419513 0.000000
0.986344 0.417693 0.000000
1.000000 0.415888 0.000000
0.000000 0.511301 0.000000
0.033442 0.509161 0.000000
0.105968 0.507093 0.000000
0.177299 0.505058 0.000000
0.247709 0.503050 0.000000
0.317329 0.501064 0.000000
0.386236 0.499099 0.000000
0.454481 0.497153 0.000000
0.522101 0.495224 0.000000
0.589125 0.493312 0.000000
0.655574 0.491417 0.000000
0.721465 0.489538 0.000000
0.786813 0.487674 0.000000
0.851630 0.485825 0.000000
0.915926 0.483992 0.000000
0.979710 0.482172 0.000000
1.000000 0.480368 0.000000
0.000000 0.574544 0.000000
0.026935 0.572405 0.000000
0.099461 0.570336 0.000000
0.170792 0.568302 0.000000
0.241202 0.566294 0.000000
0.310822 0.564308 0.000000
0.379729 0.562343 0.000000
0.447974 0.560396 0.000000
0.515595 0.558468 0.000000
0.582618 0.556556 0.000000
0.649067 0.554661 0.000000
0.714958 0.552781 0.000000
0.780306 0.550918 0.000000
0.845123 0.549069 0.000000
0.909419 0.547235 0.000000
0.973203 0.545416 0.000000
1.000000 0.543611 0.000000
0.000000 0.636624 0.000000
0.020548 0.634485 0.000000
0.093074 0.632416 0.000000
0.164405 0.630382 0.000000
0.234815 0.628374 0.000000
0.304435 0.626388 0.000000
0.373342 0.624423 0.000000
0.441587 0.622476 0.000000
0.509208 0.620548 0.000000
0.576231 0.618636 0.000000
0.642680 0.616741 0.000000
0.708571 0.614861 0.000000
0.773919 0.612998 0.000000
0.838736 0.611149 0.000000
0.903032 0.609315 0.000000
0.966816 0.607496 0.000000
1.000000 0.605691 0.000000
0.000000 0.697598 0.000000
0.014275 0.695458 0.000000
0.086801 0.693389 0.000000
0.158132 0.691355 0.000000
0.228542 0.689347 0.000000
0.298162 0.687361 0.000000
0.367068 0.685396 0.000000
0.435314 0.683449 0.000000
0.502934 0.681521 0.000000
0.569958 0.679609 0.000000
0.636407 0.677714 0.000000
0.702298 0.675835 0.000000
0.767646 0.673971 0.000000
0.832463 0.672122 0.000000
0.896759 0.670288 0.000000
0.960543 0.668469 0.000000
1.000000 0.666664 0.000000
0.000000 0.757510 0.000000
0.008111 0.755370 0.000000
0.080637 0.753301 0.000000
0.151968 0.751267 0.000000
0.222378 0.749259 0.000000
0.291998 0.747273 0.000000
0.360904 0.745308 0.000000
0.429150 0.743361 0.000000
0.496770 0.741433 0.000000
0.563794 0.739521 0.000000
0.630243 0.737626 0.000000
0.696134 0.735747 0.000000
0.761482 0.733883 0.000000
0.826299 0.732034 0.000000
0.890595 0.730200 0.000000
0.954379 0.728381 0.000000
1.000000 0.726576 0.000000
0.000000 0.816398 0.000000
0.002052 0.814259 0.000000
0.074578 0.812190 0.000000
0.145909 0.810156 0.000000
0.216319 0.808147 0.000000
0.285939 0.806162 0.000000
0.354846 0.804196 0.000000
0.423091 0.802250 0.000000
0.490712 0.800321 0.000000
0.557735 0.798410 0.000000
0.624184 0.796514 0.000000
0.690075 0.794635 0.000000
0.755423 0.792771 0.000000
0.820240 0.790923 0.000000
0.884536 0.789089 0.000000
0.948320 0.787270 0.000000
1.000000 0.785465 0.000000
0.000000 0.874295 0.000000
0.000000 0.872156 0.000000
0.068621 0.870087 0.000000
0.139952 0.868053 0.000000
0.210362 0.866044 0.000000
0.279982 0.864059 0.000000
0.348889 0.862094 0.000000
0.417134 0.860147 0.000000
0.484755 0.858218 0.000000
0.551779 0.856307 0.000000
0.618227 0.854412 0.000000
0.684118 0.852532 0.000000
0.749466 0.850669 0.000000
0.814283 0.848820 0.000000
0.878579 0.846986 0.000000
0.942364 0.845167 0.000000
1.000000 0.843362 0.000000
0.000000 0.931228 0.000000
0.000000 0.929089 0.000000
0.062764 0.927020 0.000000
0.134095 0.924986 0.000000
0.204505 0.922977 0.000000
0.274125 0.920992 0.000000
0.343031 0.919026 0.000000
0.411277 0.917080 0.000000
0.478897 0.915151 0.000000
0.545921 0.913240 0.000000
0.612370 0.911345 0.000000
0.678261 0.909465 0.000000
0.743609 0.907601 0.000000
0.808426 0.905753 0.000000
0.872722 0.903919 0.000000
0.936506 0.902100 0.000000
0.999786 0.900295 0.000000
0.000000 0.987220 0.000000
0.000000 0.985081 0.000000
0.057003 0.983012 0.000000
0.128334 0.980978 0.000000
0.198744 0.978970 0.000000
0.268364 0.976984 0.000000
0.337271 0.975019 0.000000
0.405516 0.973072 0.000000
0.473137 0.971144 0.000000
0.540160 0.969232 0.000000
0.606609 0.967337 0.000000
0.672500 0.965457 0.000000
0.737848 0.963594 0.000000
0.802665 0.961745 0.000000
0.866961 0.959911 0.000000
0.930745 0.958092 0.000000
0.994026 0.956287 0.000000
0.000000 1.000000 0.000000
0.000000 1.000000 0.000000
0.051337 1.000000 0.000000
0.122668 1.000000 0.000000
0.193078 1.000000 0.000000
0.262698 1.000000 0.000000
0.331605 1.000000 0.000000
0.399850 1.000000 0.000000
0.467470 1.000000 0.000000
0.534494 1.000000 0.000000
0.600943 1.000000 0.000000
0.666834 1.000000 0.000000
0.732182 1.000000 0.000000
0.796999 1.000000 0.000000
0.861295 1.000000 0.000000
0.925079 1.000000 0.000000
0.988359 1.000000 0.000000
0.008152 0.019652 0.090431
0.083171 0.017513 0.088291
0.155696 0.015444 0.086223
0.227027 0.013410 0.084188
0.297438 0.011402 0.082180
0.367057 0.009416 0.080194
0.435964 0.007451 0.078229
0.504209 0.005504 0.076283
0.571830 0.003576 0.074354
0.638854 0.001664 0.072442
0.705302 0.000000 0.070547
0.771194 0.000000 0.068668
0.836541 0.000000 0.066804
0.901358 0.000000 0.064955
0.965654 0.000000 0.063122
1.000000 0.000000 0.061302
1.000000 0.000000 0.059498
0.000000 0.099440 0.082222
0.074962 0.097300 0.080082
0.147487 0.095231 0.078014
0.218819 0.093197 0.075979
0.289229 0.091189 0.073971
0.358848 0.089203 0.071986
0.427755 0.087238 0.070020
0.496000 0.085291 0.068074
0.563621 0.083363 0.066145
0.630645 0.081451 0.064234
0.697094 0.079556 0.062338
0.762985 0.077677 0.060459
0.828333 0.075813 0.058595
0.893149 0.073964 0.056747
0.957445 0.072130 0.054913
1.000000 0.070311 0.053094
1.000000 0.068506 0.051289
0.000000 0.173086 0.074645
0.067385 0.170946 0.072505
0.139910 0.168878 0.070437
0.211241 0.166843 0.068402
0.281652 0.164835 0.066394
0.351271 0.162849 0.064408
0.420178 0.160884 0.062443
0.488423 0.158938 0.060497
0.556044 0.157009 0.058568
0.623068 0.155097 0.056656
0.689516 0.153202 0.054761
0.755408 0.151323 0.052882
0.820755 0.149459 0.051018
0.885572 0.147610 0.049169
0.949868 0.145777 0.047336
1.000000 0.143957 0.045516
1.000000 0.142153 0.043712
0.000000 0.244024 0.067346
0.060086 0.241885 0.065207
0.132612 0.239816 0.063138
0.203943 0.237782 0.061104
0.274353 0.235773 0.059096
0.343973 0.233788 0.057110
0.412880 0.231823 0.055145
0.481125 0.229876 0.053198
0.548746 0.227947 0.051270
0.615769 0.226036 0.049358
0.682218 0.224141 0.047463
0.748109 0.222261 0.045583
0.813457 0.220398 0.043720
0.878274 0.218549 0.041871
0.942570 0.216715 0.040037
1.000000 0.214896 0.038218
1.000000 0.213091 0.036413
0.000000 0.312962 0.060254
0.052994 0.310823 0.058114
0.125519 0.308754 0.056046
0.196850 0.306720 0.054011
0.267260 0.304712 0.052003
0.336880 0.302726 0.050017
0.405787 0.300761 0.048052
0.474032 0.298814 0.046106
0.541653 0.296885 0.044177
0.608677 0.294974 0.042265
0.675125 0.293079 0.040370
0.741016 0.291199 0.038491
0.806364 0.289336 0.036627
0.871181 0.287487 0.034778
0.935477 0.285653 0.032944
0.999262 0.283834 0.031125
1.000000 0.282029 0.029320
0.000000 0.380237 0.053332
0.046072 0.378097 0.051193
0.118598 0.376029 0.049124
0.189929 0.373994 0.047090
0.260339 0.371986 0.045081
0.329959 0.370000 0.043096
0.398865 0.368035 0.041130
0.467111 0.366088 0.039184
0.534731 0.364160 0.037255
0.601755 0.362248 0.035344
0.668204 0.360353 0.033449
0.734095 0.358474 0.031569
0.799443 0.356610 0.029705
0.864260 0.354761 0.027857
0.928556 0.352927 0.026023
0.992340 0.351108 0.024204
1.000000 0.349303 0.022399
0.000000 0.446047 0.046561
0.039301 0.443907 0.044422
0.111827 0.441839 0.042353
0.183158 0.439804 0.040319
0.253568 0.437796 0.038311
0.323188 0.435810 0.036325
0.392095 0.433845 0.034360
0.460340 0.431899 0.032413
0.527961 0.429970 0.030484
0.594984 0.428058 0.028573
0.661433 0.426163 0.026678
0.727324 0.424284 0.024798
0.792672 0.422420 0.022935
0.857489 0.420571 0.021086
0.921785 0.418738 0.019252
0.985569 0.416918 0.017433
1.000000 0.415114 0.015628
0.000000 0.510526 0.039927
0.032667 0.508386 0.037788
0.105193 0.506318 0.035719
0.176524 0.504283 0.033685
0.246934 0.502275 0.031677
0.316554 0.500290 0.029691
0.385461 0.498324 0.027726
0.453706 0.496378 0.025779
0.521327 0.494449 0.023851
0.588350 0.492538 0.021939
0.654799 0.490642 0.020044
0.720690 0.488763 0.018164
0.786038 0.486899 0.016301
0.850855 0.485051 0.014452
0.915151 0.483217 0.012618
0.978935 0.481398 0.010799
1.000000 0.479593 0.008994
0.000000 0.573770 0.033421
0.026161 0.571630 0.031281
0.098686 0.569561 0.029212
0.170017 0.567527 0.027178
0.240427 0.565519 0.025170
0.310047 0.563533 0.023184
0.378954 0.561568 0.021219
0.447199 0.559621 0.019272
0.514820 0.557693 0.017344
0.581844 0.555781 0.015432
0.648292 0.553886 0.013537
0.714183 0.552007 0.011658
0.779531 0.550143 0.009794
0.844348 0.548294 0.007945
0.908644 0.546460 0.006111
0.972428 0.544641 0.004292
1.000000 0.542836 0.002487
0.000000 0.635850 0.027034
0.019773 0.633710 0.024894
0.092299 0.631641 0.022825
0.163630 0.629607 0.020791
0.234040 0.627599 0.018783
0.303660 0.625613 0.016797
0.372567 0.623648 0.014832
0.440812 0.621701 0.012885
0.508433 0.619773 0.010957
0.575456 0.617861 0.009045
0.641905 0.615966 0.007150
0.707796 0.614087 0.005271
0.773144 0.612223 0.003407
0.837961 0.610374 0.001558
0.902257 0.608540 0.000000
0.966041 0.606721 0.000000
1.000000 0.604916 0.000000
0.000000 0.696823 0.020760
0.013500 0.694683 0.018621
0.086026 0.692615 0.016552
0.157357 0.690580 0.014518
0.227767 0.688572 0.012510
0.297387 0.686586 0.010524
0.366294 0.684621 0.008559
0.434539 0.682674 0.006612
0.502159 0.680746 0.004683
0.569183 0.678834 0.002772
0.635632 0.676939 0.000877
0.701523 0.675060 0.000000
0.766871 0.673196 0.000000
0.831688 0.671347 0.000000
0.895984 0.669513 0.000000
0.959768 0.667694 0.000000
1.000000 0.665889 0.000000
0.000000 0.756735 0.014596
0.007336 0.754595 0.012457
0.079862 0.752527 0.010388
0.151193 0.750492 0.008354
0.221603 0.748484 0.006346
0.291223 0.746498 0.004360
0.360130 0.744533 0.002395
0.428375 0.742586 0.000448
0.495995 0.740658 0.000000
0.563019 0.738746 0.000000
0.629468 0.736851 0.000000
0.695359 0.734972 0.000000
0.760707 0.733108 0.000000
0.825524 0.731259 0.000000
0.889820 0.729425 0.000000
0.953604 0.727606 0.000000
1.000000 0.725801 0.000000
0.000000 0.815623 0.008538
0.001277 0.813484 0.006398
0.073803 0.811415 0.004329
0.145134 0.809381 0.002295
0.215544 0.807372 0.000287
0.285164 0.805387 0.000000
0.354071 0.803422 0.000000
0.422316 0.801475 0.000000
0.489937 0.799546 0.000000
0.556961 0.797635 0.000000
0.623409 0.795740 0.000000
0.689300 0.793860 0.000000
0.754648 0.791997 0.000000
0.819465 0.790148 0.000000
0.883761 0.788314 0.000000
0.947545 0.786495 0.000000
1.000000 0.784690 0.000000
0.000000 0.873520 0.002581
0.000000 0.871381 0.000441
0.067846 0.869312 0.000000
0.139177 0.867278 0.000000
0.209588 0.865270 0.000000
0.279207 0.863284 0.000000
0.348114 0.861319 0.000000
0.416359 0.859372 0.000000
0.483980 0.857444 0.000000
0.551004 0.855532 0.000000
0.617452 0.853637 0.000000
0.683344 0.851757 0.000000
0.748691 0.849894 0.000000
0.813508 0.848045 0.000000
0.877804 0.846211 0.000000
0.941589 0.844392 0.000000
1.000000 0.842587 0.000000
0.000000 0.930453 0.000000
0.000000 0.928314 0.000000
0.061989 0.926245 0.000000
0.133320 0.924211 0.000000
0.203730 0.922203 0.000000
0.273350 0.920217 0.000000
0.342257 0.918252 0.000000
0.410502 0.916305 0.000000
0.478122 0.914376 0.000000
0.545146 0.912465 0.000000
0.611595 0.910570 0.000000
0.677486 0.908690 0.000000
0.742834 0.906827 0.000000
0.807651 0.904978 0.000000
0.871947 0.903144 0.000000
0.935731 0.901325 0.000000
0.999012 0.899520 0.000000
0.000000 0.986446 0.000000
0.000000 0.984306 0.000000
0.056228 0.982237 0.000000
0.127559 0.980203 0.000000
0.197969 0.978195 0.000000
0.267589 0.976209 0.000000
0.336496 0.974244 0.000000
0.404741 0.972297 0.000000
0.472362 0.970369 0.000000
0.539385 0.968457 0.000000
0.605834 0.966562 0.000000
0.671725 0.964683 0.000000
0.737073 0.962819 0.000000
0.801890 0.960970 0.000000
0.866186 0.959136 0.000000
0.929970 0.957317 0.000000
0.993251 0.955512 0.000000
0.000000 1.000000 0.000000
0.000000 1.000000 0.000000
0.050562 1.000000 0.000000
0.121893 1.000000 0.000000
0.192303 1.000000 0.000000
0.261923 1.000000 0.000000
0.330830 1.000000 0.000000
0.399075 1.000000 0.000000
0.466696 1.000000 0.000000
0.533719 1.000000 0.000000
0.600168 1.000000 0.000000
0.666059 1.000000 0.000000
0.731407 1.000000 0.000000
0.796224 1.000000 0.000000
0.860520 1.000000 0.000000
0.924304 1.000000 0.000000
0.987585 1.000000 0.000000
0.007414 0.018914 0.168086
0.082432 0.016774 0.165946
0.154958 0.014706 0.163878
0.226289 0.012671 0.161844
0.296699 0.010663 0.159835
0.366319 0.008678 0.157850
0.435226 0.006712 0.155884
0.503471 0.004766 0.153938
0.571092 0.002837 0.152009
0.638116 0.000926 0.150098
0.704564 0.000000 0.148202
0.770455 0.000000 0.146323
0.835803 0.000000 0.144459
0.900620 0.000000 0.142611
0.964916 0.000000 0.140777
1.000000 0.000000 0.138958
1.000000 0.000000 0.137153
0.000000 0.098701 0.159877
0.074224 0.096562 0.157738
0.146749 0.094493 0.155669
0.218080 0.092459 0.153635
0.288490 0.090450 0.151626
0.358110 0.088465 0.149641
0.427017 0.086499 0.147675
0.495262 0.084553 0.145729
0.562883 0.082624 0.143800
0.629907 0.080713 0.141889
0.696355 0.078818 0.139994
0.762246 0.076938 0.138114
0.827594 0.075074 0.136250
0.892411 0.073226 0.134402
0.956707 0.071392 0.132568
1.000000 0.069573 0.130749
1.000000 0.067768 0.128944
0.000000 0.172348 0.152300
0.066647 0.170208 0.150161
0.139172 0.168139 0.148092
0.210503 0.166105 0.146058
0.280913 0.164097 0.144049
0.350533 0.162111 0.142064
0.419440 0.160146 0.140098
0.487685 0.158199 0.138152
0.555306 0.156271 0.136223
0.622330 0.154359 0.134312
0.688778 0.152464 0.132416
0.754669 0.150585 0.130537
0.820017 0.148721 0.128673
0.884834 0.146872 0.126825
0.949130 0.145038 0.124991
1.000000 0.143219 0.123172
1.000000 0.141414 0.121367
0.000000 0.243286 0.145002
0.059348 0.241146 0.142862
0.131874 0.239078 0.140794
0.203205 0.237043 0.138759
0.273615 0.235035 0.136751
0.343235 0.233050 0.134765
0.412141 0.231084 0.132800
0.480387 0.229138 0.130853
0.548007 0.227209 0.128925
0.615031 0.225298 0.127013
0.681480 0.223402 0.125118
0.747371 0.221523 0.123239
0.812719 0.219659 0.121375
0.877536 0.217811 0.119526
0.941832 0.215977 0.117692
1.000000 0.214158 0.115873
1.000000 0.212353 0.114068
0.000000 0.312224 0.137909
0.052255 0.310084 0.135769
0.124781 0.308016 0.133701
0.196112 0.305981 0.131666
0.266522 0.303973 0.129658
0.336142 0.301988 0.127673
0.405049 0.300022 0.125707
0.473294 0.298076 0.123761
0.540915 0.296147 0.121832
0.607938 0.294236 0.119921
0.674387 0.292340 0.118025
0.740278 0.290461 0.116146
0.805626 0.288597 0.114282
0.870443 0.286749 0.112434
0.934739 0.284915 0.110600
0.998523 0.283096 0.108781
1.000000 0.281291 0.106976
0.000000 0.379498 0.130987
0.045334 0.377359 0.128848
0.117859 0.375290 0.126779
0.189191 0.373256 0.124745
0.259601 0.371248 0.122737
0.329220 0.369262 0.120751
0.398127 0.367297 0.118786
0.466372 0.365350 0.116839
0.533993 0.363422 0.114911
0.601017 0.361510 0.112999
0.667466 0.359615 0.111104
0.733357 0.357735 0.109225
0.798705 0.355872 0.107361
0.863521 0.354023 0.105512
0.927817 0.352189 0.103678
0.991602 0.350370 0.101859
1.000000 0.348565 0.100054
0.000000 0.445309 0.124217
0.038563 0.443169 0.122077
0.111089 0.441101 0.120008
0.182420 0.439066 0.117974
0.252830 0.437058 0.115966
0.322450 0.435072 0.113980
0.391356 0.433107 0.112015
0.459602 0.431160 0.110068
0.527222 0.429232 0.108140
0.594246 0.427320 0.106228
0.660695 0.425425 0.104333
0.726586 0.423546 0.102454
0.791934 0.421682 0.100590
0.856750 0.419833 0.098741
0.921047 0.417999 0.096907
0.984831 0.416180 0.095088
1.000000 0.414375 0.093283
0.000000 0.509788 0.117583
0.031929 0.507648 0.115443
0.104455 0.505580 0.113375
0.175786 0.503545 0.111340
0.246196 0.501537 0.109332
0.315816 0.499551 0.107346
0.384722 0.497586 0.105381
0.452968 0.495640 0.103434
0.520588 0.493711 0.101506
0.587612 0.491799 0.099594
0.654061 0.489904 0.097699
0.719952 0.488025 0.095820
0.785300 0.486161 0.093956
0.850117 0.484312 0.092107
0.914413 0.482479 0.090273
0.978197 0.480659 0.088454
1.000000 0.478854 0.086649
0.000000 0.573031 0.111076
0.025422 0.570892 0.108936
0.097948 0.568823 0.106868
0.169279 0.566789 0.104833
0.239689 0.564781 0.102825
0.309309 0.562795 0.100839
0.378216 0.560830 0.098874
0.446461 0.558883 0.096928
0.514082 0.556954 0.094999
0.581105 0.555043 0.093087
0.647554 0.553148 0.091192
0.713445 0.551268 0.089313
0.778793 0.549405 0.087449
0.843610 0.547556 0.085600
0.907906 0.545722 0.083767
0.971690 0.543903 0.081947
1.000000 0.542098 0.080143
0.000000 0.635111 0.104689
0.019035 0.632972 0.102549
0.091561 0.630903 0.100481
0.162892 0.628869 0.098446
0.233302 0.626861 0.096438
0.302922 0.624875 0.094452
0.371829 0.622910 0.092487
0.440074 0.620963 0.090541
0.507694 0.619034 0.088612
0.574718 0.617123 0.086700
0.641167 0.615228 0.084805
0.707058 0.613348 0.082926
0.772406 0.611485 0.081062
0.837223 0.609636 0.079213
0.901519 0.607802 0.077380
0.965303 0.605983 0.075560
1.000000 0.604178 0.073756
0.000000 0.696084 0.098416
0.012762 0.693945 0.096276
0.085288 0.691876 0.094207
0.156619 0.689842 0.092173
0.227029 0.687834 0.090165
0.296649 0.685848 0.088179
0.365555 0.683883 0.086214
0.433801 0.681936 0.084267
0.501421 0.680008 0.082339
0.568445 0.678096 0.080427
0.634894 0.676201 0.078532
0.700785 0.674321 0.076653
0.766133 0.672458 0.074789
0.830949 0.670609 0.072940
0.895246 0.668775 0.071106
0.959030 0.666956 0.069287
1.000000 0.665151 0.067482
0.000000 0.755996 0.092252
0.006598 0.753857 0.090112
0.079124 0.751788 0.088043
0.150455 0.749754 0.086009
0.220865 0.747746 0.084001
0.290485 0.745760 0.082015
0.359391 0.743795 0.080050
0.427637 0.741848 0.078103
0.495257 0.739920 0.076175
0.562281 0.738008 0.074263
0.628730 0.736113 0.072368
0.694621 0.734233 0.070489
0.759969 0.732370 0.068625
0.824785 0.730521 0.066776
0.889082 0.728687 0.064942
0.952866 0.726868 0.063123
1.000000 0.725063 0.061318
0.000000 0.814885 0.086193
0.000539 0.812745 0.084053
0.073065 0.810677 0.081985
0.144396 0.808642 0.079950
0.214806 0.806634 0.077942
0.284426 0.804649 0.075956
0.353333 0.802683 0.073991
0.421578 0.800737 0.072045
0.489198 0.798808 0.070116
0.556222 0.796897 0.068204
0.622671 0.795001 0.066309
0.688562 0.793122 0.064430
0.753910 0.791258 0.062566
0.818727 0.789410 0.060717
0.883023 0.787576 0.058884
0.946807 0.785757 0.057064
1.000000 0.783952 0.055260
0.000000 0.872782 0.080236
0.000000 0.870643 0.078096
0.067108 0.868574 0.076028
0.138439 0.866540 0.073993
0.208849 0.864531 0.071985
0.278469 0.862546 0.070000
0.347376 0.860580 0.068034
0.415621 0.858634 0.066088
0.483242 0.856705 0.064159
0.550266 0.854794 0.062248
0.616714 0.852899 0.060352
0.682605 0.851019 0.058473
0.747953 0.849155 0.056609
0.812770 0.847307 0.054761
0.877066 0.845473 0.052927
0.940850 0.843654 0.051108
1.000000 0.841849 0.049303
0.000000 0.929715 0.074379
0.000000 0.927575 0.072239
0.061251 0.925507 0.070170
0.132582 0.923472 0.068136
0.202992 0.921464 0.066128
0.272612 0.919479 0.064142
0.341518 0.917513 0.062177
0.409764 0.915567 0.060230
0.477384 0.913638 0.058302
0.544408 0.911727 0.056390
0.610857 0.909831 0.054495
0.676748 0.907952 0.052616
0.742096 0.906088 0.050752
0.806912 0.904240 0.048903
0.871209 0.902406 0.047069
0.934993 0.900587 0.045250
0.998273 0.898782 0.043445
0.000000 0.985707 0.068618
0.000000 0.983568 0.066478
0.055490 0.981499 0.064410
0.126821 0.979465 0.062375
0.197231 0.977457 0.060367
0.266851 0.975471 0.058381
0.335758 0.973506 0.056416
0.404003 0.971559 0.054470
0.471623 0.969630 0.052541
0.538647 0.967719 0.050629
0.605096 0.965824 0.048734
0.670987 0.963944 0.046855
0.736335 0.962081 0.044991
0.801152 0.960232 0.043142
0.865448 0.958398 0.041309
0.929232 0.956579 0.039489
0.992512 0.954774 0.037685
0.000000 1.000000 0.062952
0.000000 1.000000 0.060812
0.049824 1.000000 0.058744
0.121155 1.000000 0.056709
0.191565 1.000000 0.054701
0.261185 1.000000 0.052715
0.330091 1.000000 0.050750
0.398337 1.000000 0.048804
0.465957 1.000000 0.046875
0.532981 1.000000 0.044963
0.599430 1.000000 0.043068
0.665321 1.000000 0.041189
0.730669 1.000000 0.039325
0.795486 1.000000 0.037476
0.859782 1.000000 0.035642
0.923566 1.000000 0.033823
0.986846 1.000000 0.032018
0.006692 0.018192 0.244001
0.081711 0.016053 0.241861
0.154236 0.013984 0.239793
0.225567 0.011950 0.237758
0.295978 0.009942 0.235750
0.365597 0.007956 0.233764
0.434504 0.005991 0.231799
0.502749 0.004044 0.229852
0.570370 0.002116 0.227924
0.637394 0.000204 0.226012
0.703842 0.000000 0.224117
0.769734 0.000000 0.222238
0.835081 0.000000 0.220374
0.899898 0.000000 0.218525
0.964194 0.000000 0.216691
1.000000 0.000000 0.214872
1.000000 0.000000 0.213067
0.000000 0.097980 0.235792
