luts/film_stocks/fuji_eterna_250d.cube
TITLE "Fuji Eterna 250D"
LUT_3D_SIZE 9
DOMAIN_MIN 0.0 0.0 0.0
DOMAIN_MAX 1.0 1.0 1.0
0.005000 0.005000 0.005000
0.128568 0.006367 0.006367
0.249986 0.007711 0.007711
0.370323 0.009043 0.009043
0.489807 0.010365 0.010365
0.608545 0.011679 0.011679
0.726601 0.012985 0.012985
0.844018 0.014284 0.014284
0.960827 0.015577 0.015577
0.009600 0.131800 0.009600
0.133168 0.133168 0.010967
0.254586 0.134511 0.012311
0.374923 0.135843 0.013642
0.494407 0.137165 0.014965
0.613145 0.138479 0.016278
0.731201 0.139785 0.017585
0.848618 0.141085 0.018884
0.965427 0.142377 0.020177
0.014120 0.256394 0.014120
0.137688 0.257762 0.015487
0.259105 0.259105 0.016831
0.379443 0.260437 0.018162
0.498926 0.261759 0.019484
0.617665 0.263073 0.020798
0.735721 0.264379 0.022105
0.853138 0.265679 0.023404
0.969947 0.266971 0.024697
0.018599 0.379880 0.018599
0.142167 0.381247 0.019967
0.263585 0.382591 0.021310
0.383922 0.383922 0.022642
0.503406 0.385245 0.023964
0.622144 0.386558 0.025278
0.740201 0.387865 0.026584
0.857618 0.389164 0.027884
0.974426 0.390457 0.029176
0.023047 0.502489 0.023047
0.146615 0.503857 0.024415
0.268033 0.505200 0.025758
0.388370 0.506532 0.027090
0.507854 0.507854 0.028412
0.626592 0.509168 0.029726
0.744648 0.510474 0.031032
0.862066 0.511774 0.032331
0.978874 0.513066 0.033624
0.027467 0.624333 0.027467
0.151035 0.625701 0.028835
0.272453 0.627044 0.030178
0.392790 0.628376 0.031510
0.512274 0.629698 0.032832
0.631012 0.631012 0.034146
0.749069 0.632318 0.035452
0.866486 0.633618 0.036752
0.983294 0.634910 0.038044
0.031862 0.745478 0.031862
0.155430 0.746846 0.033229
0.276848 0.748189 0.034573
0.397185 0.749521 0.035905
0.516669 0.750843 0.037227
0.635407 0.752157 0.038541
0.753463 0.753463 0.039847
0.870880 0.754763 0.041146
0.987689 0.756055 0.042439
0.036233 0.865967 0.036233
0.159801 0.867334 0.037600
0.281219 0.868678 0.038944
0.401556 0.870010 0.040275
0.521040 0.871332 0.041598
0.639778 0.872646 0.042912
0.757834 0.873952 0.044218
0.875251 0.875251 0.045517
0.992060 0.876544 0.046810
0.040581 0.985831 0.040581
0.164149 0.987199 0.041949
0.285567 0.988542 0.043292
0.405904 0.989874 0.044624
0.525388 0.991196 0.045946
0.644126 0.992510 0.047260
0.762182 0.993816 0.048566
0.879600 0.995115 0.049865
0.996408 0.996408 0.051158
0.005455 0.005455 0.125170
0.129023 0.006822 0.126537
0.250441 0.008166 0.127881
0.370778 0.009497 0.129212
0.490262 0.010820 0.130534
0.609000 0.012134 0.131848
0.727056 0.013440 0.133155
0.844473 0.014739 0.134454
0.961282 0.016032 0.135747
0.010055 0.132255 0.129770
0.133623 0.133623 0.131137
0.255040 0.134966 0.132481
0.375378 0.136298 0.133812
0.494862 0.137620 0.135134
0.613600 0.138934 0.136448
0.731656 0.140240 0.137755
0.849073 0.141540 0.139054
0.965882 0.142832 0.140346
0.014575 0.256849 0.134289
0.138142 0.258217 0.135657
0.259560 0.259560 0.137000
0.379898 0.260892 0.138332
0.499381 0.262214 0.139654
0.618119 0.263528 0.140968
0.736176 0.264834 0.142274
0.853593 0.266134 0.143574
0.970401 0.267426 0.144866
0.019054 0.380335 0.138769
0.142622 0.381702 0.140136
0.264040 0.383046 0.141480
0.384377 0.384377 0.142812
0.503861 0.385699 0.144134
0.622599 0.387013 0.145448
0.740656 0.388320 0.146754
0.858073 0.389619 0.148053
0.974881 0.390912 0.149346
0.023502 0.502944 0.143217
0.147070 0.504312 0.144584
0.268488 0.505655 0.145928
0.388825 0.506987 0.147260
0.508309 0.508309 0.148582
0.627047 0.509623 0.149896
0.745103 0.510929 0.151202
0.862521 0.512228 0.152501
0.979329 0.513521 0.153794
0.027922 0.624788 0.147637
0.151490 0.626156 0.149004
0.272908 0.627499 0.150348
0.393245 0.628831 0.151680
0.512729 0.630153 0.153002
0.631467 0.631467 0.154316
0.749523 0.632773 0.155622
0.866941 0.634073 0.156921
0.983749 0.635365 0.158214
0.032317 0.745933 0.152032
0.155885 0.747301 0.153399
0.277303 0.748644 0.154743
0.397640 0.749976 0.156074
0.517124 0.751298 0.157396
0.635862 0.752612 0.158710
0.753918 0.753918 0.160017
0.871335 0.755217 0.161316
0.988144 0.756510 0.162609
0.036688 0.866422 0.156403
0.160256 0.867789 0.157770
0.281674 0.869133 0.159114
0.402011 0.870465 0.160445
0.521495 0.871787 0.161767
0.640233 0.873101 0.163081
0.758289 0.874407 0.164388
0.875706 0.875706 0.165687
0.992515 0.876999 0.166980
0.041036 0.986286 0.160751
0.164604 0.987653 0.162118
0.286022 0.988997 0.163462
0.406359 0.990329 0.164793
0.525843 0.991651 0.166116
0.644581 0.992965 0.167430
0.762637 0.994271 0.168736
0.880055 0.995570 0.170035
0.996863 0.996863 0.171328
0.005908 0.005908 0.244893
0.129476 0.007275 0.246260
0.250894 0.008619 0.247603
0.371231 0.009951 0.248935
0.490715 0.011273 0.250257
0.609453 0.012587 0.251571
0.727509 0.013893 0.252878
0.844927 0.015192 0.254177
0.961735 0.016485 0.255469
0.010508 0.132708 0.249492
0.134076 0.134076 0.250860
0.255494 0.135419 0.252203
0.375831 0.136751 0.253535
0.495315 0.138073 0.254857
0.614053 0.139387 0.256171
0.732109 0.140693 0.257477
0.849526 0.141993 0.258777
0.966335 0.143285 0.260069
0.015028 0.257303 0.254012
0.138596 0.258670 0.255380
0.260014 0.260014 0.256723
0.380351 0.261345 0.258055
0.499835 0.262667 0.259377
0.618573 0.263981 0.260691
0.736629 0.265288 0.261997
0.854046 0.266587 0.263297
0.970855 0.267879 0.264589
0.019507 0.380788 0.258492
0.143075 0.382155 0.259859
0.264493 0.383499 0.261203
0.384831 0.384831 0.262534
0.504314 0.386153 0.263857
0.623052 0.387467 0.265170
0.741109 0.388773 0.266477
0.858526 0.390072 0.267776
0.975334 0.391365 0.269069
0.023955 0.503397 0.262940
0.147523 0.504765 0.264307
0.268941 0.506108 0.265651
0.389278 0.507440 0.266982
0.508762 0.508762 0.268304
0.627500 0.510076 0.269618
0.745557 0.511382 0.270925
0.862974 0.512682 0.272224
0.979782 0.513974 0.273517
0.028375 0.625242 0.267360
0.151943 0.626609 0.268727
0.273361 0.627953 0.270071
0.393698 0.629284 0.271402
0.513182 0.630606 0.272725
0.631920 0.631920 0.274038
0.749977 0.633227 0.275345
0.867394 0.634526 0.276644
0.984202 0.635818 0.277937
0.032770 0.746386 0.271755
0.156338 0.747754 0.273122
0.277756 0.749097 0.274465
0.398093 0.750429 0.275797
0.517577 0.751751 0.277119
0.636315 0.753065 0.278433
0.754371 0.754371 0.279740
0.871789 0.755671 0.281039
0.988597 0.756963 0.282331
0.037141 0.866875 0.276125
0.160709 0.868243 0.277493
0.282127 0.869586 0.278836
0.402464 0.870918 0.280168
0.521948 0.872240 0.281490
0.640686 0.873554 0.282804
0.758742 0.874860 0.284110
0.876160 0.876160 0.285410
0.992968 0.877452 0.286702
0.041489 0.986739 0.280474
0.165057 0.988107 0.281841
0.286475 0.989450 0.283185
0.406812 0.990782 0.284516
0.526296 0.992104 0.285838
0.645034 0.993418 0.287152
0.763091 0.994724 0.288459
0.880508 0.996024 0.289758
0.997316 0.997316 0.291051
0.006360 0.006360 0.364168
0.129927 0.007727 0.365536
0.251345 0.009071 0.366879
0.371683 0.010402 0.368211
0.491166 0.011724 0.369533
0.609904 0.013038 0.370847
0.727961 0.014345 0.372153
0.845378 0.015644 0.373453
0.962187 0.016937 0.374745
0.010960 0.133160 0.368768
0.134527 0.134527 0.370136
0.255945 0.135871 0.371479
0.376283 0.137203 0.372811
0.495766 0.138525 0.374133
0.614504 0.139839 0.375447
0.732561 0.141145 0.376753
0.849978 0.142444 0.378052
0.966786 0.143737 0.379345
0.015479 0.257754 0.373288
0.139047 0.259121 0.374655
0.260465 0.260465 0.375999
0.380802 0.261797 0.377331
0.500286 0.263119 0.378653
0.619024 0.264433 0.379967
0.737081 0.265739 0.381273
0.854498 0.267038 0.382572
0.971306 0.268331 0.383865
0.019959 0.381240 0.377768
0.143527 0.382607 0.379135
0.264945 0.383950 0.380479
0.385282 0.385282 0.381810
0.504766 0.386604 0.383132
0.623504 0.387918 0.384446
0.741560 0.389225 0.385753
0.858977 0.390524 0.387052
0.975786 0.391816 0.388344
0.024407 0.503849 0.382215
0.147975 0.505216 0.383583
0.269393 0.506560 0.384926
0.389730 0.507891 0.386258
0.509214 0.509214 0.387580
0.627952 0.510528 0.388894
0.746008 0.511834 0.390200
0.863425 0.513133 0.391500
0.980234 0.514426 0.392792
0.028827 0.625693 0.386636
0.152395 0.627061 0.388003
0.273813 0.628404 0.389346
0.394150 0.629736 0.390678
0.513634 0.631058 0.392000
0.632372 0.632372 0.393314
0.750428 0.633678 0.394621
0.867845 0.634977 0.395920
0.984654 0.636270 0.397212
0.033222 0.746838 0.391030
0.156789 0.748205 0.392398
0.278207 0.749549 0.393741
0.398545 0.750880 0.395073
0.518028 0.752203 0.396395
0.636767 0.753517 0.397709
0.754823 0.754823 0.399015
0.872240 0.756122 0.400315
0.989049 0.757415 0.401607
0.037593 0.867327 0.395401
0.161160 0.868694 0.396769
0.282578 0.870038 0.398112
0.402916 0.871369 0.399444
0.522399 0.872691 0.400766
0.641137 0.874005 0.402080
0.759194 0.875312 0.403386
0.876611 0.876611 0.404685
0.993419 0.877904 0.405978
0.041941 0.987191 0.399749
0.165509 0.988558 0.401117
0.286927 0.989902 0.402460
0.407264 0.991233 0.403792
0.526748 0.992556 0.405114
0.645486 0.993869 0.406428
0.763542 0.995176 0.407734
0.880959 0.996475 0.409034
0.997768 0.997768 0.410326
0.006810 0.006810 0.482997
0.130377 0.008177 0.484364
0.251795 0.009520 0.485708
0.372133 0.010852 0.487040
0.491616 0.012174 0.488362
0.610354 0.013488 0.489676
0.728411 0.014795 0.490982
0.845828 0.016094 0.492281
0.962636 0.017386 0.493574
0.011409 0.133610 0.487597
0.134977 0.134977 0.488964
0.256395 0.136321 0.490308
0.376732 0.137652 0.491639
0.496216 0.138975 0.492962
0.614954 0.140288 0.494276
0.733011 0.141595 0.495582
0.850428 0.142894 0.496881
0.967236 0.144187 0.498174
0.015929 0.258204 0.492117
0.139497 0.259571 0.493484
0.260915 0.260915 0.494828
0.381252 0.262247 0.496159
0.500736 0.263569 0.497481
0.619474 0.264883 0.498795
0.737530 0.266189 0.500102
0.854948 0.267488 0.501401
0.971756 0.268781 0.502694
0.020409 0.381689 0.496596
0.143977 0.383057 0.497964
0.265395 0.384400 0.499307
0.385732 0.385732 0.500639
0.505216 0.387054 0.501961
0.623954 0.388368 0.503275
0.742010 0.389674 0.504581
0.859427 0.390974 0.505881
0.976236 0.392266 0.507173
0.024857 0.504299 0.501044
0.148424 0.505666 0.502412
0.269842 0.507010 0.503755
0.390180 0.508341 0.505087
0.509663 0.509663 0.506409
0.628402 0.510977 0.507723
0.746458 0.512284 0.509029
0.863875 0.513583 0.510329
0.980684 0.514876 0.511621
0.029277 0.626143 0.505464
0.152845 0.627510 0.506832
0.274262 0.628854 0.508175
0.394600 0.630186 0.509507
0.514084 0.631508 0.510829
0.632822 0.632822 0.512143
0.750878 0.634128 0.513449
0.868295 0.635427 0.514749
0.985104 0.636720 0.516041
0.033672 0.747288 0.509859
0.157239 0.748655 0.511226
0.278657 0.749999 0.512570
0.398995 0.751330 0.513902
0.518478 0.752652 0.515224
0.637216 0.753966 0.516538
0.755273 0.755273 0.517844
0.872690 0.756572 0.519143
0.989498 0.757865 0.520436
0.038042 0.867777 0.514230
0.161610 0.869144 0.515597
0.283028 0.870488 0.516941
0.403366 0.871819 0.518272
0.522849 0.873141 0.519595
0.641587 0.874455 0.520909
0.759644 0.875762 0.522215
0.877061 0.877061 0.523514
0.993869 0.878353 0.524807
0.042391 0.987641 0.518578
0.165958 0.989008 0.519946
0.287376 0.990352 0.521289
0.407714 0.991683 0.522621
0.527197 0.993005 0.523943
0.645936 0.994319 0.525257
0.763992 0.995626 0.526563
0.881409 0.996925 0.527863
0.998218 0.998218 0.529155
0.007258 0.007258 0.601379
0.130825 0.008625 0.602746
0.252243 0.009969 0.604090
0.372581 0.011300 0.605421
0.492064 0.012622 0.606743
0.610802 0.013936 0.608057
0.728859 0.015243 0.609364
0.846276 0.016542 0.610663
0.963085 0.017835 0.611956
0.011858 0.134058 0.605979
0.135425 0.135425 0.607346
0.256843 0.136769 0.608690
0.377181 0.138100 0.610021
0.496664 0.139423 0.611343
0.615402 0.140737 0.612657
0.733459 0.142043 0.613964
0.850876 0.143342 0.615263
0.967684 0.144635 0.616555
0.016377 0.258652 0.610498
0.139945 0.260019 0.611866
0.261363 0.261363 0.613209
0.381700 0.262695 0.614541
0.501184 0.264017 0.615863
0.619922 0.265331 0.617177
0.737979 0.266637 0.618483
0.855396 0.267936 0.619783
0.972204 0.269229 0.621075
0.020857 0.382138 0.614978
0.144425 0.383505 0.616345
0.265843 0.384848 0.617689
0.386180 0.386180 0.619021
0.505664 0.387502 0.620343
0.624402 0.388816 0.621657
0.742458 0.390123 0.622963
0.859875 0.391422 0.624262
0.976684 0.392714 0.625555
0.025305 0.504747 0.619426
0.148873 0.506114 0.620793
0.270291 0.507458 0.622137
0.390628 0.508789 0.623469
0.510112 0.510112 0.624791
0.628850 0.511426 0.626105
0.746906 0.512732 0.627411
0.864323 0.514031 0.628710
0.981132 0.515324 0.630003
0.029725 0.626591 0.623846
0.153293 0.627959 0.625213
0.274711 0.629302 0.626557
0.395048 0.630634 0.627889
0.514532 0.631956 0.629211
0.633270 0.633270 0.630525
0.751326 0.634576 0.631831
0.868743 0.635875 0.633130
0.985552 0.637168 0.634423
0.034120 0.747736 0.628241
0.157687 0.749103 0.629608
0.279105 0.750447 0.630952
0.399443 0.751778 0.632283
0.518926 0.753101 0.633605
0.637664 0.754415 0.634919
0.755721 0.755721 0.636226
0.873138 0.757020 0.637525
0.989947 0.758313 0.638818
0.038491 0.868225 0.632612
0.162058 0.869592 0.633979
0.283476 0.870936 0.635323
0.403814 0.872267 0.636654
0.523297 0.873589 0.637976
0.642035 0.874903 0.639290
0.760092 0.876210 0.640597
0.877509 0.877509 0.641896
0.994317 0.878802 0.643189
0.042839 0.988089 0.636960
0.166407 0.989456 0.638327
0.287825 0.990800 0.639671
0.408162 0.992131 0.641002
0.527646 0.993454 0.642325
0.646384 0.994767 0.643639
0.764440 0.996074 0.644945
0.881857 0.997373 0.646244
0.998666 0.998666 0.647537
0.007704 0.007704 0.719313
0.131272 0.009071 0.720681
0.252690 0.010415 0.722024
0.373027 0.011747 0.723356
0.492511 0.013069 0.724678
0.611249 0.014383 0.725992
0.729305 0.015689 0.727298
0.846723 0.016988 0.728598
0.963531 0.018281 0.729890
0.012304 0.134504 0.723913
0.135872 0.135872 0.725281
0.257290 0.137215 0.726624
0.377627 0.138547 0.727956
0.497111 0.139869 0.729278
0.615849 0.141183 0.730592
0.733905 0.142489 0.731898
0.851322 0.143789 0.733198
0.968131 0.145081 0.734490
0.016824 0.259099 0.728433
0.140392 0.260466 0.729801
0.261810 0.261810 0.731144
0.382147 0.263141 0.732476
0.501631 0.264463 0.733798
0.620369 0.265777 0.735112
0.738425 0.267084 0.736418
0.855842 0.268383 0.737718
0.972651 0.269675 0.739010
0.021303 0.382584 0.732913
0.144871 0.383951 0.734280
0.266289 0.385295 0.735624
0.386627 0.386627 0.736955
0.506110 0.387949 0.738278
0.624848 0.389263 0.739591
0.742905 0.390569 0.740898
0.860322 0.391868 0.742197
0.977130 0.393161 0.743490
0.025751 0.505193 0.737361
0.149319 0.506561 0.738728
0.270737 0.507904 0.740072
0.391074 0.509236 0.741403
0.510558 0.510558 0.742725
0.629296 0.511872 0.744039
0.747353 0.513178 0.745346
0.864770 0.514478 0.746645
0.981578 0.515770 0.747938
0.030171 0.627038 0.741781
0.153739 0.628405 0.743148
0.275157 0.629749 0.744492
0.395494 0.631080 0.745823
0.514978 0.632402 0.747145
0.633716 0.633716 0.748459
0.751773 0.635023 0.749766
0.869190 0.636322 0.751065
0.985998 0.637614 0.752358
0.034566 0.748182 0.746176
0.158134 0.749550 0.747543
0.279552 0.750893 0.748886
0.399889 0.752225 0.750218
0.519373 0.753547 0.751540
0.638111 0.754861 0.752854
0.756167 0.756167 0.754160
0.873585 0.757467 0.755460
0.990393 0.758759 0.756752
0.038937 0.868671 0.750546
0.162505 0.870039 0.751914
0.283923 0.871382 0.753257
0.404260 0.872714 0.754589
0.523744 0.874036 0.755911
0.642482 0.875350 0.757225
0.760538 0.876656 0.758531
0.877956 0.877956 0.759831
0.994764 0.879248 0.761123
0.043285 0.988535 0.754895
0.166853 0.989903 0.756262
0.288271 0.991246 0.757606
0.408608 0.992578 0.758937
0.528092 0.993900 0.760259
0.646830 0.995214 0.761573
0.764887 0.996520 0.762880
0.882304 0.997820 0.764179
0.999112 0.999112 0.765472
0.008149 0.008149 0.836801
0.131717 0.009516 0.838169
0.253135 0.010860 0.839512
0.373472 0.012191 0.840844
0.492956 0.013514 0.842166
0.611694 0.014827 0.843480
0.729750 0.016134 0.844786
0.847167 0.017433 0.846086
0.963976 0.018726 0.847378
0.012749 0.134949 0.841401
0.136317 0.136317 0.842768
0.257734 0.137660 0.844112
0.378072 0.138992 0.845444
0.497556 0.140314 0.846766
0.616294 0.141628 0.848080
0.734350 0.142934 0.849386
0.851767 0.144233 0.850685
0.968576 0.145526 0.851978
0.017269 0.259543 0.845921
0.140836 0.260911 0.847288
0.262254 0.262254 0.848632
0.382592 0.263586 0.849963
0.502075 0.264908 0.851286
0.620813 0.266222 0.852600
0.738870 0.267528 0.853906
0.856287 0.268828 0.855205
0.973095 0.270120 0.856498
0.021748 0.383029 0.850401
0.145316 0.384396 0.851768
0.266734 0.385740 0.853112
0.387071 0.387071 0.854443
0.506555 0.388393 0.855765
0.625293 0.389707 0.857079
0.743349 0.391014 0.858386
0.860767 0.392313 0.859685
0.977575 0.393606 0.860977
0.026196 0.505638 0.854848
0.149764 0.507005 0.856216
0.271182 0.508349 0.857559
0.391519 0.509681 0.858891
0.511003 0.511003 0.860213
0.629741 0.512317 0.861527
0.747797 0.513623 0.862833
0.865215 0.514922 0.864133
0.982023 0.516215 0.865425
0.030616 0.627482 0.859269
0.154184 0.628850 0.860636
0.275602 0.630193 0.861979
0.395939 0.631525 0.863311
0.515423 0.632847 0.864633
0.634161 0.634161 0.865947
0.752217 0.635467 0.867254
0.869635 0.636767 0.868553
0.986443 0.638059 0.869845
0.035011 0.748627 0.863663
0.158579 0.749994 0.865031
0.279997 0.751338 0.866374
0.400334 0.752670 0.867706
0.519818 0.753992 0.869028
0.638556 0.755306 0.870342
0.756612 0.756612 0.871648
0.874029 0.757911 0.872948
0.990838 0.759204 0.874240
0.039382 0.869116 0.868034
0.162950 0.870483 0.869402
0.284367 0.871827 0.870745
0.404705 0.873159 0.872077
0.524189 0.874481 0.873399
0.642927 0.875795 0.874713
0.760983 0.877101 0.876019
0.878400 0.878400 0.877318
0.995209 0.879693 0.878611
0.043730 0.988980 0.872382
0.167298 0.990347 0.873750
0.288716 0.991691 0.875093
0.409053 0.993023 0.876425
0.528537 0.994345 0.877747
0.647275 0.995659 0.879061
0.765331 0.996965 0.880367
0.882749 0.998264 0.881667
0.999557 0.999557 0.882959
0.008592 0.008592 0.953842
0.132160 0.009959 0.955209
0.253578 0.011303 0.956553
0.373915 0.012634 0.957884
0.493399 0.013957 0.959207
0.612137 0.015271 0.960521
0.730193 0.016577 0.961827
0.847610 0.017876 0.963126
0.964419 0.019169 0.964419
0.013192 0.135392 0.958442
0.136760 0.136760 0.959809
0.258177 0.138103 0.961153
0.378515 0.139435 0.962484
0.497999 0.140757 0.963807
0.616737 0.142071 0.965120
0.734793 0.143377 0.966427
0.852210 0.144677 0.967726
0.969019 0.145969 0.969019
0.017712 0.259986 0.962962
0.141279 0.261354 0.964329
0.262697 0.262697 0.965673
0.383035 0.264029 0.967004
0.502518 0.265351 0.968326
0.621256 0.266665 0.969640
0.739313 0.267971 0.970947
0.856730 0.269271 0.972246
0.973539 0.270563 0.973539
0.022191 0.383472 0.967441
0.145759 0.384839 0.968809
0.267177 0.386183 0.970152
0.387514 0.387514 0.971484
0.506998 0.388837 0.972806
0.625736 0.390150 0.974120
0.743793 0.391457 0.975426
0.861210 0.392756 0.976726
0.978018 0.394049 0.978018
0.026639 0.506081 0.971889
0.150207 0.507449 0.973257
0.271625 0.508792 0.974600
0.391962 0.510124 0.975932
0.511446 0.511446 0.977254
0.630184 0.512760 0.978568
0.748240 0.514066 0.979874
0.865658 0.515365 0.981173
0.982466 0.516658 0.982466
0.031059 0.627925 0.976309
0.154627 0.629293 0.977677
0.276045 0.630636 0.979020
0.396382 0.631968 0.980352
0.515866 0.633290 0.981674
0.634604 0.634604 0.982988
0.752660 0.635910 0.984294
0.870078 0.637210 0.985594
0.986886 0.638502 0.986886
0.035454 0.749070 0.980704
0.159022 0.750438 0.982071
0.280440 0.751781 0.983415
0.400777 0.753113 0.984747
0.520261 0.754435 0.986069
0.638999 0.755749 0.987383
0.757055 0.757055 0.988689
0.874472 0.758354 0.989988
0.991281 0.759647 0.991281
0.039825 0.869559 0.985075
0.163393 0.870926 0.986442
0.284811 0.872270 0.987786
0.405148 0.873602 0.989117
0.524632 0.874924 0.990440
0.643370 0.876238 0.991754
0.761426 0.877544 0.993060
0.878843 0.878843 0.994359
0.995652 0.880136 0.995652
0.044173 0.989423 0.989423
0.167741 0.990791 0.990791
0.289159 0.992134 0.992134
0.409496 0.993466 0.993466
0.528980 0.994788 0.994788
0.647718 0.996102 0.996102
0.765774 0.997408 0.997408
0.883192 0.998707 0.998707
1.000000 1.000000 1.000000
