luts/film_stocks/fuji_eterna_250d.cube
TITLE "Fuji Eterna 250D"
LUT_3D_SIZE 5
DOMAIN_MIN 0.0 0.0 0.0
DOMAIN_MAX 1.0 1.0 1.0
0.005000 0.005000 0.005000
0.249986 0.007711 0.007711
0.489807 0.010365 0.010365
0.726601 0.012985 0.012985
0.960827 0.015577 0.015577
0.014120 0.256394 0.014120
0.259105 0.259105 0.016831
0.498926 0.261759 0.019484
0.735721 0.264379 0.022105
0.969947 0.266971 0.024697
0.023047 0.502489 0.023047
0.268033 0.505200 0.025758
0.507854 0.507854 0.028412
0.744648 0.510474 0.031032
0.978874 0.513066 0.033624
0.031862 0.745478 0.031862
0.276848 0.748189 0.034573
0.516669 0.750843 0.037227
0.753463 0.753463 0.039847
0.987689 0.756055 0.042439
0.040581 0.985831 0.040581
0.285567 0.988542 0.043292
0.525388 0.991196 0.045946
0.762182 0.993816 0.048566
0.996408 0.996408 0.051158
0.005908 0.005908 0.244893
0.250894 0.008619 0.247603
0.490715 0.011273 0.250257
0.727509 0.013893 0.252878
0.961735 0.016485 0.255469
0.015028 0.257303 0.254012
0.260014 0.260014 0.256723
0.499835 0.262667 0.259377
0.736629 0.265288 0.261997
0.970855 0.267879 0.264589
0.023955 0.503397 0.262940
0.268941 0.506108 0.265651
0.508762 0.508762 0.268304
0.745557 0.511382 0.270925
0.979782 0.513974 0.273517
0.032770 0.746386 0.271755
0.277756 0.749097 0.274465
0.517577 0.751751 0.277119
0.754371 0.754371 0.279740
0.988597 0.756963 0.282331
0.041489 0.986739 0.280474
0.286475 0.989450 0.283185
0.526296 0.992104 0.285838
0.763091 0.994724 0.288459
0.997316 0.997316 0.291051
0.006810 0.006810 0.482997
0.251795 0.009520 0.485708
0.491616 0.012174 0.488362
0.728411 0.014795 0.490982
0.962636 0.017386 0.493574
0.015929 0.258204 0.492117
0.260915 0.260915 0.494828
0.500736 0.263569 0.497481
0.737530 0.266189 0.500102
0.971756 0.268781 0.502694
0.024857 0.504299 0.501044
0.269842 0.507010 0.503755
0.509663 0.509663 0.506409
0.746458 0.512284 0.509029
0.980684 0.514876 0.511621
0.033672 0.747288 0.509859
0.278657 0.749999 0.512570
0.518478 0.752652 0.515224
0.755273 0.755273 0.517844
0.989498 0.757865 0.520436
0.042391 0.987641 0.518578
0.287376 0.990352 0.521289
0.527197 0.993005 0.523943
0.763992 0.995626 0.526563
0.998218 0.998218 0.529155
0.007704 0.007704 0.719313
0.252690 0.010415 0.722024
0.492511 0.013069 0.724678
0.729305 0.015689 0.727298
0.963531 0.018281 0.729890
0.016824 0.259099 0.728433
0.261810 0.261810 0.731144
0.501631 0.264463 0.733798
0.738425 0.267084 0.736418
0.972651 0.269675 0.739010
0.025751 0.505193 0.737361
0.270737 0.507904 0.740072
0.510558 0.510558 0.742725
0.747353 0.513178 0.745346
0.981578 0.515770 0.747938
0.034566 0.748182 0.746176
0.279552 0.750893 0.748886
0.519373 0.753547 0.751540
0.756167 0.756167 0.754160
0.990393 0.758759 0.756752
0.043285 0.988535 0.754895
0.288271 0.991246 0.757606
0.528092 0.993900 0.760259
0.764887 0.996520 0.762880
0.999112 0.999112 0.765472
0.008592 0.008592 0.953842
0.253578 0.011303 0.956553
0.493399 0.013957 0.959207
0.730193 0.016577 0.961827
0.964419 0.019169 0.964419
0.017712 0.259986 0.962962
0.262697 0.262697 0.965673
0.502518 0.265351 0.968326
0.739313 0.267971 0.970947
0.973539 0.270563 0.973539
0.026639 0.506081 0.971889
0.271625 0.508792 0.974600
0.511446 0.511446 0.977254
0.748240 0.514066 0.979874
0.982466 0.516658 0.982466
0.035454 0.749070 0.980704
0.280440 0.751781 0.983415
0.520261 0.754435 0.986069
0.757055 0.757055 0.988689
0.991281 0.759647 0.991281
0.044173 0.989423 0.989423
0.289159 0.992134 0.992134
0.528980 0.994788 0.994788
0.765774 0.997408 0.997408
1.000000 1.000000 1.000000
