luts/film_stocks/fuji_eterna_vivid_500.cube
TITLE "Fuji Eterna Vivid 500"
LUT_3D_SIZE 5
DOMAIN_MIN 0.0 0.0 0.0
DOMAIN_MAX 1.0 1.0 1.0
0.008927 0.020427 0.008927
0.298212 0.012176 0.000676
0.572605 0.004350 0.000000
0.837316 0.000000 0.000000
1.000000 0.000000 0.000000
0.000000 0.313737 0.000000
0.268035 0.305486 0.000000
0.542428 0.297660 0.000000
0.807139 0.290110 0.000000
1.000000 0.282804 0.000000
0.000000 0.574544 0.000000
0.241202 0.566294 0.000000
0.515595 0.558468 0.000000
0.780306 0.550918 0.000000
1.000000 0.543611 0.000000
0.000000 0.816398 0.000000
0.216319 0.808147 0.000000
0.490712 0.800321 0.000000
0.755423 0.792771 0.000000
1.000000 0.785465 0.000000
0.000000 1.000000 0.000000
0.193078 1.000000 0.000000
0.467470 1.000000 0.000000
0.732182 1.000000 0.000000
0.988359 1.000000 0.000000
0.005983 0.017483 0.318615
0.295268 0.009232 0.310364
0.569661 0.001406 0.302538
0.834372 0.000000 0.294988
1.000000 0.000000 0.287681
0.000000 0.310793 0.288438
0.265091 0.302542 0.280187
0.539484 0.294716 0.272361
0.804195 0.287166 0.264811
1.000000 0.279860 0.257504
0.000000 0.571600 0.261604
0.238258 0.563349 0.253354
0.512650 0.555523 0.245528
0.777362 0.547973 0.237978
1.000000 0.540667 0.230671
0.000000 0.813454 0.236721
0.213375 0.805203 0.228471
0.487767 0.797377 0.220645
0.752479 0.789827 0.213095
1.000000 0.782521 0.205788
0.000000 1.000000 0.213480
0.190134 1.000000 0.205229
0.464526 1.000000 0.197403
0.729238 1.000000 0.189853
0.985415 1.000000 0.182547
0.003239 0.014739 0.607209
0.292525 0.006489 0.598958
0.566917 0.000000 0.591132
0.831628 0.000000 0.583582
1.000000 0.000000 0.576275
0.000000 0.308049 0.577032
0.262347 0.299799 0.568781
0.536740 0.291973 0.560955
0.801451 0.284423 0.553405
1.000000 0.277116 0.546098
0.000000 0.568857 0.550198
0.235514 0.560606 0.541948
0.509907 0.552780 0.534122
0.774618 0.545230 0.526572
1.000000 0.537923 0.519265
0.000000 0.810710 0.525315
0.210631 0.802460 0.517065
0.485024 0.794633 0.509239
0.749735 0.787084 0.501689
1.000000 0.779777 0.494382
0.000000 1.000000 0.502074
0.187390 1.000000 0.493824
0.461783 1.000000 0.485997
0.726494 1.000000 0.478448
0.982672 1.000000 0.471141
0.000617 0.012117 0.883091
0.289902 0.003866 0.874840
0.564294 0.000000 0.867014
0.829006 0.000000 0.859464
1.000000 0.000000 0.852158
0.000000 0.305427 0.852914
0.259725 0.297176 0.844663
0.534117 0.289350 0.836837
0.798829 0.281800 0.829287
1.000000 0.274493 0.821981
0.000000 0.566234 0.826081
0.232892 0.557983 0.817830
0.507284 0.550157 0.810004
0.771995 0.542607 0.802454
1.000000 0.535301 0.795147
0.000000 0.808088 0.801198
0.208008 0.799837 0.792947
0.482401 0.792011 0.785121
0.747112 0.784461 0.777571
1.000000 0.777154 0.770264
0.000000 1.000000 0.777957
0.184767 1.000000 0.769706
0.459160 1.000000 0.761880
0.723871 1.000000 0.754330
0.980049 1.000000 0.747023
0.000000 0.009706 1.000000
0.287491 0.001455 1.000000
0.561883 0.000000 1.000000
0.826595 0.000000 1.000000
1.000000 0.000000 1.000000
0.000000 0.303015 1.000000
0.257314 0.294765 1.000000
0.531706 0.286939 1.000000
0.796417 0.279389 1.000000
1.000000 0.272082 1.000000
0.000000 0.563823 1.000000
0.230480 0.555572 1.000000
0.504873 0.547746 1.000000
0.769584 0.540196 1.000000
1.000000 0.532889 1.000000
0.000000 0.805676 1.000000
0.205597 0.797426 1.000000
0.479990 0.789600 1.000000
0.744701 0.782050 1.000000
1.000000 0.774743 1.000000
0.000000 1.000000 1.000000
0.182356 1.000000 1.000000
0.456749 1.000000 1.000000
0.721460 1.000000 1.000000
0.977638 1.000000 1.000000
