luts/film_stocks/ilford_hp5_bw.cube
TITLE "Ilford HP5 Plus B&W"
LUT_3D_SIZE 17
DOMAIN_MIN 0.0 0.0 0.0
DOMAIN_MAX 1.0 1.0 1.0
0.010000 0.010000 0.010000
0.026639 0.026639 0.026639
0.042178 0.042178 0.042178
0.057316 0.057316 0.057316
0.072194 0.072194 0.072194
0.086878 0.086878 0.086878
0.101404 0.101404 0.101404
0.115799 0.115799 0.115799
0.130080 0.130080 0.130080
0.144260 0.144260 0.144260
0.158349 0.158349 0.158349
0.172356 0.172356 0.172356
0.186287 0.186287 0.186287
0.200148 0.200148 0.200148
0.213943 0.213943 0.213943
0.227675 0.227675 0.227675
0.241350 0.241350 0.241350
0.062759 0.062759 0.062759
0.077560 0.077560 0.077560
0.092183 0.092183 0.092183
0.106659 0.106659 0.106659
0.121010 0.121010 0.121010
0.135253 0.135253 0.135253
0.149399 0.149399 0.149399
0.163458 0.163458 0.163458
0.177437 0.177437 0.177437
0.191341 0.191341 0.191341
0.205177 0.205177 0.205177
0.218949 0.218949 0.218949
0.232660 0.232660 0.232660
0.246314 0.246314 0.246314
0.259913 0.259913 0.259913
0.273461 0.273461 0.273461
0.286958 0.286958 0.286958
0.111897 0.111897 0.111897
0.126208 0.126208 0.126208
0.140414 0.140414 0.140414
0.154527 0.154527 0.154527
0.168556 0.168556 0.168556
0.182507 0.182507 0.182507
0.196386 0.196386 0.196386
0.210198 0.210198 0.210198
0.223948 0.223948 0.223948
0.237638 0.237638 0.237638
0.251271 0.251271 0.251271
0.264851 0.264851 0.264851
0.278380 0.278380 0.278380
0.291860 0.291860 0.291860
0.305293 0.305293 0.305293
0.318681 0.318681 0.318681
0.332025 0.332025 0.332025
0.159644 0.159644 0.159644
0.173644 0.173644 0.173644
0.187568 0.187568 0.187568
0.201422 0.201422 0.201422
0.215211 0.215211 0.215211
0.228938 0.228938 0.228938
0.242607 0.242607 0.242607
0.256221 0.256221 0.256221
0.269782 0.269782 0.269782
0.283293 0.283293 0.283293
0.296756 0.296756 0.296756
0.310172 0.310172 0.310172
0.323544 0.323544 0.323544
0.336872 0.336872 0.336872
0.350159 0.350159 0.350159
0.363405 0.363405 0.363405
0.376611 0.376611 0.376611
0.206450 0.206450 0.206450
0.220216 0.220216 0.220216
0.233921 0.233921 0.233921
0.247570 0.247570 0.247570
0.261164 0.261164 0.261164
0.274707 0.274707 0.274707
0.288200 0.288200 0.288200
0.301646 0.301646 0.301646
0.315045 0.315045 0.315045
0.328401 0.328401 0.328401
0.341714 0.341714 0.341714
0.354986 0.354986 0.354986
0.368217 0.368217 0.368217
0.381410 0.381410 0.381410
0.394565 0.394565 0.394565
0.407683 0.407683 0.407683
0.420765 0.420765 0.420765
0.252525 0.252525 0.252525
0.266101 0.266101 0.266101
0.279625 0.279625 0.279625
0.293101 0.293101 0.293101
0.306529 0.306529 0.306529
0.319913 0.319913 0.319913
0.333253 0.333253 0.333253
0.346550 0.346550 0.346550
0.359807 0.359807 0.359807
0.373025 0.373025 0.373025
0.386203 0.386203 0.386203
0.399345 0.399345 0.399345
0.412449 0.412449 0.412449
0.425518 0.425518 0.425518
0.438553 0.438553 0.438553
0.451553 0.451553 0.451553
0.464520 0.464520 0.464520
0.297995 0.297995 0.297995
0.311407 0.311407 0.311407
0.324774 0.324774 0.324774
0.338099 0.338099 0.338099
0.351381 0.351381 0.351381
0.364624 0.364624 0.364624
0.377827 0.377827 0.377827
0.390992 0.390992 0.390992
0.404120 0.404120 0.404120
0.417211 0.417211 0.417211
0.430268 0.430268 0.430268
0.443289 0.443289 0.443289
0.456277 0.456277 0.456277
0.469232 0.469232 0.469232
0.482155 0.482155 0.482155
0.495045 0.495045 0.495045
0.507905 0.507905 0.507905
0.342939 0.342939 0.342939
0.356207 0.356207 0.356207
0.369435 0.369435 0.369435
0.382624 0.382624 0.382624
0.395776 0.395776 0.395776
0.408890 0.408890 0.408890
0.421969 0.421969 0.421969
0.435012 0.435012 0.435012
0.448022 0.448022 0.448022
0.460998 0.460998 0.460998
0.473940 0.473940 0.473940
0.486851 0.486851 0.486851
0.499730 0.499730 0.499730
0.512579 0.512579 0.512579
0.525396 0.525396 0.525396
0.538184 0.538184 0.538184
0.550943 0.550943 0.550943
0.387417 0.387417 0.387417
0.400554 0.400554 0.400554
0.413656 0.413656 0.413656
0.426722 0.426722 0.426722
0.439753 0.439753 0.439753
0.452750 0.452750 0.452750
0.465713 0.465713 0.465713
0.478645 0.478645 0.478645
0.491544 0.491544 0.491544
0.504412 0.504412 0.504412
0.517249 0.517249 0.517249
0.530055 0.530055 0.530055
0.542832 0.542832 0.542832
0.555580 0.555580 0.555580
0.568299 0.568299 0.568299
0.580990 0.580990 0.580990
0.593653 0.593653 0.593653
0.431470 0.431470 0.431470
0.444488 0.444488 0.444488
0.457473 0.457473 0.457473
0.470425 0.470425 0.470425
0.483344 0.483344 0.483344
0.496232 0.496232 0.496232
0.509089 0.509089 0.509089
0.521915 0.521915 0.521915
0.534710 0.534710 0.534710
0.547477 0.547477 0.547477
0.560214 0.560214 0.560214
0.572923 0.572923 0.572923
0.585603 0.585603 0.585603
0.598256 0.598256 0.598256
0.610881 0.610881 0.610881
0.623479 0.623479 0.623479
0.636050 0.636050 0.636050
0.475132 0.475132 0.475132
0.488040 0.488040 0.488040
0.500916 0.500916 0.500916
0.513762 0.513762 0.513762
0.526577 0.526577 0.526577
0.539362 0.539362 0.539362
0.552117 0.552117 0.552117
0.564844 0.564844 0.564844
0.577542 0.577542 0.577542
0.590213 0.590213 0.590213
0.602855 0.602855 0.602855
0.615470 0.615470 0.615470
0.628059 0.628059 0.628059
0.640621 0.640621 0.640621
0.653156 0.653156 0.653156
0.665666 0.665666 0.665666
0.678150 0.678150 0.678150
0.518431 0.518431 0.518431
0.531235 0.531235 0.531235
0.544009 0.544009 0.544009
0.556754 0.556754 0.556754
0.569470 0.569470 0.569470
0.582158 0.582158 0.582158
0.594819 0.594819 0.594819
0.607451 0.607451 0.607451
0.620057 0.620057 0.620057
0.632635 0.632635 0.632635
0.645187 0.645187 0.645187
0.657714 0.657714 0.657714
0.670214 0.670214 0.670214
0.682689 0.682689 0.682689
0.695139 0.695139 0.695139
0.707563 0.707563 0.707563
0.719963 0.719963 0.719963
0.561387 0.561387 0.561387
0.574093 0.574093 0.574093
0.586771 0.586771 0.586771
0.599421 0.599421 0.599421
0.612043 0.612043 0.612043
0.624639 0.624639 0.624639
0.637208 0.637208 0.637208
0.649751 0.649751 0.649751
0.662268 0.662268 0.662268
0.674759 0.674759 0.674759
0.687224 0.687224 0.687224
0.699665 0.699665 0.699665
0.712081 0.712081 0.712081
0.724472 0.724472 0.724472
0.736839 0.736839 0.736839
0.749182 0.749182 0.749182
0.761501 0.761501 0.761501
0.604019 0.604019 0.604019
0.616632 0.616632 0.616632
0.629218 0.629218 0.629218
0.641777 0.641777 0.641777
0.654311 0.654311 0.654311
0.666818 0.666818 0.666818
0.679300 0.679300 0.679300
0.691756 0.691756 0.691756
0.704188 0.704188 0.704188
0.716595 0.716595 0.716595
0.728977 0.728977 0.728977
0.741335 0.741335 0.741335
0.753669 0.753669 0.753669
0.765980 0.765980 0.765980
0.778267 0.778267 0.778267
0.790531 0.790531 0.790531
0.802771 0.802771 0.802771
0.646343 0.646343 0.646343
0.658867 0.658867 0.658867
0.671365 0.671365 0.671365
0.683838 0.683838 0.683838
0.696285 0.696285 0.696285
0.708708 0.708708 0.708708
0.721105 0.721105 0.721105
0.733479 0.733479 0.733479
0.745828 0.745828 0.745828
0.758154 0.758154 0.758154
0.770456 0.770456 0.770456
0.782734 0.782734 0.782734
0.794990 0.794990 0.794990
0.807222 0.807222 0.807222
0.819432 0.819432 0.819432
0.831619 0.831619 0.831619
0.843783 0.843783 0.843783
0.688372 0.688372 0.688372
0.700810 0.700810 0.700810
0.713224 0.713224 0.713224
0.725613 0.725613 0.725613
0.737978 0.737978 0.737978
0.750318 0.750318 0.750318
0.762635 0.762635 0.762635
0.774929 0.774929 0.774929
0.787199 0.787199 0.787199
0.799446 0.799446 0.799446
0.811670 0.811670 0.811670
0.823871 0.823871 0.823871
0.836050 0.836050 0.836050
0.848207 0.848207 0.848207
0.860341 0.860341 0.860341
0.872453 0.872453 0.872453
0.884544 0.884544 0.884544
0.730117 0.730117 0.730117
0.742473 0.742473 0.742473
0.754805 0.754805 0.754805
0.767114 0.767114 0.767114
0.779399 0.779399 0.779399
0.791660 0.791660 0.791660
0.803899 0.803899 0.803899
0.816115 0.816115 0.816115
0.828308 0.828308 0.828308
0.840478 0.840478 0.840478
0.852627 0.852627 0.852627
0.864753 0.864753 0.864753
0.876858 0.876858 0.876858
0.888940 0.888940 0.888940
0.901002 0.901002 0.901002
0.913041 0.913041 0.913041
0.925060 0.925060 0.925060
0.015951 0.015951 0.015951
0.031977 0.031977 0.031977
0.047354 0.047354 0.047354
0.062394 0.062394 0.062394
0.077200 0.077200 0.077200
0.091827 0.091827 0.091827
0.106306 0.106306 0.106306
0.120661 0.120661 0.120661
0.134906 0.134906 0.134906
0.149054 0.149054 0.149054
0.163115 0.163115 0.163115
0.177096 0.177096 0.177096
0.191002 0.191002 0.191002
0.204840 0.204840 0.204840
0.218613 0.218613 0.218613
0.232326 0.232326 0.232326
0.245981 0.245981 0.245981
0.067808 0.067808 0.067808
0.082544 0.082544 0.082544
0.097114 0.097114 0.097114
0.111546 0.111546 0.111546
0.125859 0.125859 0.125859
0.140068 0.140068 0.140068
0.154183 0.154183 0.154183
0.168214 0.168214 0.168214
0.182167 0.182167 0.182167
0.196048 0.196048 0.196048
0.209861 0.209861 0.209861
0.223612 0.223612 0.223612
0.237303 0.237303 0.237303
0.250938 0.250938 0.250938
0.264520 0.264520 0.264520
0.278050 0.278050 0.278050
0.291531 0.291531 0.291531
0.116770 0.116770 0.116770
0.131043 0.131043 0.131043
0.145217 0.145217 0.145217
0.159301 0.159301 0.159301
0.173302 0.173302 0.173302
0.187228 0.187228 0.187228
0.201084 0.201084 0.201084
0.214875 0.214875 0.214875
0.228603 0.228603 0.228603
0.242274 0.242274 0.242274
0.255889 0.255889 0.255889
0.269451 0.269451 0.269451
0.282963 0.282963 0.282963
0.296427 0.296427 0.296427
0.309845 0.309845 0.309845
0.323217 0.323217 0.323217
0.336547 0.336547 0.336547
0.164407 0.164407 0.164407
0.178381 0.178381 0.178381
0.192281 0.192281 0.192281
0.206112 0.206112 0.206112
0.219880 0.219880 0.219880
0.233587 0.233587 0.233587
0.247237 0.247237 0.247237
0.260832 0.260832 0.260832
0.274376 0.274376 0.274376
0.287871 0.287871 0.287871
0.301317 0.301317 0.301317
0.314718 0.314718 0.314718
0.328075 0.328075 0.328075
0.341389 0.341389 0.341389
0.354662 0.354662 0.354662
0.367894 0.367894 0.367894
0.381088 0.381088 0.381088
0.211132 0.211132 0.211132
0.224877 0.224877 0.224877
0.238563 0.238563 0.238563
0.252193 0.252193 0.252193
0.265769 0.265769 0.265769
0.279295 0.279295 0.279295
0.292772 0.292772 0.292772
0.306201 0.306201 0.306201
0.319586 0.319586 0.319586
0.332927 0.332927 0.332927
0.346226 0.346226 0.346226
0.359484 0.359484 0.359484
0.372702 0.372702 0.372702
0.385882 0.385882 0.385882
0.399024 0.399024 0.399024
0.412129 0.412129 0.412129
0.425199 0.425199 0.425199
0.257141 0.257141 0.257141
0.270699 0.270699 0.270699
0.284207 0.284207 0.284207
0.297666 0.297666 0.297666
0.311079 0.311079 0.311079
0.324448 0.324448 0.324448
0.337773 0.337773 0.337773
0.351057 0.351057 0.351057
0.364300 0.364300 0.364300
0.377505 0.377505 0.377505
0.390670 0.390670 0.390670
0.403799 0.403799 0.403799
0.416892 0.416892 0.416892
0.429949 0.429949 0.429949
0.442971 0.442971 0.442971
0.455960 0.455960 0.455960
0.468916 0.468916 0.468916
0.302555 0.302555 0.302555
0.315951 0.315951 0.315951
0.329304 0.329304 0.329304
0.342614 0.342614 0.342614
0.355883 0.355883 0.355883
0.369112 0.369112 0.369112
0.382302 0.382302 0.382302
0.395454 0.395454 0.395454
0.408570 0.408570 0.408570
0.421649 0.421649 0.421649
0.434694 0.434694 0.434694
0.447704 0.447704 0.447704
0.460681 0.460681 0.460681
0.473624 0.473624 0.473624
0.486536 0.486536 0.486536
0.499416 0.499416 0.499416
0.512265 0.512265 0.512265
0.347450 0.347450 0.347450
0.360704 0.360704 0.360704
0.373919 0.373919 0.373919
0.387095 0.387095 0.387095
0.400233 0.400233 0.400233
0.413336 0.413336 0.413336
0.426402 0.426402 0.426402
0.439434 0.439434 0.439434
0.452432 0.452432 0.452432
0.465397 0.465397 0.465397
0.478329 0.478329 0.478329
0.491229 0.491229 0.491229
0.504097 0.504097 0.504097
0.516935 0.516935 0.516935
0.529743 0.529743 0.529743
0.542520 0.542520 0.542520
0.555269 0.555269 0.555269
0.391882 0.391882 0.391882
0.405008 0.405008 0.405008
0.418097 0.418097 0.418097
0.431151 0.431151 0.431151
0.444170 0.444170 0.444170
0.457156 0.457156 0.457156
0.470108 0.470108 0.470108
0.483029 0.483029 0.483029
0.495917 0.495917 0.495917
0.508775 0.508775 0.508775
0.521601 0.521601 0.521601
0.534398 0.534398 0.534398
0.547165 0.547165 0.547165
0.559903 0.559903 0.559903
0.572612 0.572612 0.572612
0.585293 0.585293 0.585293
0.597947 0.597947 0.597947
0.435895 0.435895 0.435895
0.448902 0.448902 0.448902
0.461875 0.461875 0.461875
0.474816 0.474816 0.474816
0.487725 0.487725 0.487725
0.500602 0.500602 0.500602
0.513448 0.513448 0.513448
0.526263 0.526263 0.526263
0.539049 0.539049 0.539049
0.551806 0.551806 0.551806
0.564533 0.564533 0.564533
0.577232 0.577232 0.577232
0.589903 0.589903 0.589903
0.602546 0.602546 0.602546
0.615162 0.615162 0.615162
0.627751 0.627751 0.627751
0.640314 0.640314 0.640314
0.479519 0.479519 0.479519
0.492416 0.492416 0.492416
0.505282 0.505282 0.505282
0.518117 0.518117 0.518117
0.530922 0.530922 0.530922
0.543697 0.543697 0.543697
0.556443 0.556443 0.556443
0.569160 0.569160 0.569160
0.581848 0.581848 0.581848
0.594509 0.594509 0.594509
0.607142 0.607142 0.607142
0.619749 0.619749 0.619749
0.632328 0.632328 0.632328
0.644881 0.644881 0.644881
0.657408 0.657408 0.657408
0.669909 0.669909 0.669909
0.682384 0.682384 0.682384
0.522782 0.522782 0.522782
0.535576 0.535576 0.535576
0.548340 0.548340 0.548340
0.561076 0.561076 0.561076
0.573782 0.573782 0.573782
0.586461 0.586461 0.586461
0.599112 0.599112 0.599112
0.611735 0.611735 0.611735
0.624331 0.624331 0.624331
0.636901 0.636901 0.636901
0.649444 0.649444 0.649444
0.661962 0.661962 0.661962
0.674453 0.674453 0.674453
0.686920 0.686920 0.686920
0.699361 0.699361 0.699361
0.711777 0.711777 0.711777
0.724169 0.724169 0.724169
0.565705 0.565705 0.565705
0.578401 0.578401 0.578401
0.591070 0.591070 0.591070
0.603711 0.603711 0.603711
0.616324 0.616324 0.616324
0.628911 0.628911 0.628911
0.641471 0.641471 0.641471
0.654004 0.654004 0.654004
0.666512 0.666512 0.666512
0.678995 0.678995 0.678995
0.691452 0.691452 0.691452
0.703884 0.703884 0.703884
0.716291 0.716291 0.716291
0.728674 0.728674 0.728674
0.741033 0.741033 0.741033
0.753368 0.753368 0.753368
0.765679 0.765679 0.765679
0.608306 0.608306 0.608306
0.620909 0.620909 0.620909
0.633486 0.633486 0.633486
0.646037 0.646037 0.646037
0.658561 0.658561 0.658561
0.671060 0.671060 0.671060
0.683533 0.683533 0.683533
0.695981 0.695981 0.695981
0.708404 0.708404 0.708404
0.720802 0.720802 0.720802
0.733177 0.733177 0.733177
0.745527 0.745527 0.745527
0.757853 0.757853 0.757853
0.770155 0.770155 0.770155
0.782434 0.782434 0.782434
0.794690 0.794690 0.794690
0.806923 0.806923 0.806923
0.650599 0.650599 0.650599
0.663114 0.663114 0.663114
0.675604 0.675604 0.675604
0.688068 0.688068 0.688068
0.700507 0.700507 0.700507
0.712921 0.712921 0.712921
0.725310 0.725310 0.725310
0.737676 0.737676 0.737676
0.750017 0.750017 0.750017
0.762334 0.762334 0.762334
0.774628 0.774628 0.774628
0.786899 0.786899 0.786899
0.799146 0.799146 0.799146
0.811371 0.811371 0.811371
0.823573 0.823573 0.823573
0.835752 0.835752 0.835752
0.847909 0.847909 0.847909
0.692599 0.692599 0.692599
0.705029 0.705029 0.705029
0.717434 0.717434 0.717434
0.729815 0.729815 0.729815
0.742171 0.742171 0.742171
0.754504 0.754504 0.754504
0.766813 0.766813 0.766813
0.779098 0.779098 0.779098
0.791361 0.791361 0.791361
0.803600 0.803600 0.803600
0.815816 0.815816 0.815816
0.828010 0.828010 0.828010
0.840181 0.840181 0.840181
0.852330 0.852330 0.852330
0.864457 0.864457 0.864457
0.876562 0.876562 0.876562
0.888645 0.888645 0.888645
0.734316 0.734316 0.734316
0.746664 0.746664 0.746664
0.758988 0.758988 0.758988
0.771288 0.771288 0.771288
0.783565 0.783565 0.783565
0.795819 0.795819 0.795819
0.808050 0.808050 0.808050
0.820258 0.820258 0.820258
0.832443 0.832443 0.832443
0.844607 0.844607 0.844607
0.856747 0.856747 0.856747
0.868866 0.868866 0.868866
0.880963 0.880963 0.880963
0.893039 0.893039 0.893039
0.905093 0.905093 0.905093
0.917125 0.917125 0.917125
0.929137 0.929137 0.929137
0.021514 0.021514 0.021514
0.037248 0.037248 0.037248
0.052493 0.052493 0.052493
0.067445 0.067445 0.067445
0.082186 0.082186 0.082186
0.096759 0.096759 0.096759
0.111194 0.111194 0.111194
0.125510 0.125510 0.125510
0.139721 0.139721 0.139721
0.153839 0.153839 0.153839
0.167872 0.167872 0.167872
0.181826 0.181826 0.181826
0.195709 0.195709 0.195709
0.209524 0.209524 0.209524
0.223276 0.223276 0.223276
0.236969 0.236969 0.236969
0.250606 0.250606 0.250606
0.072834 0.072834 0.072834
0.087509 0.087509 0.087509
0.102030 0.102030 0.102030
0.116419 0.116419 0.116419
0.130695 0.130695 0.130695
0.144871 0.144871 0.144871
0.158957 0.158957 0.158957
0.172961 0.172961 0.172961
0.186889 0.186889 0.186889
0.200746 0.200746 0.200746
0.214538 0.214538 0.214538
0.228268 0.228268 0.228268
0.241940 0.241940 0.241940
0.255557 0.255557 0.255557
0.269120 0.269120 0.269120
0.282634 0.282634 0.282634
0.296099 0.296099 0.296099
0.121629 0.121629 0.121629
0.135867 0.135867 0.135867
0.150010 0.150010 0.150010
0.164065 0.164065 0.164065
0.178040 0.178040 0.178040
0.191941 0.191941 0.191941
0.205775 0.205775 0.205775
0.219544 0.219544 0.219544
0.233252 0.233252 0.233252
0.246904 0.246904 0.246904
0.260501 0.260501 0.260501
0.274046 0.274046 0.274046
0.287541 0.287541 0.287541
0.300989 0.300989 0.300989
0.314391 0.314391 0.314391
0.327749 0.327749 0.327749
0.341064 0.341064 0.341064
0.169161 0.169161 0.169161
0.183109 0.183109 0.183109
0.196985 0.196985 0.196985
0.210795 0.210795 0.210795
0.224541 0.224541 0.224541
0.238229 0.238229 0.238229
0.251860 0.251860 0.251860
0.265438 0.265438 0.265438
0.278965 0.278965 0.278965
0.292442 0.292442 0.292442
0.305873 0.305873 0.305873
0.319259 0.319259 0.319259
0.332601 0.332601 0.332601
0.345901 0.345901 0.345901
0.359160 0.359160 0.359160
0.372379 0.372379 0.372379
0.385560 0.385560 0.385560
0.215806 0.215806 0.215806
0.229531 0.229531 0.229531
0.243198 0.243198 0.243198
0.256809 0.256809 0.256809
0.270368 0.270368 0.270368
0.283877 0.283877 0.283877
0.297338 0.297338 0.297338
0.310752 0.310752 0.310752
0.324121 0.324121 0.324121
0.337448 0.337448 0.337448
0.350733 0.350733 0.350733
0.363977 0.363977 0.363977
0.377182 0.377182 0.377182
0.390349 0.390349 0.390349
0.403478 0.403478 0.403478
0.416572 0.416572 0.416572
0.429630 0.429630 0.429630
0.261751 0.261751 0.261751
0.275292 0.275292 0.275292
0.288783 0.288783 0.288783
0.302226 0.302226 0.302226
0.315624 0.315624 0.315624
0.328978 0.328978 0.328978
0.342289 0.342289 0.342289
0.355559 0.355559 0.355559
0.368789 0.368789 0.368789
0.381980 0.381980 0.381980
0.395133 0.395133 0.395133
0.408249 0.408249 0.408249
0.421330 0.421330 0.421330
0.434375 0.434375 0.434375
0.447386 0.447386 0.447386
0.460364 0.460364 0.460364
0.473308 0.473308 0.473308
0.307109 0.307109 0.307109
0.320491 0.320491 0.320491
0.333829 0.333829 0.333829
0.347125 0.347125 0.347125
0.360380 0.360380 0.360380
0.373596 0.373596 0.373596
0.386773 0.386773 0.386773
0.399913 0.399913 0.399913
0.413016 0.413016 0.413016
0.426083 0.426083 0.426083
0.439116 0.439116 0.439116
0.452115 0.452115 0.452115
0.465080 0.465080 0.465080
0.478013 0.478013 0.478013
0.490913 0.490913 0.490913
0.503783 0.503783 0.503783
0.516621 0.516621 0.516621
0.351955 0.351955 0.351955
0.365196 0.365196 0.365196
0.378397 0.378397 0.378397
0.391561 0.391561 0.391561
0.404687 0.404687 0.404687
0.417777 0.417777 0.417777
0.430832 0.430832 0.430832
0.443852 0.443852 0.443852
0.456839 0.456839 0.456839
0.469792 0.469792 0.469792
0.482713 0.482713 0.482713
0.495602 0.495602 0.495602
0.508460 0.508460 0.508460
0.521288 0.521288 0.521288
0.534085 0.534085 0.534085
0.546853 0.546853 0.546853
0.559592 0.559592 0.559592
0.396344 0.396344 0.396344
0.409457 0.409457 0.409457
0.422534 0.422534 0.422534
0.435576 0.435576 0.435576
0.448584 0.448584 0.448584
0.461558 0.461558 0.461558
0.474500 0.474500 0.474500
0.487409 0.487409 0.487409
0.500287 0.500287 0.500287
0.513134 0.513134 0.513134
0.525950 0.525950 0.525950
0.538737 0.538737 0.538737
0.551494 0.551494 0.551494
0.564222 0.564222 0.564222
0.576922 0.576922 0.576922
0.589593 0.589593 0.589593
0.602237 0.602237 0.602237
0.440316 0.440316 0.440316
0.453311 0.453311 0.453311
0.466274 0.466274 0.466274
0.479203 0.479203 0.479203
0.492101 0.492101 0.492101
0.504968 0.504968 0.504968
0.517803 0.517803 0.517803
0.530609 0.530609 0.530609
0.543385 0.543385 0.543385
0.556131 0.556131 0.556131
0.568849 0.568849 0.568849
0.581538 0.581538 0.581538
0.594200 0.594200 0.594200
0.606834 0.606834 0.606834
0.619441 0.619441 0.619441
0.632021 0.632021 0.632021
0.644574 0.644574 0.644574
0.483903 0.483903 0.483903
0.496789 0.496789 0.496789
0.509644 0.509644 0.509644
0.522469 0.522469 0.522469
0.535264 0.535264 0.535264
0.548029 0.548029 0.548029
0.560765 0.560765 0.560765
0.573472 0.573472 0.573472
0.586151 0.586151 0.586151
0.598803 0.598803 0.598803
0.611427 0.611427 0.611427
0.624024 0.624024 0.624024
0.636594 0.636594 0.636594
0.649138 0.649138 0.649138
0.661656 0.661656 0.661656
0.674148 0.674148 0.674148
0.686615 0.686615 0.686615
0.527130 0.527130 0.527130
0.539914 0.539914 0.539914
0.552669 0.552669 0.552669
0.565394 0.565394 0.565394
0.578091 0.578091 0.578091
0.590760 0.590760 0.590760
0.603402 0.603402 0.603402
0.616016 0.616016 0.616016
0.628603 0.628603 0.628603
0.641164 0.641164 0.641164
0.653698 0.653698 0.653698
0.666207 0.666207 0.666207
0.678690 0.678690 0.678690
0.691148 0.691148 0.691148
0.703580 0.703580 0.703580
0.715988 0.715988 0.715988
0.728372 0.728372 0.728372
0.570020 0.570020 0.570020
0.582707 0.582707 0.582707
0.595366 0.595366 0.595366
0.607997 0.607997 0.607997
0.620601 0.620601 0.620601
0.633179 0.633179 0.633179
0.645730 0.645730 0.645730
0.658255 0.658255 0.658255
0.670754 0.670754 0.670754
0.683228 0.683228 0.683228
0.695677 0.695677 0.695677
0.708100 0.708100 0.708100
0.720499 0.720499 0.720499
0.732874 0.732874 0.732874
0.745225 0.745225 0.745225
0.757552 0.757552 0.757552
0.769855 0.769855 0.769855
0.612589 0.612589 0.612589
0.625184 0.625184 0.625184
0.637751 0.637751 0.637751
0.650293 0.650293 0.650293
0.662809 0.662809 0.662809
0.675299 0.675299 0.675299
0.687763 0.687763 0.687763
0.700203 0.700203 0.700203
0.712617 0.712617 0.712617
0.725007 0.725007 0.725007
0.737373 0.737373 0.737373
0.749715 0.749715 0.749715
0.762033 0.762033 0.762033
0.774328 0.774328 0.774328
0.786599 0.786599 0.786599
0.798847 0.798847 0.798847
0.811072 0.811072 0.811072
0.654852 0.654852 0.654852
0.667359 0.667359 0.667359
0.679839 0.679839 0.679839
0.692295 0.692295 0.692295
0.704725 0.704725 0.704725
0.717131 0.717131 0.717131
0.729512 0.729512 0.729512
0.741869 0.741869 0.741869
0.754203 0.754203 0.754203
0.766512 0.766512 0.766512
0.778798 0.778798 0.778798
0.791061 0.791061 0.791061
0.803301 0.803301 0.803301
0.815517 0.815517 0.815517
0.827712 0.827712 0.827712
0.839883 0.839883 0.839883
0.852033 0.852033 0.852033
0.696823 0.696823 0.696823
0.709245 0.709245 0.709245
0.721641 0.721641 0.721641
0.734014 0.734014 0.734014
0.746362 0.746362 0.746362
0.758687 0.758687 0.758687
0.770988 0.770988 0.770988
0.783265 0.783265 0.783265
0.795520 0.795520 0.795520
0.807751 0.807751 0.807751
0.819960 0.819960 0.819960
0.832146 0.832146 0.832146
0.844309 0.844309 0.844309
0.856451 0.856451 0.856451
0.868570 0.868570 0.868570
0.880668 0.880668 0.880668
0.892744 0.892744 0.892744
0.738512 0.738512 0.738512
0.750852 0.750852 0.750852
0.763168 0.763168 0.763168
0.775460 0.775460 0.775460
0.787729 0.787729 0.787729
0.799975 0.799975 0.799975
0.812198 0.812198 0.812198
0.824399 0.824399 0.824399
0.836577 0.836577 0.836577
0.848732 0.848732 0.848732
0.860866 0.860866 0.860866
0.872977 0.872977 0.872977
0.885067 0.885067 0.885067
0.897135 0.897135 0.897135
0.909182 0.909182 0.909182
0.921207 0.921207 0.921207
0.933211 0.933211 0.933211
0.026937 0.026937 0.026937
0.042466 0.042466 0.042466
0.057599 0.057599 0.057599
0.072472 0.072472 0.072472
0.087152 0.087152 0.087152
0.101676 0.101676 0.101676
0.116069 0.116069 0.116069
0.130347 0.130347 0.130347
0.144526 0.144526 0.144526
0.158614 0.158614 0.158614
0.172619 0.172619 0.172619
0.186549 0.186549 0.186549
0.200408 0.200408 0.200408
0.214201 0.214201 0.214201
0.227933 0.227933 0.227933
0.241606 0.241606 0.241606
0.255224 0.255224 0.255224
0.077837 0.077837 0.077837
