luts/film_stocks/ilford_hp5_bw.cube
TITLE "Ilford HP5 Plus B&W"
LUT_3D_SIZE 9
DOMAIN_MIN 0.0 0.0 0.0
DOMAIN_MAX 1.0 1.0 1.0
0.010000 0.010000 0.010000
0.042178 0.042178 0.042178
0.072194 0.072194 0.072194
0.101404 0.101404 0.101404
0.130080 0.130080 0.130080
0.158349 0.158349 0.158349
0.186287 0.186287 0.186287
0.213943 0.213943 0.213943
0.241350 0.241350 0.241350
0.111897 0.111897 0.111897
0.140414 0.140414 0.140414
0.168556 0.168556 0.168556
0.196386 0.196386 0.196386
0.223948 0.223948 0.223948
0.251271 0.251271 0.251271
0.278380 0.278380 0.278380
0.305293 0.305293 0.305293
0.332025 0.332025 0.332025
0.206450 0.206450 0.206450
0.233921 0.233921 0.233921
0.261164 0.261164 0.261164
0.288200 0.288200 0.288200
0.315045 0.315045 0.315045
0.341714 0.341714 0.341714
0.368217 0.368217 0.368217
0.394565 0.394565 0.394565
0.420765 0.420765 0.420765
0.297995 0.297995 0.297995
0.324774 0.324774 0.324774
0.351381 0.351381 0.351381
0.377827 0.377827 0.377827
0.404120 0.404120 0.404120
0.430268 0.430268 0.430268
0.456277 0.456277 0.456277
0.482155 0.482155 0.482155
0.507905 0.507905 0.507905
0.387417 0.387417 0.387417
0.413656 0.413656 0.413656
0.439753 0.439753 0.439753
0.465713 0.465713 0.465713
0.491544 0.491544 0.491544
0.517249 0.517249 0.517249
0.542832 0.542832 0.542832
0.568299 0.568299 0.568299
0.593653 0.593653 0.593653
0.475132 0.475132 0.475132
0.500916 0.500916 0.500916
0.526577 0.526577 0.526577
0.552117 0.552117 0.552117
0.577542 0.577542 0.577542
0.602855 0.602855 0.602855
0.628059 0.628059 0.628059
0.653156 0.653156 0.653156
0.678150 0.678150 0.678150
0.561387 0.561387 0.561387
0.586771 0.586771 0.586771
0.612043 0.612043 0.612043
0.637208 0.637208 0.637208
0.662268 0.662268 0.662268
0.687224 0.687224 0.687224
0.712081 0.712081 0.712081
0.736839 0.736839 0.736839
0.761501 0.761501 0.761501
0.646343 0.646343 0.646343
0.671365 0.671365 0.671365
0.696285 0.696285 0.696285
0.721105 0.721105 0.721105
0.745828 0.745828 0.745828
0.770456 0.770456 0.770456
0.794990 0.794990 0.794990
0.819432 0.819432 0.819432
0.843783 0.843783 0.843783
0.730117 0.730117 0.730117
0.754805 0.754805 0.754805
0.779399 0.779399 0.779399
0.803899 0.803899 0.803899
0.828308 0.828308 0.828308
0.852627 0.852627 0.852627
0.876858 0.876858 0.876858
0.901002 0.901002 0.901002
0.925060 0.925060 0.925060
0.021514 0.021514 0.021514
0.052493 0.052493 0.052493
0.082186 0.082186 0.082186
0.111194 0.111194 0.111194
0.139721 0.139721 0.139721
0.167872 0.167872 0.167872
0.195709 0.195709 0.195709
0.223276 0.223276 0.223276
0.250606 0.250606 0.250606
0.121629 0.121629 0.121629
0.150010 0.150010 0.150010
0.178040 0.178040 0.178040
0.205775 0.205775 0.205775
0.233252 0.233252 0.233252
0.260501 0.260501 0.260501
0.287541 0.287541 0.287541
0.314391 0.314391 0.314391
0.341064 0.341064 0.341064
0.215806 0.215806 0.215806
0.243198 0.243198 0.243198
0.270368 0.270368 0.270368
0.297338 0.297338 0.297338
0.324121 0.324121 0.324121
0.350733 0.350733 0.350733
0.377182 0.377182 0.377182
0.403478 0.403478 0.403478
0.429630 0.429630 0.429630
0.307109 0.307109 0.307109
0.333829 0.333829 0.333829
0.360380 0.360380 0.360380
0.386773 0.386773 0.386773
0.413016 0.413016 0.413016
0.439116 0.439116 0.439116
0.465080 0.465080 0.465080
0.490913 0.490913 0.490913
0.516621 0.516621 0.516621
0.396344 0.396344 0.396344
0.422534 0.422534 0.422534
0.448584 0.448584 0.448584
0.474500 0.474500 0.474500
0.500287 0.500287 0.500287
0.525950 0.525950 0.525950
0.551494 0.551494 0.551494
0.576922 0.576922 0.576922
0.602237 0.602237 0.602237
0.483903 0.483903 0.483903
0.509644 0.509644 0.509644
0.535264 0.535264 0.535264
0.560765 0.560765 0.560765
0.586151 0.586151 0.586151
0.611427 0.611427 0.611427
0.636594 0.636594 0.636594
0.661656 0.661656 0.661656
0.686615 0.686615 0.686615
0.570020 0.570020 0.570020
0.595366 0.595366 0.595366
0.620601 0.620601 0.620601
0.645730 0.645730 0.645730
0.670754 0.670754 0.670754
0.695677 0.695677 0.695677
0.720499 0.720499 0.720499
0.745225 0.745225 0.745225
0.769855 0.769855 0.769855
0.654852 0.654852 0.654852
0.679839 0.679839 0.679839
0.704725 0.704725 0.704725
0.729512 0.729512 0.729512
0.754203 0.754203 0.754203
0.778798 0.778798 0.778798
0.803301 0.803301 0.803301
0.827712 0.827712 0.827712
0.852033 0.852033 0.852033
0.738512 0.738512 0.738512
0.763168 0.763168 0.763168
0.787729 0.787729 0.787729
0.812198 0.812198 0.812198
0.836577 0.836577 0.836577
0.860866 0.860866 0.860866
0.885067 0.885067 0.885067
0.909182 0.909182 0.909182
0.933211 0.933211 0.933211
0.032270 0.032270 0.032270
0.062675 0.062675 0.062675
0.092101 0.092101 0.092101
0.120930 0.120930 0.120930
0.149320 0.149320 0.149320
0.177358 0.177358 0.177358
0.205099 0.205099 0.205099
0.232583 0.232583 0.232583
0.259837 0.259837 0.259837
0.131311 0.131311 0.131311
0.159565 0.159565 0.159565
0.187490 0.187490 0.187490
0.215133 0.215133 0.215133
0.242530 0.242530 0.242530
0.269706 0.269706 0.269706
0.296680 0.296680 0.296680
0.323468 0.323468 0.323468
0.350084 0.350084 0.350084
0.225135 0.225135 0.225135
0.252449 0.252449 0.252449
0.279549 0.279549 0.279549
0.306454 0.306454 0.306454
0.333177 0.333177 0.333177
0.359733 0.359733 0.359733
0.386129 0.386129 0.386129
0.412376 0.412376 0.412376
0.438479 0.438479 0.438479
0.316203 0.316203 0.316203
0.342864 0.342864 0.342864
0.369361 0.369361 0.369361
0.395701 0.395701 0.395701
0.421895 0.421895 0.421895
0.447948 0.447948 0.447948
0.473868 0.473868 0.473868
0.499658 0.499658 0.499658
0.525324 0.525324 0.525324
0.405254 0.405254 0.405254
0.431396 0.431396 0.431396
0.457400 0.457400 0.457400
0.483271 0.483271 0.483271
0.509016 0.509016 0.509016
0.534638 0.534638 0.534638
0.560142 0.560142 0.560142
0.585532 0.585532 0.585532
0.610810 0.610810 0.610810
0.492659 0.492659 0.492659
0.518358 0.518358 0.518358
0.543937 0.543937 0.543937
0.569399 0.569399 0.569399
0.594747 0.594747 0.594747
0.619985 0.619985 0.619985
0.645117 0.645117 0.645117
0.670143 0.670143 0.670143
0.695068 0.695068 0.695068
0.578640 0.578640 0.578640
0.603948 0.603948 0.603948
0.629147 0.629147 0.629147
0.654240 0.654240 0.654240
0.679229 0.679229 0.679229
0.704118 0.704118 0.704118
0.728907 0.728907 0.728907
0.753600 0.753600 0.753600
0.778198 0.778198 0.778198
0.663350 0.663350 0.663350
0.688302 0.688302 0.688302
0.713154 0.713154 0.713154
0.737908 0.737908 0.737908
0.762566 0.762566 0.762566
0.787130 0.787130 0.787130
0.811601 0.811601 0.811601
0.835981 0.835981 0.835981
0.860273 0.860273 0.860273
0.746896 0.746896 0.746896
0.771519 0.771519 0.771519
0.796049 0.796049 0.796049
0.820487 0.820487 0.820487
0.844835 0.844835 0.844835
0.869094 0.869094 0.869094
0.893266 0.893266 0.893266
0.917352 0.917352 0.917352
0.941352 0.941352 0.941352
0.042754 0.042754 0.042754
0.072750 0.072750 0.072750
0.101948 0.101948 0.101948
0.130615 0.130615 0.130615
0.158878 0.158878 0.158878
0.186810 0.186810 0.186810
0.214460 0.214460 0.214460
0.241863 0.241863 0.241863
0.269044 0.269044 0.269044
0.140947 0.140947 0.140947
0.169082 0.169082 0.169082
0.196907 0.196907 0.196907
0.224464 0.224464 0.224464
0.251783 0.251783 0.251783
0.278888 0.278888 0.278888
0.305798 0.305798 0.305798
0.332526 0.332526 0.332526
0.359085 0.359085 0.359085
0.234436 0.234436 0.234436
0.261675 0.261675 0.261675
0.288707 0.288707 0.288707
0.315549 0.315549 0.315549
0.342214 0.342214 0.342214
0.368714 0.368714 0.368714
0.395059 0.395059 0.395059
0.421256 0.421256 0.421256
0.447313 0.447313 0.447313
0.325276 0.325276 0.325276
0.351881 0.351881 0.351881
0.378323 0.378323 0.378323
0.404613 0.404613 0.404613
0.430758 0.430758 0.430758
0.456765 0.456765 0.456765
0.482640 0.482640 0.482640
0.508388 0.508388 0.508388
0.534013 0.534013 0.534013
0.414148 0.414148 0.414148
0.440242 0.440242 0.440242
0.466201 0.466201 0.466201
0.492028 0.492028 0.492028
0.517731 0.517731 0.517731
0.543313 0.543313 0.543313
0.568777 0.568777 0.568777
0.594128 0.594128 0.594128
0.619369 0.619369 0.619369
0.501400 0.501400 0.501400
0.527058 0.527058 0.527058
0.552597 0.552597 0.552597
0.578020 0.578020 0.578020
0.603330 0.603330 0.603330
0.628532 0.628532 0.628532
0.653628 0.653628 0.653628
0.678619 0.678619 0.678619
0.703510 0.703510 0.703510
0.587247 0.587247 0.587247
0.612518 0.612518 0.612518
0.637681 0.637681 0.637681
0.662738 0.662738 0.662738
0.687693 0.687693 0.687693
0.712547 0.712547 0.712547
0.737304 0.737304 0.737304
0.761964 0.761964 0.761964
0.786530 0.786530 0.786530
0.671835 0.671835 0.671835
0.696753 0.696753 0.696753
0.721571 0.721571 0.721571
0.746293 0.746293 0.746293
0.770918 0.770918 0.770918
0.795450 0.795450 0.795450
0.819891 0.819891 0.819891
0.844241 0.844241 0.844241
0.868502 0.868502 0.868502
0.755269 0.755269 0.755269
0.779860 0.779860 0.779860
0.804359 0.804359 0.804359
0.828766 0.828766 0.828766
0.853084 0.853084 0.853084
0.877313 0.877313 0.877313
0.901455 0.901455 0.901455
0.925512 0.925512 0.925512
0.949484 0.949484 0.949484
0.053060 0.053060 0.053060
0.082737 0.082737 0.082737
0.111735 0.111735 0.111735
0.140254 0.140254 0.140254
0.168398 0.168398 0.168398
0.196230 0.196230 0.196230
0.223793 0.223793 0.223793
0.251118 0.251118 0.251118
0.278228 0.278228 0.278228
0.150540 0.150540 0.150540
0.178564 0.178564 0.178564
0.206294 0.206294 0.206294
0.233767 0.233767 0.233767
0.261011 0.261011 0.261011
0.288048 0.288048 0.288048
0.314894 0.314894 0.314894
0.341564 0.341564 0.341564
0.368068 0.368068 0.368068
0.243711 0.243711 0.243711
0.270877 0.270877 0.270877
0.297843 0.297843 0.297843
0.324624 0.324624 0.324624
0.351232 0.351232 0.351232
0.377678 0.377678 0.377678
0.403972 0.403972 0.403972
0.430121 0.430121 0.430121
0.456131 0.456131 0.456131
0.334330 0.334330 0.334330
0.360878 0.360878 0.360878
0.387268 0.387268 0.387268
0.413508 0.413508 0.413508
0.439606 0.439606 0.439606
0.465567 0.465567 0.465567
0.491398 0.491398 0.491398
0.517104 0.517104 0.517104
0.542688 0.542688 0.542688
0.423025 0.423025 0.423025
0.449073 0.449073 0.449073
0.474986 0.474986 0.474986
0.500771 0.500771 0.500771
0.526432 0.526432 0.526432
0.551974 0.551974 0.551974
0.577399 0.577399 0.577399
0.602713 0.602713 0.602713
0.627917 0.627917 0.627917
0.510127 0.510127 0.510127
0.535744 0.535744 0.535744
0.561243 0.561243 0.561243
0.586628 0.586628 0.586628
0.611901 0.611901 0.611901
0.637066 0.637066 0.637066
0.662126 0.662126 0.662126
0.687084 0.687084 0.687084
0.711941 0.711941 0.711941
0.595842 0.595842 0.595842
0.621075 0.621075 0.621075
0.646202 0.646202 0.646202
0.671224 0.671224 0.671224
0.696145 0.696145 0.696145
0.720966 0.720966 0.720966
0.745689 0.745689 0.745689
0.770317 0.770317 0.770317
0.794852 0.794852 0.794852
0.680308 0.680308 0.680308
0.705192 0.705192 0.705192
0.729978 0.729978 0.729978
0.754666 0.754666 0.754666
0.779260 0.779260 0.779260
0.803761 0.803761 0.803761
0.828170 0.828170 0.828170
0.852490 0.852490 0.852490
0.876721 0.876721 0.876721
0.763631 0.763631 0.763631
0.788190 0.788190 0.788190
0.812658 0.812658 0.812658
0.837034 0.837034 0.837034
0.861322 0.861322 0.861322
0.885521 0.885521 0.885521
0.909634 0.909634 0.909634
0.933662 0.933662 0.933662
0.957606 0.957606 0.957606
0.063235 0.063235 0.063235
0.092648 0.092648 0.092648
0.121468 0.121468 0.121468
0.149850 0.149850 0.149850
0.177882 0.177882 0.177882
0.205619 0.205619 0.205619
0.233098 0.233098 0.233098
0.260347 0.260347 0.260347
0.287389 0.287389 0.287389
0.160093 0.160093 0.160093
0.188012 0.188012 0.188012
0.215651 0.215651 0.215651
0.243044 0.243044 0.243044
0.270215 0.270215 0.270215
0.297186 0.297186 0.297186
0.323971 0.323971 0.323971
0.350583 0.350583 0.350583
0.377033 0.377033 0.377033
0.252960 0.252960 0.252960
0.280057 0.280057 0.280057
0.306958 0.306958 0.306958
0.333679 0.333679 0.333679
0.360231 0.360231 0.360231
0.386624 0.386624 0.386624
0.412868 0.412868 0.412868
0.438969 0.438969 0.438969
0.464934 0.464934 0.464934
0.343364 0.343364 0.343364
0.369858 0.369858 0.369858
0.396196 0.396196 0.396196
0.422387 0.422387 0.422387
0.448437 0.448437 0.448437
0.474354 0.474354 0.474354
0.500142 0.500142 0.500142
0.525806 0.525806 0.525806
0.551350 0.551350 0.551350
0.431887 0.431887 0.431887
0.457888 0.457888 0.457888
0.483757 0.483757 0.483757
0.509499 0.509499 0.509499
0.535119 0.535119 0.535119
0.560621 0.560621 0.560621
0.586008 0.586008 0.586008
0.611284 0.611284 0.611284
0.636452 0.636452 0.636452
0.518841 0.518841 0.518841
0.544417 0.544417 0.544417
0.569877 0.569877 0.569877
0.595223 0.595223 0.595223
0.620459 0.620459 0.620459
0.645589 0.645589 0.645589
0.670613 0.670613 0.670613
0.695536 0.695536 0.695536
0.720360 0.720360 0.720360
0.604423 0.604423 0.604423
0.629620 0.629620 0.629620
0.654711 0.654711 0.654711
0.679699 0.679699 0.679699
0.704585 0.704585 0.704585
0.729373 0.729373 0.729373
0.754063 0.754063 0.754063
0.778660 0.778660 0.778660
0.803163 0.803163 0.803163
0.688770 0.688770 0.688770
0.713621 0.713621 0.713621
0.738373 0.738373 0.738373
0.763029 0.763029 0.763029
0.787591 0.787591 0.787591
0.812060 0.812060 0.812060
0.836439 0.836439 0.836439
0.860729 0.860729 0.860729
0.884930 0.884930 0.884930
0.771982 0.771982 0.771982
0.796510 0.796510 0.796510
0.820946 0.820946 0.820946
0.845292 0.845292 0.845292
0.869550 0.869550 0.869550
0.893720 0.893720 0.893720
0.917804 0.917804 0.917804
0.941803 0.941803 0.941803
0.965719 0.965719 0.965719
0.073306 0.073306 0.073306
0.102492 0.102492 0.102492
0.131150 0.131150 0.131150
0.159406 0.159406 0.159406
0.187333 0.187333 0.187333
0.214978 0.214978 0.214978
0.242376 0.242376 0.242376
0.269553 0.269553 0.269553
0.296528 0.296528 0.296528
0.169609 0.169609 0.169609
0.197428 0.197428 0.197428
0.224980 0.224980 0.224980
0.252295 0.252295 0.252295
0.279396 0.279396 0.279396
0.306302 0.306302 0.306302
0.333027 0.333027 0.333027
0.359583 0.359583 0.359583
0.385981 0.385981 0.385981
0.262185 0.262185 0.262185
0.289214 0.289214 0.289214
0.316052 0.316052 0.316052
0.342714 0.342714 0.342714
0.369211 0.369211 0.369211
0.395553 0.395553 0.395553
0.421748 0.421748 0.421748
0.447802 0.447802 0.447802
0.473722 0.473722 0.473722
0.352379 0.352379 0.352379
0.378819 0.378819 0.378819
0.405106 0.405106 0.405106
0.431249 0.431249 0.431249
0.457253 0.457253 0.457253
0.483126 0.483126 0.483126
0.508871 0.508871 0.508871
0.534494 0.534494 0.534494
0.559999 0.559999 0.559999
0.440732 0.440732 0.440732
0.466688 0.466688 0.466688
0.492513 0.492513 0.492513
0.518213 0.518213 0.518213
0.543793 0.543793 0.543793
0.569255 0.569255 0.569255
0.594604 0.594604 0.594604
0.619843 0.619843 0.619843
0.644975 0.644975 0.644975
0.527540 0.527540 0.527540
0.553076 0.553076 0.553076
0.578497 0.578497 0.578497
0.603806 0.603806 0.603806
0.629005 0.629005 0.629005
0.654099 0.654099 0.654099
0.679089 0.679089 0.679089
0.703978 0.703978 0.703978
0.728768 0.728768 0.728768
0.612992 0.612992 0.612992
0.638153 0.638153 0.638153
0.663208 0.663208 0.663208
0.688161 0.688161 0.688161
0.713014 0.713014 0.713014
0.737769 0.737769 0.737769
0.762427 0.762427 0.762427
0.786991 0.786991 0.786991
0.811463 0.811463 0.811463
0.697221 0.697221 0.697221
0.722037 0.722037 0.722037
0.746757 0.746757 0.746757
0.771381 0.771381 0.771381
0.795911 0.795911 0.795911
0.820350 0.820350 0.820350
0.844698 0.844698 0.844698
0.868957 0.868957 0.868957
0.893130 0.893130 0.893130
0.780322 0.780322 0.780322
0.804819 0.804819 0.804819
0.829224 0.829224 0.829224
0.853540 0.853540 0.853540
0.877768 0.877768 0.877768
0.901908 0.901908 0.901908
0.925964 0.925964 0.925964
0.949934 0.949934 0.949934
0.973822 0.973822 0.973822
0.083288 0.083288 0.083288
0.112276 0.112276 0.112276
0.140787 0.140787 0.140787
0.168924 0.168924 0.168924
0.196751 0.196751 0.196751
0.224309 0.224309 0.224309
0.251630 0.251630 0.251630
0.278736 0.278736 0.278736
0.305646 0.305646 0.305646
0.179088 0.179088 0.179088
0.206813 0.206813 0.206813
0.234282 0.234282 0.234282
0.261522 0.261522 0.261522
0.288555 0.288555 0.288555
0.315398 0.315398 0.315398
0.342064 0.342064 0.342064
0.368565 0.368565 0.368565
0.394911 0.394911 0.394911
0.271387 0.271387 0.271387
0.298349 0.298349 0.298349
0.325126 0.325126 0.325126
0.351731 0.351731 0.351731
0.378174 0.378174 0.378174
0.404465 0.404465 0.404465
0.430611 0.430611 0.430611
0.456619 0.456619 0.456619
0.482495 0.482495 0.482495
0.361376 0.361376 0.361376
0.387763 0.387763 0.387763
0.414000 0.414000 0.414000
0.440095 0.440095 0.440095
0.466054 0.466054 0.466054
0.491883 0.491883 0.491883
0.517586 0.517586 0.517586
0.543169 0.543169 0.543169
0.568634 0.568634 0.568634
0.449562 0.449562 0.449562
0.475472 0.475472 0.475472
0.501255 0.501255 0.501255
0.526914 0.526914 0.526914
0.552453 0.552453 0.552453
0.577876 0.577876 0.577876
0.603188 0.603188 0.603188
0.628390 0.628390 0.628390
0.653486 0.653486 0.653486
0.536225 0.536225 0.536225
0.561722 0.561722 0.561722
0.587104 0.587104 0.587104
0.612376 0.612376 0.612376
0.637539 0.637539 0.637539
0.662597 0.662597 0.662597
0.687552 0.687552 0.687552
0.712407 0.712407 0.712407
0.737164 0.737164 0.737164
0.621549 0.621549 0.621549
0.646674 0.646674 0.646674
0.671694 0.671694 0.671694
0.696613 0.696613 0.696613
0.721432 0.721432 0.721432
0.746153 0.746153 0.746153
0.770780 0.770780 0.770780
0.795312 0.795312 0.795312
0.819753 0.819753 0.819753
0.705660 0.705660 0.705660
0.730443 0.730443 0.730443
0.755130 0.755130 0.755130
0.779722 0.779722 0.779722
0.804221 0.804221 0.804221
0.828629 0.828629 0.828629
0.852946 0.852946 0.852946
0.877176 0.877176 0.877176
0.901319 0.901319 0.901319
0.788652 0.788652 0.788652
0.813117 0.813117 0.813117
0.837492 0.837492 0.837492
0.861778 0.861778 0.861778
0.885976 0.885976 0.885976
0.910087 0.910087 0.910087
0.934114 0.934114 0.934114
0.958056 0.958056 0.958056
0.981916 0.981916 0.981916
0.093195 0.093195 0.093195
0.122005 0.122005 0.122005
0.150381 0.150381 0.150381
0.178407 0.178407 0.178407
0.206138 0.206138 0.206138
0.233613 0.233613 0.233613
0.260858 0.260858 0.260858
0.287896 0.287896 0.287896
0.314743 0.314743 0.314743
0.188535 0.188535 0.188535
0.216169 0.216169 0.216169
0.243557 0.243557 0.243557
0.270725 0.270725 0.270725
0.297691 0.297691 0.297691
0.324473 0.324473 0.324473
0.351082 0.351082 0.351082
0.377529 0.377529 0.377529
0.403824 0.403824 0.403824
0.280565 0.280565 0.280565
0.307462 0.307462 0.307462
0.334180 0.334180 0.334180
0.360729 0.360729 0.360729
0.387119 0.387119 0.387119
0.413360 0.413360 0.413360
0.439459 0.439459 0.439459
0.465421 0.465421 0.465421
0.491253 0.491253 0.491253
0.370355 0.370355 0.370355
0.396690 0.396690 0.396690
0.422878 0.422878 0.422878
0.448926 0.448926 0.448926
0.474840 0.474840 0.474840
0.500626 0.500626 0.500626
0.526288 0.526288 0.526288
0.551830 0.551830 0.551830
0.577256 0.577256 0.577256
0.458376 0.458376 0.458376
0.484243 0.484243 0.484243
0.509982 0.509982 0.509982
0.535600 0.535600 0.535600
0.561100 0.561100 0.561100
0.586485 0.586485 0.586485
0.611759 0.611759 0.611759
0.636925 0.636925 0.636925
0.661985 0.661985 0.661985
0.544897 0.544897 0.544897
0.570355 0.570355 0.570355
0.595699 0.595699 0.595699
0.620933 0.620933 0.620933
0.646060 0.646060 0.646060
0.671083 0.671083 0.671083
0.696004 0.696004 0.696004
0.720826 0.720826 0.720826
0.745550 0.745550 0.745550
0.630093 0.630093 0.630093
0.655182 0.655182 0.655182
0.680168 0.680168 0.680168
0.705052 0.705052 0.705052
0.729838 0.729838 0.729838
0.754527 0.754527 0.754527
0.779121 0.779121 0.779121
0.803623 0.803623 0.803623
0.828033 0.828033 0.828033
0.714087 0.714087 0.714087
0.738838 0.738838 0.738838
0.763492 0.763492 0.763492
0.788052 0.788052 0.788052
0.812520 0.812520 0.812520
0.836897 0.836897 0.836897
0.861185 0.861185 0.861185
0.885385 0.885385 0.885385
0.909499 0.909499 0.909499
0.796971 0.796971 0.796971
0.821405 0.821405 0.821405
0.845750 0.845750 0.845750
0.870005 0.870005 0.870005
0.894174 0.894174 0.894174
0.918256 0.918256 0.918256
0.942254 0.942254 0.942254
0.966168 0.966168 0.966168
0.990000 0.990000 0.990000
