luts/film_stocks/ilford_hp5_bw.cube
TITLE "Ilford HP5 Plus B&W"
LUT_3D_SIZE 5
DOMAIN_MIN 0.0 0.0 0.0
DOMAIN_MAX 1.0 1.0 1.0
0.010000 0.010000 0.010000
0.072194 0.072194 0.072194
0.130080 0.130080 0.130080
0.186287 0.186287 0.186287
0.241350 0.241350 0.241350
0.206450 0.206450 0.206450
0.261164 0.261164 0.261164
0.315045 0.315045 0.315045
0.368217 0.368217 0.368217
0.420765 0.420765 0.420765
0.387417 0.387417 0.387417
0.439753 0.439753 0.439753
0.491544 0.491544 0.491544
0.542832 0.542832 0.542832
0.593653 0.593653 0.593653
0.561387 0.561387 0.561387
0.612043 0.612043 0.612043
0.662268 0.662268 0.662268
0.712081 0.712081 0.712081
0.761501 0.761501 0.761501
0.730117 0.730117 0.730117
0.779399 0.779399 0.779399
0.828308 0.828308 0.828308
0.876858 0.876858 0.876858
0.925060 0.925060 0.925060
0.032270 0.032270 0.032270
0.092101 0.092101 0.092101
0.149320 0.149320 0.149320
0.205099 0.205099 0.205099
0.259837 0.259837 0.259837
0.225135 0.225135 0.225135
0.279549 0.279549 0.279549
0.333177 0.333177 0.333177
0.386129 0.386129 0.386129
0.438479 0.438479 0.438479
0.405254 0.405254 0.405254
0.457400 0.457400 0.457400
0.509016 0.509016 0.509016
0.560142 0.560142 0.560142
0.610810 0.610810 0.610810
0.578640 0.578640 0.578640
0.629147 0.629147 0.629147
0.679229 0.679229 0.679229
0.728907 0.728907 0.728907
0.778198 0.778198 0.778198
0.746896 0.746896 0.746896
0.796049 0.796049 0.796049
0.844835 0.844835 0.844835
0.893266 0.893266 0.893266
0.941352 0.941352 0.941352
0.053060 0.053060 0.053060
0.111735 0.111735 0.111735
0.168398 0.168398 0.168398
0.223793 0.223793 0.223793
0.278228 0.278228 0.278228
0.243711 0.243711 0.243711
0.297843 0.297843 0.297843
0.351232 0.351232 0.351232
0.403972 0.403972 0.403972
0.456131 0.456131 0.456131
0.423025 0.423025 0.423025
0.474986 0.474986 0.474986
0.526432 0.526432 0.526432
0.577399 0.577399 0.577399
0.627917 0.627917 0.627917
0.595842 0.595842 0.595842
0.646202 0.646202 0.646202
0.696145 0.696145 0.696145
0.745689 0.745689 0.745689
0.794852 0.794852 0.794852
0.763631 0.763631 0.763631
0.812658 0.812658 0.812658
0.861322 0.861322 0.861322
0.909634 0.909634 0.909634
0.957606 0.957606 0.957606
0.073306 0.073306 0.073306
0.131150 0.131150 0.131150
0.187333 0.187333 0.187333
0.242376 0.242376 0.242376
0.296528 0.296528 0.296528
0.262185 0.262185 0.262185
0.316052 0.316052 0.316052
0.369211 0.369211 0.369211
0.421748 0.421748 0.421748
0.473722 0.473722 0.473722
0.440732 0.440732 0.440732
0.492513 0.492513 0.492513
0.543793 0.543793 0.543793
0.594604 0.594604 0.594604
0.644975 0.644975 0.644975
0.612992 0.612992 0.612992
0.663208 0.663208 0.663208
0.713014 0.713014 0.713014
0.762427 0.762427 0.762427
0.811463 0.811463 0.811463
0.780322 0.780322 0.780322
0.829224 0.829224 0.829224
0.877768 0.877768 0.877768
0.925964 0.925964 0.925964
0.973822 0.973822 0.973822
0.093195 0.093195 0.093195
0.150381 0.150381 0.150381
0.206138 0.206138 0.206138
0.260858 0.260858 0.260858
0.314743 0.314743 0.314743
0.280565 0.280565 0.280565
0.334180 0.334180 0.334180
0.387119 0.387119 0.387119
0.439459 0.439459 0.439459
0.491253 0.491253 0.491253
0.458376 0.458376 0.458376
0.509982 0.509982 0.509982
0.561100 0.561100 0.561100
0.611759 0.611759 0.611759
0.661985 0.661985 0.661985
0.630093 0.630093 0.630093
0.680168 0.680168 0.680168
0.729838 0.729838 0.729838
0.779121 0.779121 0.779121
0.828033 0.828033 0.828033
0.796971 0.796971 0.796971
0.845750 0.845750 0.845750
0.894174 0.894174 0.894174
0.942254 0.942254 0.942254
0.990000 0.990000 0.990000
