luts/film_stocks/kodak_vision3_250d.cube
TITLE "Kodak Vision3 250D"
LUT_3D_SIZE 17
DOMAIN_MIN 0.0 0.0 0.0
DOMAIN_MAX 1.0 1.0 1.0
0.010058 0.010058 0.000000
0.084045 0.008874 0.000000
0.155324 0.007733 0.000000
0.225184 0.006616 0.000000
0.293901 0.005516 0.000000
0.361605 0.004433 0.000000
0.428374 0.003365 0.000000
0.494263 0.002310 0.000000
0.559307 0.001270 0.000000
0.623537 0.000242 0.000000
0.686974 0.000000 0.000000
0.749636 0.000000 0.000000
0.811539 0.000000 0.000000
0.872696 0.000000 0.000000
0.933118 0.000000 0.000000
0.992813 0.000000 0.000000
1.000000 0.000000 0.000000
0.005967 0.083187 0.000000
0.079954 0.082004 0.000000
0.151233 0.080863 0.000000
0.221094 0.079745 0.000000
0.289810 0.078646 0.000000
0.357514 0.077563 0.000000
0.424283 0.076494 0.000000
0.490172 0.075440 0.000000
0.555216 0.074399 0.000000
0.619446 0.073372 0.000000
0.682883 0.072357 0.000000
0.745545 0.071354 0.000000
0.807448 0.070364 0.000000
0.868605 0.069385 0.000000
0.929027 0.068418 0.000000
0.988722 0.067463 0.000000
1.000000 0.066520 0.000000
0.002074 0.152775 0.000000
0.076061 0.151592 0.000000
0.147340 0.150451 0.000000
0.217201 0.149333 0.000000
0.285917 0.148234 0.000000
0.353621 0.147151 0.000000
0.420391 0.146082 0.000000
0.486279 0.145028 0.000000
0.551323 0.143987 0.000000
0.615553 0.142960 0.000000
0.678990 0.141945 0.000000
0.741652 0.140942 0.000000
0.803556 0.139952 0.000000
0.864712 0.138973 0.000000
0.925134 0.138006 0.000000
0.984829 0.137051 0.000000
1.000000 0.136108 0.000000
0.000000 0.220718 0.000000
0.072261 0.219534 0.000000
0.143539 0.218394 0.000000
0.213400 0.217276 0.000000
0.282116 0.216176 0.000000
0.349820 0.215093 0.000000
0.416590 0.214025 0.000000
0.482478 0.212971 0.000000
0.547523 0.211930 0.000000
0.611752 0.210902 0.000000
0.675189 0.209887 0.000000
0.737851 0.208885 0.000000
0.799755 0.207894 0.000000
0.860912 0.206916 0.000000
0.921333 0.205949 0.000000
0.981028 0.204994 0.000000
1.000000 0.204050 0.000000
0.000000 0.287412 0.000000
0.068530 0.286228 0.000000
0.139808 0.285088 0.000000
0.209669 0.283970 0.000000
0.278385 0.282871 0.000000
0.346089 0.281787 0.000000
0.412859 0.280719 0.000000
0.478747 0.279665 0.000000
0.543792 0.278624 0.000000
0.608021 0.277597 0.000000
0.671458 0.276582 0.000000
0.734121 0.275579 0.000000
0.796024 0.274588 0.000000
0.857181 0.273610 0.000000
0.917602 0.272643 0.000000
0.977297 0.271688 0.000000
1.000000 0.270744 0.000000
0.000000 0.353048 0.000000
0.064858 0.351864 0.000000
0.136137 0.350723 0.000000
0.205997 0.349606 0.000000
0.274713 0.348506 0.000000
0.342417 0.347423 0.000000
0.409187 0.346354 0.000000
0.475075 0.345300 0.000000
0.540120 0.344260 0.000000
0.604349 0.343232 0.000000
0.667786 0.342217 0.000000
0.730449 0.341214 0.000000
0.792352 0.340224 0.000000
0.853509 0.339245 0.000000
0.913930 0.338279 0.000000
0.973625 0.337323 0.000000
1.000000 0.336380 0.000000
0.000000 0.417736 0.000000
0.061239 0.416553 0.000000
0.132518 0.415412 0.000000
0.202378 0.414294 0.000000
0.271095 0.413195 0.000000
0.338798 0.412112 0.000000
0.405568 0.411043 0.000000
0.471457 0.409989 0.000000
0.536501 0.408948 0.000000
0.600731 0.407921 0.000000
0.664167 0.406906 0.000000
0.726830 0.405903 0.000000
0.788733 0.404913 0.000000
0.849890 0.403934 0.000000
0.910311 0.402967 0.000000
0.970007 0.402012 0.000000
1.000000 0.401068 0.000000
0.000000 0.481553 0.000000
0.057669 0.480369 0.000000
0.128948 0.479229 0.000000
0.198808 0.478111 0.000000
0.267525 0.477012 0.000000
0.335228 0.475928 0.000000
0.401998 0.474860 0.000000
0.467887 0.473806 0.000000
0.532931 0.472765 0.000000
0.597161 0.471738 0.000000
0.660597 0.470723 0.000000
0.723260 0.469720 0.000000
0.785163 0.468729 0.000000
0.846320 0.467751 0.000000
0.906741 0.466784 0.000000
0.966437 0.465829 0.000000
1.000000 0.464885 0.000000
0.000000 0.544552 0.000000
0.054145 0.543368 0.000000
0.125424 0.542228 0.000000
0.195284 0.541110 0.000000
0.264000 0.540011 0.000000
0.331704 0.538927 0.000000
0.398474 0.537859 0.000000
0.464362 0.536805 0.000000
0.529407 0.535764 0.000000
0.593636 0.534736 0.000000
0.657073 0.533721 0.000000
0.719736 0.532719 0.000000
0.781639 0.531728 0.000000
0.842796 0.530750 0.000000
0.903217 0.529783 0.000000
0.962912 0.528828 0.000000
1.000000 0.527884 0.000000
0.000000 0.606773 0.000000
0.050664 0.605590 0.000000
0.121943 0.604449 0.000000
0.191803 0.603331 0.000000
0.260520 0.602232 0.000000
0.328223 0.601149 0.000000
0.394993 0.600080 0.000000
0.460882 0.599026 0.000000
0.525926 0.597985 0.000000
0.590156 0.596958 0.000000
0.653592 0.595943 0.000000
0.716255 0.594940 0.000000
0.778158 0.593950 0.000000
0.839315 0.592971 0.000000
0.899736 0.592004 0.000000
0.959432 0.591049 0.000000
1.000000 0.590106 0.000000
0.000000 0.668249 0.000000
0.047225 0.667065 0.000000
0.118504 0.665925 0.000000
0.188364 0.664807 0.000000
0.257081 0.663707 0.000000
0.324784 0.662624 0.000000
0.391554 0.661556 0.000000
0.457442 0.660501 0.000000
0.522487 0.659461 0.000000
0.586716 0.658433 0.000000
0.650153 0.657418 0.000000
0.712816 0.656415 0.000000
0.774719 0.655425 0.000000
0.835876 0.654446 0.000000
0.896297 0.653480 0.000000
0.955992 0.652525 0.000000
1.000000 0.651581 0.000000
0.000000 0.729004 0.000000
0.043826 0.727820 0.000000
0.115105 0.726680 0.000000
0.184966 0.725562 0.000000
0.253682 0.724462 0.000000
0.321386 0.723379 0.000000
0.388156 0.722311 0.000000
0.454044 0.721257 0.000000
0.519088 0.720216 0.000000
0.583318 0.719188 0.000000
0.646755 0.718173 0.000000
0.709417 0.717171 0.000000
0.771321 0.716180 0.000000
0.832477 0.715202 0.000000
0.892899 0.714235 0.000000
0.952594 0.713280 0.000000
1.000000 0.712336 0.000000
0.000000 0.789060 0.000000
0.040467 0.787876 0.000000
0.111746 0.786736 0.000000
0.181606 0.785618 0.000000
0.250322 0.784519 0.000000
0.318026 0.783435 0.000000
0.384796 0.782367 0.000000
0.450684 0.781313 0.000000
0.515729 0.780272 0.000000
0.579958 0.779244 0.000000
0.643395 0.778229 0.000000
0.706058 0.777227 0.000000
0.767961 0.776236 0.000000
0.829118 0.775258 0.000000
0.889539 0.774291 0.000000
0.949234 0.773336 0.000000
1.000000 0.772392 0.000000
0.000000 0.848435 0.000000
0.037145 0.847251 0.000000
0.108424 0.846111 0.000000
0.178284 0.844993 0.000000
0.247001 0.843893 0.000000
0.314705 0.842810 0.000000
0.381474 0.841742 0.000000
0.447363 0.840688 0.000000
0.512407 0.839647 0.000000
0.576637 0.838619 0.000000
0.640074 0.837604 0.000000
0.702736 0.836602 0.000000
0.764639 0.835611 0.000000
0.825796 0.834633 0.000000
0.886218 0.833666 0.000000
0.945913 0.832711 0.000000
1.000000 0.831767 0.000000
0.000000 0.907144 0.000000
0.033861 0.905960 0.000000
0.105140 0.904819 0.000000
0.175000 0.903702 0.000000
0.243717 0.902602 0.000000
0.311420 0.901519 0.000000
0.378190 0.900451 0.000000
0.444078 0.899396 0.000000
0.509123 0.898356 0.000000
0.573352 0.897328 0.000000
0.636789 0.896313 0.000000
0.699452 0.895310 0.000000
0.761355 0.894320 0.000000
0.822512 0.893341 0.000000
0.882933 0.892375 0.000000
0.942628 0.891420 0.000000
1.000000 0.890476 0.000000
0.000000 0.965200 0.000000
0.030613 0.964016 0.000000
0.101892 0.962875 0.000000
0.171752 0.961757 0.000000
0.240469 0.960658 0.000000
0.308173 0.959575 0.000000
0.374942 0.958506 0.000000
0.440831 0.957452 0.000000
0.505875 0.956411 0.000000
0.570105 0.955384 0.000000
0.633542 0.954369 0.000000
0.696204 0.953366 0.000000
0.758107 0.952376 0.000000
0.819264 0.951397 0.000000
0.879686 0.950430 0.000000
0.939381 0.949475 0.000000
0.998358 0.948532 0.000000
0.000000 1.000000 0.000000
0.027401 1.000000 0.000000
0.098680 1.000000 0.000000
0.168541 1.000000 0.000000
0.237257 1.000000 0.000000
0.304961 1.000000 0.000000
0.371731 1.000000 0.000000
0.437619 1.000000 0.000000
0.502663 1.000000 0.000000
0.566893 1.000000 0.000000
0.630330 1.000000 0.000000
0.692992 1.000000 0.000000
0.754896 1.000000 0.000000
0.816052 1.000000 0.000000
0.876474 1.000000 0.000000
0.936169 1.000000 0.000000
0.995146 1.000000 0.000000
0.009683 0.009683 0.068956
0.083670 0.008499 0.067773
0.154949 0.007359 0.066632
0.224810 0.006241 0.065514
0.293526 0.005141 0.064415
0.361230 0.004058 0.063332
0.428000 0.002990 0.062263
0.493888 0.001936 0.061209
0.558932 0.000895 0.060168
0.623162 0.000000 0.059141
0.686599 0.000000 0.058126
0.749261 0.000000 0.057123
0.811165 0.000000 0.056133
0.872322 0.000000 0.055154
0.932743 0.000000 0.054187
0.992438 0.000000 0.053232
1.000000 0.000000 0.052289
0.005592 0.082813 0.064865
0.079579 0.081629 0.063682
0.150858 0.080488 0.062541
0.220719 0.079371 0.061423
0.289435 0.078271 0.060324
0.357139 0.077188 0.059241
0.423909 0.076120 0.058172
0.489797 0.075065 0.057118
0.554841 0.074025 0.056077
0.619071 0.072997 0.055050
0.682508 0.071982 0.054035
0.745170 0.070979 0.053032
0.807074 0.069989 0.052042
0.868231 0.069010 0.051063
0.928652 0.068044 0.050096
0.988347 0.067088 0.049141
1.000000 0.066145 0.048198
0.001699 0.152401 0.060973
0.075687 0.151217 0.059789
0.146965 0.150076 0.058648
0.216826 0.148959 0.057531
0.285542 0.147859 0.056431
0.353246 0.146776 0.055348
0.420016 0.145708 0.054279
0.485904 0.144653 0.053225
0.550949 0.143613 0.052185
0.615178 0.142585 0.051157
0.678615 0.141570 0.050142
0.741278 0.140567 0.049139
0.803181 0.139577 0.048149
0.864338 0.138598 0.047170
0.924759 0.137632 0.046204
0.984454 0.136676 0.045248
1.000000 0.135733 0.044305
0.000000 0.220343 0.057172
0.071886 0.219159 0.055988
0.143165 0.218019 0.054848
0.213025 0.216901 0.053730
0.281741 0.215802 0.052630
0.349445 0.214718 0.051547
0.416215 0.213650 0.050479
0.482103 0.212596 0.049424
0.547148 0.211555 0.048384
0.611377 0.210528 0.047356
0.674814 0.209513 0.046341
0.737477 0.208510 0.045338
0.799380 0.207519 0.044348
0.860537 0.206541 0.043369
0.920958 0.205574 0.042403
0.980653 0.204619 0.041448
1.000000 0.203675 0.040504
0.000000 0.287038 0.053441
0.068155 0.285854 0.052257
0.139434 0.284713 0.051117
0.209294 0.283595 0.049999
0.278010 0.282496 0.048899
0.345714 0.281413 0.047816
0.412484 0.280344 0.046748
0.478372 0.279290 0.045693
0.543417 0.278249 0.044653
0.607646 0.277222 0.043625
0.671083 0.276207 0.042610
0.733746 0.275204 0.041607
0.795649 0.274214 0.040617
0.856806 0.273235 0.039639
0.917227 0.272268 0.038672
0.976922 0.271313 0.037717
1.000000 0.270370 0.036773
0.000000 0.352673 0.049769
0.064483 0.351489 0.048585
0.135762 0.350349 0.047445
0.205622 0.349231 0.046327
0.274339 0.348131 0.045228
0.342042 0.347048 0.044144
0.408812 0.345980 0.043076
0.474701 0.344925 0.042022
0.539745 0.343885 0.040981
0.603975 0.342857 0.039953
0.667411 0.341842 0.038938
0.730074 0.340839 0.037936
0.791977 0.339849 0.036945
0.853134 0.338871 0.035967
0.913555 0.337904 0.035000
0.973251 0.336949 0.034045
1.000000 0.336005 0.033101
0.000000 0.417362 0.046150
0.060864 0.416178 0.044967
0.132143 0.415037 0.043826
0.202004 0.413919 0.042708
0.270720 0.412820 0.041609
0.338424 0.411737 0.040526
0.405193 0.410668 0.039457
0.471082 0.409614 0.038403
0.536126 0.408573 0.037362
0.600356 0.407546 0.036335
0.663793 0.406531 0.035320
0.726455 0.405528 0.034317
0.788359 0.404538 0.033327
0.849515 0.403559 0.032348
0.909937 0.402592 0.031381
0.969632 0.401637 0.030426
1.000000 0.400694 0.029482
0.000000 0.481178 0.042580
0.057294 0.479995 0.041396
0.128573 0.478854 0.040256
0.198434 0.477736 0.039138
0.267150 0.476637 0.038039
0.334854 0.475554 0.036956
0.401623 0.474485 0.035887
0.467512 0.473431 0.034833
0.532556 0.472390 0.033792
0.596786 0.471363 0.032765
0.660223 0.470348 0.031750
0.722885 0.469345 0.030747
0.784789 0.468355 0.029756
0.845945 0.467376 0.028778
0.906367 0.466409 0.027811
0.966062 0.465454 0.026856
1.000000 0.464511 0.025912
0.000000 0.544177 0.039056
0.053770 0.542994 0.037872
0.125049 0.541853 0.036732
0.194909 0.540735 0.035614
0.263626 0.539636 0.034515
0.331329 0.538553 0.033431
0.398099 0.537484 0.032363
0.463987 0.536430 0.031309
0.529032 0.535389 0.030268
0.593261 0.534362 0.029240
0.656698 0.533347 0.028225
0.719361 0.532344 0.027223
0.781264 0.531354 0.026232
0.842421 0.530375 0.025254
0.902842 0.529408 0.024287
0.962538 0.528453 0.023332
1.000000 0.527510 0.022388
0.000000 0.606399 0.035575
0.050289 0.605215 0.034392
0.121568 0.604074 0.033251
0.191429 0.602957 0.032133
0.260145 0.601857 0.031034
0.327849 0.600774 0.029951
0.394618 0.599705 0.028882
0.460507 0.598651 0.027828
0.525551 0.597611 0.026787
0.589781 0.596583 0.025760
0.653218 0.595568 0.024745
0.715880 0.594565 0.023742
0.777784 0.593575 0.022752
0.838940 0.592596 0.021773
0.899362 0.591630 0.020806
0.959057 0.590674 0.019851
1.000000 0.589731 0.018907
0.000000 0.667874 0.032136
0.046850 0.666690 0.030952
0.118129 0.665550 0.029812
0.187990 0.664432 0.028694
0.256706 0.663333 0.027595
0.324410 0.662249 0.026511
0.391179 0.661181 0.025443
0.457068 0.660127 0.024389
0.522112 0.659086 0.023348
0.586342 0.658058 0.022321
0.649779 0.657043 0.021306
0.712441 0.656041 0.020303
0.774345 0.655050 0.019312
0.835501 0.654072 0.018334
0.895923 0.653105 0.017367
0.955618 0.652150 0.016412
1.000000 0.651206 0.015468
0.000000 0.728629 0.028738
0.043451 0.727445 0.027554
0.114730 0.726305 0.026413
0.184591 0.725187 0.025296
0.253307 0.724088 0.024196
0.321011 0.723004 0.023113
0.387781 0.721936 0.022044
0.453669 0.720882 0.020990
0.518714 0.719841 0.019949
0.582943 0.718813 0.018922
0.646380 0.717798 0.017907
0.709042 0.716796 0.016904
0.770946 0.715805 0.015914
0.832103 0.714827 0.014935
0.892524 0.713860 0.013968
0.952219 0.712905 0.013013
1.000000 0.711961 0.012070
0.000000 0.788685 0.025378
0.040092 0.787502 0.024194
0.111371 0.786361 0.023054
0.181231 0.785243 0.021936
0.249948 0.784144 0.020836
0.317651 0.783061 0.019753
0.384421 0.781992 0.018685
0.450309 0.780938 0.017631
0.515354 0.779897 0.016590
0.579583 0.778870 0.015562
0.643020 0.777855 0.014547
0.705683 0.776852 0.013545
0.767586 0.775862 0.012554
0.828743 0.774883 0.011576
0.889164 0.773916 0.010609
0.948859 0.772961 0.009654
1.000000 0.772018 0.008710
0.000000 0.848060 0.022056
0.036770 0.846876 0.020873
0.108049 0.845736 0.019732
0.177910 0.844618 0.018614
0.246626 0.843519 0.017515
0.314330 0.842435 0.016432
0.381100 0.841367 0.015363
0.446988 0.840313 0.014309
0.512032 0.839272 0.013268
0.576262 0.838244 0.012241
0.639699 0.837229 0.011226
0.702361 0.836227 0.010223
0.764265 0.835236 0.009233
0.825422 0.834258 0.008254
0.885843 0.833291 0.007287
0.945538 0.832336 0.006332
1.000000 0.831392 0.005389
0.000000 0.906769 0.018772
0.033486 0.905585 0.017588
0.104765 0.904445 0.016448
0.174625 0.903327 0.015330
0.243342 0.902227 0.014231
0.311046 0.901144 0.013147
0.377815 0.900076 0.012079
0.443704 0.899022 0.011025
0.508748 0.897981 0.009984
0.572978 0.896953 0.008956
0.636415 0.895938 0.007941
0.699077 0.894936 0.006939
0.760980 0.893945 0.005948
0.822137 0.892967 0.004970
0.882559 0.892000 0.004003
0.942254 0.891045 0.003048
1.000000 0.890101 0.002104
0.000000 0.964825 0.015524
0.030238 0.963641 0.014341
0.101517 0.962500 0.013200
0.171378 0.961383 0.012082
0.240094 0.960283 0.010983
0.307798 0.959200 0.009900
0.374568 0.958132 0.008831
0.440456 0.957077 0.007777
0.505500 0.956037 0.006736
0.569730 0.955009 0.005709
0.633167 0.953994 0.004694
0.695829 0.952991 0.003691
0.757733 0.952001 0.002701
0.818890 0.951022 0.001722
0.879311 0.950056 0.000755
0.939006 0.949101 0.000000
0.997983 0.948157 0.000000
0.000000 1.000000 0.012313
0.027027 1.000000 0.011129
0.098305 1.000000 0.009988
0.168166 1.000000 0.008871
0.236882 1.000000 0.007771
0.304586 1.000000 0.006688
0.371356 1.000000 0.005619
0.437244 1.000000 0.004565
0.502289 1.000000 0.003525
0.566518 1.000000 0.002497
0.629955 1.000000 0.001482
0.692618 1.000000 0.000479
0.754521 1.000000 0.000000
0.815678 1.000000 0.000000
0.876099 1.000000 0.000000
0.935794 1.000000 0.000000
0.994771 1.000000 0.000000
0.009310 0.009310 0.138403
0.083297 0.008126 0.137220
0.154576 0.006985 0.136079
0.224436 0.005868 0.134961
0.293153 0.004768 0.133862
0.360856 0.003685 0.132779
0.427626 0.002616 0.131710
0.493514 0.001562 0.130656
0.558559 0.000522 0.129615
0.622788 0.000000 0.128588
0.686225 0.000000 0.127573
0.748888 0.000000 0.126570
0.810791 0.000000 0.125580
0.871948 0.000000 0.124601
0.932369 0.000000 0.123634
0.992064 0.000000 0.122679
1.000000 0.000000 0.121735
0.005219 0.082439 0.134312
0.079206 0.081255 0.133129
0.150485 0.080115 0.131988
0.220345 0.078997 0.130870
0.289062 0.077898 0.129771
0.356765 0.076814 0.128688
0.423535 0.075746 0.127619
0.489423 0.074692 0.126565
0.554468 0.073651 0.125524
0.618697 0.072624 0.124497
0.682134 0.071609 0.123482
0.744797 0.070606 0.122479
0.806700 0.069615 0.121489
0.867857 0.068637 0.120510
0.928278 0.067670 0.119543
0.987973 0.066715 0.118588
1.000000 0.065771 0.117645
0.001326 0.152027 0.130420
0.075313 0.150843 0.129236
0.146592 0.149703 0.128095
0.216452 0.148585 0.126977
0.285169 0.147486 0.125878
0.352873 0.146402 0.124795
0.419642 0.145334 0.123726
0.485531 0.144280 0.122672
0.550575 0.143239 0.121631
0.614805 0.142212 0.120604
0.678242 0.141197 0.119589
0.740904 0.140194 0.118586
0.802807 0.139203 0.117596
0.863964 0.138225 0.116617
0.924386 0.137258 0.115650
0.984081 0.136303 0.114695
1.000000 0.135359 0.113752
0.000000 0.219970 0.126619
0.071512 0.218786 0.125435
0.142791 0.217646 0.124294
0.212652 0.216528 0.123177
0.281368 0.215428 0.122077
0.349072 0.214345 0.120994
0.415842 0.213277 0.119926
0.481730 0.212223 0.118871
0.546774 0.211182 0.117831
0.611004 0.210154 0.116803
0.674441 0.209139 0.115788
0.737103 0.208137 0.114785
0.799007 0.207146 0.113795
0.860163 0.206168 0.112816
0.920585 0.205201 0.111850
0.980280 0.204246 0.110895
1.000000 0.203302 0.109951
0.000000 0.286664 0.122888
0.067781 0.285480 0.121704
0.139060 0.284340 0.120563
0.208921 0.283222 0.119446
0.277637 0.282123 0.118346
0.345341 0.281039 0.117263
0.412111 0.279971 0.116195
0.477999 0.278917 0.115140
0.543043 0.277876 0.114100
0.607273 0.276848 0.113072
0.670710 0.275833 0.112057
0.733372 0.274831 0.111054
0.795276 0.273840 0.110064
0.856433 0.272862 0.109085
0.916854 0.271895 0.108119
0.976549 0.270940 0.107164
1.000000 0.269996 0.106220
0.000000 0.352299 0.119216
0.064110 0.351116 0.118032
0.135389 0.349975 0.116892
0.205249 0.348857 0.115774
0.273965 0.347758 0.114674
0.341669 0.346675 0.113591
0.408439 0.345606 0.112523
0.474327 0.344552 0.111469
0.539372 0.343511 0.110428
0.603601 0.342484 0.109400
0.667038 0.341469 0.108385
0.729701 0.340466 0.107383
0.791604 0.339476 0.106392
0.852761 0.338497 0.105414
0.913182 0.337530 0.104447
0.972877 0.336575 0.103492
1.000000 0.335632 0.102548
0.000000 0.416988 0.115597
0.060491 0.415804 0.114413
0.131770 0.414664 0.113273
0.201630 0.413546 0.112155
0.270347 0.412447 0.111056
0.338050 0.411363 0.109972
0.404820 0.410295 0.108904
0.470708 0.409241 0.107850
0.535753 0.408200 0.106809
0.599982 0.407172 0.105781
0.663419 0.406157 0.104766
0.726082 0.405155 0.103764
0.787985 0.404164 0.102773
0.849142 0.403186 0.101795
0.909563 0.402219 0.100828
0.969258 0.401264 0.099873
1.000000 0.400320 0.098929
0.000000 0.480805 0.112027
0.056921 0.479621 0.110843
0.128200 0.478481 0.109703
0.198060 0.477363 0.108585
0.266776 0.476264 0.107486
0.334480 0.475180 0.106402
0.401250 0.474112 0.105334
0.467138 0.473058 0.104280
0.532183 0.472017 0.103239
0.596412 0.470989 0.102211
0.659849 0.469974 0.101196
0.722512 0.468972 0.100194
0.784415 0.467981 0.099203
0.845572 0.467003 0.098225
0.905993 0.466036 0.097258
0.965688 0.465081 0.096303
1.000000 0.464137 0.095359
0.000000 0.543804 0.108503
0.053397 0.542620 0.107319
0.124675 0.541480 0.106179
0.194536 0.540362 0.105061
0.263252 0.539262 0.103961
0.330956 0.538179 0.102878
0.397726 0.537111 0.101810
0.463614 0.536057 0.100756
0.528659 0.535016 0.099715
0.592888 0.533988 0.098687
0.656325 0.532973 0.097672
0.718988 0.531971 0.096670
0.780891 0.530980 0.095679
0.842048 0.530002 0.094701
0.902469 0.529035 0.093734
0.962164 0.528080 0.092779
1.000000 0.527136 0.091835
0.000000 0.606025 0.105022
0.049916 0.604841 0.103838
0.121195 0.603701 0.102698
0.191055 0.602583 0.101580
0.259772 0.601484 0.100481
0.327475 0.600400 0.099397
0.394245 0.599332 0.098329
0.460133 0.598278 0.097275
0.525178 0.597237 0.096234
0.589407 0.596209 0.095206
0.652844 0.595194 0.094191
0.715507 0.594192 0.093189
0.777410 0.593201 0.092198
0.838567 0.592223 0.091220
0.898988 0.591256 0.090253
0.958683 0.590301 0.089298
1.000000 0.589357 0.088354
0.000000 0.667501 0.101583
0.046477 0.666317 0.100399
0.117756 0.665176 0.099259
0.187616 0.664059 0.098141
0.256332 0.662959 0.097042
0.324036 0.661876 0.095958
0.390806 0.660808 0.094890
0.456694 0.659753 0.093836
0.521739 0.658713 0.092795
0.585968 0.657685 0.091767
0.649405 0.656670 0.090752
0.712068 0.655667 0.089750
0.773971 0.654677 0.088759
0.835128 0.653698 0.087781
0.895549 0.652732 0.086814
0.955244 0.651776 0.085859
1.000000 0.650833 0.084915
0.000000 0.728256 0.098184
0.043078 0.727072 0.097001
0.114357 0.725932 0.095860
0.184217 0.724814 0.094742
0.252934 0.723714 0.093643
0.320638 0.722631 0.092560
0.387407 0.721563 0.091491
0.453296 0.720508 0.090437
0.518340 0.719468 0.089396
0.582570 0.718440 0.088369
0.646006 0.717425 0.087354
0.708669 0.716422 0.086351
0.770572 0.715432 0.085361
0.831729 0.714454 0.084382
0.892150 0.713487 0.083415
0.951846 0.712532 0.082460
1.000000 0.711588 0.081517
0.000000 0.788312 0.094825
0.039718 0.787128 0.093641
0.110997 0.785988 0.092501
0.180858 0.784870 0.091383
0.249574 0.783770 0.090283
0.317278 0.782687 0.089200
0.384048 0.781619 0.088132
0.449936 0.780565 0.087077
0.514980 0.779524 0.086037
0.579210 0.778496 0.085009
0.642647 0.777481 0.083994
0.705309 0.776479 0.082991
0.767213 0.775488 0.082001
0.828370 0.774510 0.081023
0.888791 0.773543 0.080056
0.948486 0.772588 0.079101
1.000000 0.771644 0.078157
0.000000 0.847687 0.091503
0.036397 0.846503 0.090320
0.107676 0.845363 0.089179
0.177536 0.844245 0.088061
0.246253 0.843145 0.086962
0.313956 0.842062 0.085879
0.380726 0.840994 0.084810
0.446614 0.839939 0.083756
0.511659 0.838899 0.082715
0.575888 0.837871 0.081688
0.639325 0.836856 0.080673
0.701988 0.835853 0.079670
0.763891 0.834863 0.078680
0.825048 0.833884 0.077701
0.885469 0.832918 0.076734
0.945164 0.831963 0.075779
1.000000 0.831019 0.074835
0.000000 0.906396 0.088219
0.033113 0.905212 0.087035
0.104392 0.904071 0.085895
0.174252 0.902953 0.084777
0.242968 0.901854 0.083678
0.310672 0.900771 0.082594
0.377442 0.899702 0.081526
0.443330 0.898648 0.080472
0.508375 0.897607 0.079431
0.572604 0.896580 0.078403
0.636041 0.895565 0.077388
0.698704 0.894562 0.076386
0.760607 0.893572 0.075395
0.821764 0.892593 0.074417
0.882185 0.891626 0.073450
0.941880 0.890671 0.072495
1.000000 0.889728 0.071551
0.000000 0.964451 0.084971
0.029865 0.963268 0.083788
0.101144 0.962127 0.082647
0.171004 0.961009 0.081529
0.239721 0.959910 0.080430
0.307424 0.958827 0.079347
0.374194 0.957758 0.078278
0.440082 0.956704 0.077224
0.505127 0.955663 0.076183
0.569356 0.954636 0.075156
0.632793 0.953621 0.074141
0.695456 0.952618 0.073138
0.757359 0.951628 0.072148
0.818516 0.950649 0.071169
0.878937 0.949682 0.070202
0.938632 0.948727 0.069247
0.997610 0.947784 0.068304
0.000000 1.000000 0.081759
0.026653 1.000000 0.080576
0.097932 1.000000 0.079435
0.167792 1.000000 0.078317
0.236509 1.000000 0.077218
0.304213 1.000000 0.076135
0.370982 1.000000 0.075066
0.436871 1.000000 0.074012
0.501915 1.000000 0.072971
0.566145 1.000000 0.071944
0.629582 1.000000 0.070929
0.692244 1.000000 0.069926
0.754147 1.000000 0.068936
0.815304 1.000000 0.067957
0.875726 1.000000 0.066990
0.935421 1.000000 0.066035
0.994398 1.000000 0.065092
0.008938 0.008938 0.207598
0.082925 0.007754 0.206415
0.154204 0.006613 0.205274
0.224064 0.005495 0.204156
0.292781 0.004396 0.203057
0.360484 0.003313 0.201974
0.427254 0.002244 0.200905
0.493142 0.001190 0.199851
0.558187 0.000149 0.198810
0.622416 0.000000 0.197783
0.685853 0.000000 0.196768
0.748516 0.000000 0.195765
0.810419 0.000000 0.194775
0.871576 0.000000 0.193796
0.931997 0.000000 0.192829
0.991692 0.000000 0.191874
1.000000 0.000000 0.190931
0.004847 0.082067 0.203507
