luts/film_stocks/kodak_vision3_500t.cube
TITLE "Kodak Vision3 500T"
LUT_3D_SIZE 5
DOMAIN_MIN 0.0 0.0 0.0
DOMAIN_MAX 1.0 1.0 1.0
0.109428 0.028574 0.003390
0.346257 0.037607 0.007688
0.569113 0.046108 0.011732
0.782891 0.054262 0.015612
0.919879 0.059488 0.018098
0.123794 0.271794 0.017614
0.360623 0.280828 0.021912
0.583480 0.289328 0.025956
0.797257 0.297483 0.029836
0.934245 0.302708 0.032322
0.138015 0.512568 0.031695
0.374845 0.521602 0.035993
0.597701 0.530103 0.040037
0.811478 0.538257 0.043917
0.948467 0.543483 0.046403
0.152093 0.750897 0.045632
0.388922 0.759931 0.049930
0.611778 0.768431 0.053975
0.825556 0.776586 0.057854
0.962544 0.781811 0.060341
0.165193 0.972696 0.058604
0.402023 0.981729 0.062902
0.624879 0.990230 0.066946
0.838656 0.998385 0.070826
0.975645 1.000000 0.073312
0.111778 0.029495 0.148150
0.348608 0.038529 0.152448
0.571464 0.047029 0.156492
0.785241 0.055184 0.160372
0.922230 0.060409 0.162858
0.126144 0.272715 0.162374
0.362974 0.281749 0.166672
0.585830 0.290250 0.170716
0.799607 0.298404 0.174596
0.936596 0.303629 0.177082
0.140366 0.513490 0.176455
0.377196 0.522523 0.180753
0.600052 0.531024 0.184797
0.813829 0.539179 0.188677
0.950818 0.544404 0.191163
0.154443 0.751818 0.190392
0.391273 0.760852 0.194690
0.614129 0.769353 0.198735
0.827906 0.777507 0.202614
0.964895 0.782732 0.205101
0.167544 0.973617 0.203363
0.404374 0.982651 0.207661
0.627230 0.991151 0.211706
0.841007 0.999306 0.215586
0.977996 1.000000 0.218072
0.115551 0.030973 0.380483
0.352381 0.040007 0.384781
0.575237 0.048508 0.388825
0.789014 0.056662 0.392705
0.926003 0.061888 0.395191
0.129917 0.274194 0.394707
0.366747 0.283227 0.399005
0.589603 0.291728 0.403049
0.803380 0.299883 0.406929
0.940369 0.305108 0.409415
0.144139 0.514968 0.408788
0.380968 0.524002 0.413086
0.603825 0.532503 0.417130
0.817602 0.540657 0.421010
0.954590 0.545882 0.423496
0.158216 0.753297 0.422726
0.395046 0.762330 0.427024
0.617902 0.770831 0.431068
0.831679 0.778986 0.434948
0.968668 0.784211 0.437434
0.171317 0.975095 0.435697
0.408146 0.984129 0.439995
0.631003 0.992630 0.444039
0.844780 1.000000 0.447919
0.981768 1.000000 0.450405
0.119436 0.032496 0.619714
0.356266 0.041530 0.624012
0.579122 0.050030 0.628057
0.792899 0.058185 0.631936
0.929888 0.063410 0.634422
0.133802 0.275716 0.633938
0.370632 0.284750 0.638236
0.593488 0.293251 0.642280
0.807265 0.301405 0.646160
0.944254 0.306630 0.648646
0.148024 0.516491 0.648019
0.384853 0.525524 0.652317
0.607710 0.534025 0.656361
0.821487 0.542180 0.660241
0.958475 0.547405 0.662727
0.162101 0.754819 0.661957
0.398931 0.763853 0.666255
0.621787 0.772354 0.670299
0.835564 0.780508 0.674179
0.972553 0.785733 0.676665
0.175202 0.976618 0.674928
0.412031 0.985652 0.679226
0.634888 0.994152 0.683270
0.848665 1.000000 0.687150
0.985653 1.000000 0.689636
0.123406 0.034052 0.864179
0.360235 0.043085 0.868477
0.583092 0.051586 0.872521
0.796869 0.059740 0.876401
0.933857 0.064966 0.878887
0.137772 0.277272 0.878403
0.374602 0.286306 0.882701
0.597458 0.294806 0.886745
0.811235 0.302961 0.890625
0.948224 0.308186 0.893111
0.151994 0.518046 0.892483
0.388823 0.527080 0.896781
0.611680 0.535581 0.900826
0.825457 0.543735 0.904706
0.962445 0.548961 0.907192
0.166071 0.756375 0.906421
0.402900 0.765409 0.910719
0.625757 0.773909 0.914764
0.839534 0.782064 0.918643
0.976522 0.787289 0.921129
0.179172 0.978174 0.919392
0.416001 0.987207 0.923690
0.638858 0.995708 0.927735
0.852635 1.000000 0.931614
0.989623 1.000000 0.934101
