luts/film_stocks/kodak_vision3_500t.cube
TITLE "Kodak Vision3 500T"
LUT_3D_SIZE 9
DOMAIN_MIN 0.0 0.0 0.0
DOMAIN_MAX 1.0 1.0 1.0
0.109428 0.028574 0.003390
0.230261 0.033183 0.005583
0.346257 0.037607 0.007688
0.458988 0.041907 0.009734
0.569113 0.046108 0.011732
0.677002 0.050223 0.013690
0.782891 0.054262 0.015612
0.886947 0.058232 0.017500
0.919879 0.059488 0.018098
0.116629 0.150489 0.010520
0.237462 0.155099 0.012713
0.353458 0.159523 0.014818
0.466189 0.163823 0.016864
0.576315 0.168024 0.018862
0.684203 0.172139 0.020820
0.790092 0.176178 0.022742
0.894148 0.180148 0.024630
0.927080 0.181404 0.025228
0.123794 0.271794 0.017614
0.244627 0.276403 0.019807
0.360623 0.280828 0.021912
0.473354 0.285128 0.023958
0.583480 0.289328 0.025956
0.691368 0.293444 0.027914
0.797257 0.297483 0.029836
0.901313 0.301452 0.031724
0.934245 0.302708 0.032322
0.130923 0.392487 0.024672
0.251756 0.397096 0.026865
0.367752 0.401521 0.028970
0.480483 0.405821 0.031016
0.590608 0.410021 0.033014
0.698497 0.414137 0.034972
0.804386 0.418176 0.036894
0.908442 0.422145 0.038783
0.941374 0.423401 0.039380
0.138015 0.512568 0.031695
0.258848 0.517178 0.033887
0.374845 0.521602 0.035993
0.487576 0.525902 0.038038
0.597701 0.530103 0.040037
0.705589 0.534218 0.041995
0.811478 0.538257 0.043917
0.915535 0.542226 0.045805
0.948467 0.543483 0.046403
0.145072 0.632038 0.038681
0.265905 0.636648 0.040874
0.381901 0.641072 0.042979
0.494633 0.645372 0.045025
0.604758 0.649573 0.047024
0.712646 0.653688 0.048982
0.818535 0.657727 0.050903
0.922591 0.661696 0.052792
0.955523 0.662953 0.053390
0.152093 0.750897 0.045632
0.272926 0.755506 0.047825
0.388922 0.759931 0.049930
0.501653 0.764231 0.051976
0.611778 0.768431 0.053975
0.719667 0.772547 0.055933
0.825556 0.776586 0.057854
0.929612 0.780555 0.059743
0.962544 0.781811 0.060341
0.159077 0.869144 0.052548
0.279910 0.873753 0.054741
0.395906 0.878178 0.056846
0.508638 0.882478 0.058892
0.618763 0.886679 0.060890
0.726651 0.890794 0.062848
0.832540 0.894833 0.064770
0.936596 0.898802 0.066658
0.969528 0.900058 0.067256
0.165193 0.972696 0.058604
0.286026 0.977305 0.060796
0.402023 0.981729 0.062902
0.514754 0.986029 0.064947
0.624879 0.990230 0.066946
0.732767 0.994345 0.068904
0.838656 0.998385 0.070826
0.942713 1.000000 0.072714
0.975645 1.000000 0.073312
0.109963 0.028783 0.036363
0.230796 0.033393 0.038556
0.346792 0.037817 0.040661
0.459524 0.042117 0.042707
0.569649 0.046318 0.044706
0.677537 0.050433 0.046664
0.783426 0.054472 0.048585
0.887482 0.058441 0.050474
0.920414 0.059698 0.051071
0.117164 0.150699 0.043493
0.237997 0.155308 0.045686
0.353994 0.159733 0.047791
0.466725 0.164033 0.049837
0.576850 0.168234 0.051836
0.684738 0.172349 0.053794
0.790627 0.176388 0.055715
0.894683 0.180357 0.057604
0.927616 0.181614 0.058201
0.124329 0.272004 0.050587
0.245162 0.276613 0.052780
0.361159 0.281038 0.054885
0.473890 0.285338 0.056931
0.584015 0.289538 0.058930
0.691903 0.293654 0.060888
0.797792 0.297693 0.062809
0.901848 0.301662 0.064698
0.934781 0.302918 0.065295
0.131458 0.392697 0.057645
0.252291 0.397306 0.059838
0.368287 0.401730 0.061943
0.481019 0.406031 0.063989
0.591144 0.410231 0.065988
0.699032 0.414347 0.067946
0.804921 0.418386 0.069868
0.908977 0.422355 0.071756
0.941909 0.423611 0.072354
0.138551 0.512778 0.064668
0.259384 0.517387 0.066861
0.375380 0.521812 0.068966
0.488112 0.526112 0.071012
0.598237 0.530313 0.073010
0.706125 0.534428 0.074968
0.812014 0.538467 0.076890
0.916070 0.542436 0.078779
0.949002 0.543692 0.079376
0.145607 0.632248 0.071655
0.266440 0.636857 0.073848
0.382437 0.641282 0.075953
0.495168 0.645582 0.077999
0.605293 0.649783 0.079997
0.713182 0.653898 0.081955
0.819070 0.657937 0.083877
0.923127 0.661906 0.085765
0.956059 0.663163 0.086363
0.152628 0.751107 0.078606
0.273461 0.755716 0.080799
0.389457 0.760141 0.082904
0.502189 0.764441 0.084950
0.612314 0.768641 0.086948
0.720202 0.772757 0.088906
0.826091 0.776796 0.090828
0.930147 0.780765 0.092716
0.963079 0.782021 0.093314
0.159612 0.869354 0.085521
0.280445 0.873963 0.087714
0.396442 0.878388 0.089819
0.509173 0.882688 0.091865
0.619298 0.886888 0.093864
0.727186 0.891004 0.095822
0.833075 0.895043 0.097743
0.937132 0.899012 0.099632
0.970064 0.900268 0.100229
0.165729 0.972906 0.091577
0.286562 0.977515 0.093770
0.402558 0.981939 0.095875
0.515290 0.986239 0.097921
0.625415 0.990440 0.099919
0.733303 0.994555 0.101877
0.839192 0.998594 0.103799
0.943248 1.000000 0.105687
0.976180 1.000000 0.106285
0.111778 0.029495 0.148150
0.232611 0.034104 0.150343
0.348608 0.038529 0.152448
0.461339 0.042829 0.154494
0.571464 0.047029 0.156492
0.679352 0.051145 0.158450
0.785241 0.055184 0.160372
0.889298 0.059153 0.162260
0.922230 0.060409 0.162858
0.118979 0.151411 0.155280
0.239812 0.156020 0.157472
0.355809 0.160444 0.159578
0.468540 0.164745 0.161623
0.578665 0.168945 0.163622
0.686553 0.173061 0.165580
0.792442 0.177100 0.167502
0.896499 0.181069 0.169390
0.929431 0.182325 0.169988
0.126144 0.272715 0.162374
0.246977 0.277324 0.164567
0.362974 0.281749 0.166672
0.475705 0.286049 0.168718
0.585830 0.290250 0.170716
0.693719 0.294365 0.172674
0.799607 0.298404 0.174596
0.903664 0.302373 0.176484
0.936596 0.303629 0.177082
0.133273 0.393408 0.169432
0.254106 0.398017 0.171625
0.370103 0.402442 0.173730
0.482834 0.406742 0.175776
0.592959 0.410943 0.177774
0.700847 0.415058 0.179732
0.806736 0.419097 0.181654
0.910793 0.423066 0.183542
0.943725 0.424322 0.184140
0.140366 0.513490 0.176455
0.261199 0.518099 0.178647
0.377196 0.522523 0.180753
0.489927 0.526823 0.182798
0.600052 0.531024 0.184797
0.707940 0.535139 0.186755
0.813829 0.539179 0.188677
0.917885 0.543148 0.190565
0.950818 0.544404 0.191163
0.147423 0.632960 0.183441
0.268256 0.637569 0.185634
0.384252 0.641993 0.187739
0.496984 0.646293 0.189785
0.607109 0.650494 0.191784
0.714997 0.654609 0.193742
0.820886 0.658649 0.195663
0.924942 0.662618 0.197552
0.957874 0.663874 0.198149
0.154443 0.751818 0.190392
0.275276 0.756427 0.192585
0.391273 0.760852 0.194690
0.504004 0.765152 0.196736
0.614129 0.769353 0.198735
0.722017 0.773468 0.200693
0.827906 0.777507 0.202614
0.931963 0.781476 0.204503
0.964895 0.782732 0.205101
0.161428 0.870065 0.197308
0.282261 0.874674 0.199501
0.398257 0.879099 0.201606
0.510988 0.883399 0.203651
0.621114 0.887600 0.205650
0.729002 0.891715 0.207608
0.834891 0.895754 0.209530
0.938947 0.899723 0.211418
0.971879 0.900980 0.212016
0.167544 0.973617 0.203363
0.288377 0.978226 0.205556
0.404374 0.982651 0.207661
0.517105 0.986951 0.209707
0.627230 0.991151 0.211706
0.735118 0.995267 0.213664
0.841007 0.999306 0.215586
0.945063 1.000000 0.217474
0.977996 1.000000 0.218072
0.113648 0.030227 0.263260
0.234481 0.034836 0.265453
0.350477 0.039261 0.267558
0.463208 0.043561 0.269604
0.573333 0.047762 0.271603
0.681222 0.051877 0.273561
0.787111 0.055916 0.275482
0.891167 0.059885 0.277371
0.924099 0.061142 0.277968
0.120849 0.152143 0.270390
0.241682 0.156752 0.272583
0.357678 0.161177 0.274688
0.470409 0.165477 0.276734
0.580535 0.169678 0.278732
0.688423 0.173793 0.280690
0.794312 0.177832 0.282612
0.898368 0.181801 0.284500
0.931300 0.183058 0.285098
0.128014 0.273448 0.277484
0.248847 0.278057 0.279677
0.364843 0.282481 0.281782
0.477574 0.286782 0.283828
0.587700 0.290982 0.285826
0.695588 0.295098 0.287784
0.801477 0.299137 0.289706
0.905533 0.303106 0.291595
0.938465 0.304362 0.292192
0.135143 0.394141 0.284542
0.255976 0.398750 0.286735
0.371972 0.403174 0.288840
0.484703 0.407475 0.290886
0.594829 0.411675 0.292885
0.702717 0.415791 0.294843
0.808606 0.419830 0.296764
0.912662 0.423799 0.298653
0.945594 0.425055 0.299250
0.142235 0.514222 0.291565
0.263068 0.518831 0.293758
0.379065 0.523256 0.295863
0.491796 0.527556 0.297909
0.601921 0.531757 0.299907
0.709809 0.535872 0.301865
0.815698 0.539911 0.303787
0.919755 0.543880 0.305675
0.952687 0.545136 0.306273
0.149292 0.633692 0.298552
0.270125 0.638301 0.300745
0.386122 0.642726 0.302850
0.498853 0.647026 0.304896
0.608978 0.651227 0.306894
0.716866 0.655342 0.308852
0.822755 0.659381 0.310774
0.926811 0.663350 0.312662
0.959743 0.664606 0.313260
0.156313 0.752551 0.305503
0.277146 0.757160 0.307696
0.393142 0.761585 0.309801
0.505873 0.765885 0.311847
0.615998 0.770085 0.313845
0.723887 0.774201 0.315803
0.829776 0.778240 0.317725
0.933832 0.782209 0.319613
0.966764 0.783465 0.320211
0.163297 0.870798 0.312418
0.284130 0.875407 0.314611
0.400126 0.879832 0.316716
0.512858 0.884132 0.318762
0.622983 0.888332 0.320760
0.730871 0.892448 0.322718
0.836760 0.896487 0.324640
0.940816 0.900456 0.326528
0.973748 0.901712 0.327126
0.169413 0.974349 0.318474
0.290246 0.978959 0.320667
0.406243 0.983383 0.322772
0.518974 0.987683 0.324818
0.629099 0.991884 0.326816
0.736987 0.995999 0.328774
0.842876 1.000000 0.330696
0.946933 1.000000 0.332584
0.979865 1.000000 0.333182
0.115551 0.030973 0.380483
0.236384 0.035582 0.382676
0.352381 0.040007 0.384781
0.465112 0.044307 0.386827
0.575237 0.048508 0.388825
0.683125 0.052623 0.390783
0.789014 0.056662 0.392705
0.893071 0.060631 0.394594
0.926003 0.061888 0.395191
0.122752 0.152889 0.387613
0.243585 0.157498 0.389806
0.359582 0.161923 0.391911
0.472313 0.166223 0.393957
0.582438 0.170424 0.395955
0.690326 0.174539 0.397913
0.796215 0.178578 0.399835
0.900272 0.182547 0.401723
0.933204 0.183804 0.402321
0.129917 0.274194 0.394707
0.250750 0.278803 0.396900
0.366747 0.283227 0.399005
0.479478 0.287528 0.401051
0.589603 0.291728 0.403049
0.697491 0.295844 0.405007
0.803380 0.299883 0.406929
0.907437 0.303852 0.408817
0.940369 0.305108 0.409415
0.137046 0.394887 0.401765
0.257879 0.399496 0.403958
0.373876 0.403920 0.406063
0.486607 0.408220 0.408109
0.596732 0.412421 0.410108
0.704620 0.416536 0.412066
0.810509 0.420576 0.413987
0.914566 0.424545 0.415876
0.947498 0.425801 0.416473
0.144139 0.514968 0.408788
0.264972 0.519577 0.410981
0.380968 0.524002 0.413086
0.493700 0.528302 0.415132
0.603825 0.532503 0.417130
0.711713 0.536618 0.419088
0.817602 0.540657 0.421010
0.921658 0.544626 0.422898
0.954590 0.545882 0.423496
0.151196 0.634438 0.415775
0.272029 0.639047 0.417967
0.388025 0.643472 0.420073
0.500756 0.647772 0.422118
0.610882 0.651973 0.424117
0.718770 0.656088 0.426075
0.824659 0.660127 0.427997
0.928715 0.664096 0.429885
0.961647 0.665352 0.430483
0.158216 0.753297 0.422726
0.279049 0.757906 0.424919
0.395046 0.762330 0.427024
0.507777 0.766631 0.429069
0.617902 0.770831 0.431068
0.725790 0.774947 0.433026
0.831679 0.778986 0.434948
0.935736 0.782955 0.436836
0.968668 0.784211 0.437434
0.165201 0.871544 0.429641
0.286034 0.876153 0.431834
0.402030 0.880578 0.433939
0.514761 0.884878 0.435985
0.624887 0.889078 0.437983
0.732775 0.893194 0.439941
0.838664 0.897233 0.441863
0.942720 0.901202 0.443751
0.975652 0.902458 0.444349
0.171317 0.975095 0.435697
0.292150 0.979705 0.437890
0.408146 0.984129 0.439995
0.520878 0.988429 0.442041
0.631003 0.992630 0.444039
0.738891 0.996745 0.445997
0.844780 1.000000 0.447919
0.948836 1.000000 0.449807
0.981768 1.000000 0.450405
0.117482 0.031730 0.499378
0.238315 0.036339 0.501571
0.354311 0.040764 0.503676
0.467043 0.045064 0.505722
0.577168 0.049264 0.507721
0.685056 0.053380 0.509679
0.790945 0.057419 0.511600
0.895001 0.061388 0.513489
0.927933 0.062644 0.514087
0.124683 0.153646 0.506508
0.245516 0.158255 0.508701
0.361513 0.162680 0.510806
0.474244 0.166980 0.512852
0.584369 0.171180 0.514851
0.692257 0.175296 0.516809
0.798146 0.179335 0.518730
0.902202 0.183304 0.520619
0.935134 0.184560 0.521216
0.131848 0.274950 0.513602
0.252681 0.279559 0.515795
0.368678 0.283984 0.517900
0.481409 0.288284 0.519946
0.591534 0.292485 0.521945
0.699422 0.296600 0.523903
0.805311 0.300639 0.525824
0.909367 0.304608 0.527713
0.942300 0.305865 0.528310
0.138977 0.395643 0.520661
0.259810 0.400252 0.522853
0.375806 0.404677 0.524959
0.488538 0.408977 0.527004
0.598663 0.413178 0.529003
0.706551 0.417293 0.530961
0.812440 0.421332 0.532883
0.916496 0.425301 0.534771
0.949428 0.426558 0.535369
0.146070 0.515725 0.527683
0.266903 0.520334 0.529876
0.382899 0.524759 0.531981
0.495630 0.529059 0.534027
0.605756 0.533259 0.536026
0.713644 0.537375 0.537984
0.819533 0.541414 0.539905
0.923589 0.545383 0.541794
0.956521 0.546639 0.542391
0.153126 0.635195 0.534670
0.273959 0.639804 0.536863
0.389956 0.644229 0.538968
0.502687 0.648529 0.541014
0.612812 0.652729 0.543012
0.720700 0.656845 0.544970
0.826589 0.660884 0.546892
0.930646 0.664853 0.548780
0.963578 0.666109 0.549378
0.160147 0.754053 0.541621
0.280980 0.758663 0.543814
0.396976 0.763087 0.545919
0.509708 0.767387 0.547965
0.619833 0.771588 0.549963
0.727721 0.775703 0.551921
0.833610 0.779742 0.553843
0.937666 0.783711 0.555731
0.970598 0.784968 0.556329
0.167131 0.872300 0.548536
0.287964 0.876910 0.550729
0.403961 0.881334 0.552834
0.516692 0.885634 0.554880
0.626817 0.889835 0.556879
0.734705 0.893950 0.558837
0.840594 0.897989 0.560758
0.944651 0.901959 0.562647
0.977583 0.903215 0.563244
0.173248 0.975852 0.554592
0.294081 0.980461 0.556785
0.410077 0.984886 0.558890
0.522809 0.989186 0.560936
0.632934 0.993387 0.562935
0.740822 0.997502 0.564892
0.846711 1.000000 0.566814
0.950767 1.000000 0.568703
0.983699 1.000000 0.569300
0.119436 0.032496 0.619714
0.240269 0.037105 0.621907
0.356266 0.041530 0.624012
0.468997 0.045830 0.626058
0.579122 0.050030 0.628057
0.687010 0.054146 0.630015
0.792899 0.058185 0.631936
0.896955 0.062154 0.633825
0.929888 0.063410 0.634422
0.126637 0.154412 0.626844
0.247470 0.159021 0.629037
0.363467 0.163445 0.631142
0.476198 0.167746 0.633188
0.586323 0.171946 0.635186
0.694211 0.176062 0.637144
0.800100 0.180101 0.639066
0.904157 0.184070 0.640954
0.937089 0.185326 0.641552
0.133802 0.275716 0.633938
0.254635 0.280325 0.636131
0.370632 0.284750 0.638236
0.483363 0.289050 0.640282
0.593488 0.293251 0.642280
0.701376 0.297366 0.644238
0.807265 0.301405 0.646160
0.911322 0.305374 0.648049
0.944254 0.306630 0.648646
0.140931 0.396409 0.640996
0.261764 0.401018 0.643189
0.377761 0.405443 0.645294
0.490492 0.409743 0.647340
0.600617 0.413944 0.649339
0.708505 0.418059 0.651297
0.814394 0.422098 0.653218
0.918450 0.426067 0.655107
0.951383 0.427323 0.655704
0.148024 0.516491 0.648019
0.268857 0.521100 0.650212
0.384853 0.525524 0.652317
0.497585 0.529824 0.654363
0.607710 0.534025 0.656361
0.715598 0.538140 0.658319
0.821487 0.542180 0.660241
0.925543 0.546149 0.662129
0.958475 0.547405 0.662727
0.155081 0.635961 0.655006
0.275914 0.640570 0.657199
0.391910 0.644994 0.659304
0.504641 0.649294 0.661350
0.614766 0.653495 0.663348
0.722655 0.657610 0.665306
0.828544 0.661650 0.667228
0.932600 0.665619 0.669116
0.965532 0.666875 0.669714
0.162101 0.754819 0.661957
0.282934 0.759428 0.664150
0.398931 0.763853 0.666255
0.511662 0.768153 0.668301
0.621787 0.772354 0.670299
0.729675 0.776469 0.672257
0.835564 0.780508 0.674179
0.939620 0.784477 0.676067
0.972553 0.785733 0.676665
0.169086 0.873066 0.668872
0.289919 0.877675 0.671065
0.405915 0.882100 0.673170
0.518646 0.886400 0.675216
0.628771 0.890601 0.677214
0.736660 0.894716 0.679172
0.842548 0.898755 0.681094
0.946605 0.902724 0.682982
0.979537 0.903981 0.683580
0.175202 0.976618 0.674928
0.296035 0.981227 0.677121
0.412031 0.985652 0.679226
0.524763 0.989952 0.681272
0.634888 0.994152 0.683270
0.742776 0.998268 0.685228
0.848665 1.000000 0.687150
0.952721 1.000000 0.689038
0.985653 1.000000 0.689636
0.121411 0.033270 0.741347
0.242244 0.037879 0.743540
0.358241 0.042304 0.745645
0.470972 0.046604 0.747691
0.581097 0.050804 0.749689
0.688985 0.054920 0.751647
0.794874 0.058959 0.753569
0.898931 0.062928 0.755457
0.931863 0.064184 0.756055
0.128612 0.155186 0.748477
0.249445 0.159795 0.750669
0.365442 0.164219 0.752775
0.478173 0.168520 0.754820
0.588298 0.172720 0.756819
0.696186 0.176836 0.758777
0.802075 0.180875 0.760699
0.906132 0.184844 0.762587
0.939064 0.186100 0.763185
0.135777 0.276490 0.755571
0.256610 0.281099 0.757763
0.372607 0.285524 0.759869
0.485338 0.289824 0.761914
0.595463 0.294025 0.763913
0.703351 0.298140 0.765871
0.809240 0.302179 0.767793
0.913297 0.306148 0.769681
0.946229 0.307404 0.770279
0.142906 0.397183 0.762629
0.263739 0.401792 0.764822
0.379736 0.406217 0.766927
0.492467 0.410517 0.768973
0.602592 0.414718 0.770971
0.710480 0.418833 0.772929
0.816369 0.422872 0.774851
0.920426 0.426841 0.776739
0.953358 0.428097 0.777337
0.149999 0.517265 0.769651
0.270832 0.521874 0.771844
0.386829 0.526298 0.773949
0.499560 0.530598 0.775995
0.609685 0.534799 0.777994
0.717573 0.538914 0.779952
0.823462 0.542954 0.781874
0.927518 0.546923 0.783762
0.960451 0.548179 0.784360
0.157056 0.636735 0.776638
0.277889 0.641344 0.778831
0.393885 0.645768 0.780936
0.506616 0.650069 0.782982
0.616742 0.654269 0.784981
0.724630 0.658385 0.786939
0.830519 0.662424 0.788860
0.934575 0.666393 0.790749
0.967507 0.667649 0.791346
0.164076 0.755593 0.783589
0.284909 0.760202 0.785782
0.400906 0.764627 0.787887
0.513637 0.768927 0.789933
0.623762 0.773128 0.791932
0.731650 0.777243 0.793890
0.837539 0.781282 0.795811
0.941596 0.785251 0.797700
0.974528 0.786507 0.798297
0.171061 0.873840 0.790505
0.291894 0.878449 0.792697
0.407890 0.882874 0.794803
0.520621 0.887174 0.796848
0.630747 0.891375 0.798847
0.738635 0.895490 0.800805
0.844524 0.899529 0.802727
0.948580 0.903498 0.804615
0.981512 0.904755 0.805213
0.177177 0.977392 0.796560
0.298010 0.982001 0.798753
0.414007 0.986426 0.800858
0.526738 0.990726 0.802904
0.636863 0.994926 0.804903
0.744751 0.999042 0.806861
0.850640 1.000000 0.808782
0.954696 1.000000 0.810671
0.987629 1.000000 0.811269
0.123406 0.034052 0.864179
0.244239 0.038661 0.866372
0.360235 0.043085 0.868477
0.472967 0.047385 0.870523
0.583092 0.051586 0.872521
0.690980 0.055701 0.874479
0.796869 0.059740 0.876401
0.900925 0.063710 0.878289
0.933857 0.064966 0.878887
0.130607 0.155967 0.871309
0.251440 0.160577 0.873501
0.367437 0.165001 0.875607
0.480168 0.169301 0.877652
0.590293 0.173502 0.879651
0.698181 0.177617 0.881609
0.804070 0.181656 0.883531
0.908126 0.185626 0.885419
0.941059 0.186882 0.886017
0.137772 0.277272 0.878403
0.258605 0.281881 0.880595
0.374602 0.286306 0.882701
0.487333 0.290606 0.884746
0.597458 0.294806 0.886745
0.705346 0.298922 0.888703
0.811235 0.302961 0.890625
0.915291 0.306930 0.892513
0.948224 0.308186 0.893111
0.144901 0.397965 0.885461
0.265734 0.402574 0.887654
0.381730 0.406999 0.889759
0.494462 0.411299 0.891805
0.604587 0.415499 0.893803
0.712475 0.419615 0.895761
0.818364 0.423654 0.897683
0.922420 0.427623 0.899571
0.955352 0.428879 0.900169
0.151994 0.518046 0.892483
0.272827 0.522655 0.894676
0.388823 0.527080 0.896781
0.501555 0.531380 0.898827
0.611680 0.535581 0.900826
0.719568 0.539696 0.902784
0.825457 0.543735 0.904706
0.929513 0.547704 0.906594
0.962445 0.548961 0.907192
0.159050 0.637516 0.899470
0.279883 0.642125 0.901663
0.395880 0.646550 0.903768
0.508611 0.650850 0.905814
0.618736 0.655051 0.907813
0.726624 0.659166 0.909771
0.832513 0.663205 0.911692
0.936570 0.667174 0.913581
0.969502 0.668431 0.914178
0.166071 0.756375 0.906421
0.286904 0.760984 0.908614
0.402900 0.765409 0.910719
0.515632 0.769709 0.912765
0.625757 0.773909 0.914764
0.733645 0.778025 0.916722
0.839534 0.782064 0.918643
0.943590 0.786033 0.920532
0.976522 0.787289 0.921129
0.173055 0.874622 0.913337
0.293888 0.879231 0.915529
0.409885 0.883656 0.917635
0.522616 0.887956 0.919680
0.632741 0.892156 0.921679
0.740629 0.896272 0.923637
0.846518 0.900311 0.925559
0.950575 0.904280 0.927447
0.983507 0.905536 0.928045
0.179172 0.978174 0.919392
0.300005 0.982783 0.921585
0.416001 0.987207 0.923690
0.528733 0.991507 0.925736
0.638858 0.995708 0.927735
0.746746 0.999823 0.929693
0.852635 1.000000 0.931614
0.956691 1.000000 0.933503
0.989623 1.000000 0.934101
