luts/film_stocks/kodak_vision3_250d.cube
TITLE "Kodak Vision3 250D"
LUT_3D_SIZE 9
DOMAIN_MIN 0.0 0.0 0.0
DOMAIN_MAX 1.0 1.0 1.0
0.010058 0.010058 0.000000
0.155324 0.007733 0.000000
0.293901 0.005516 0.000000
0.428374 0.003365 0.000000
0.559307 0.001270 0.000000
0.686974 0.000000 0.000000
0.811539 0.000000 0.000000
0.933118 0.000000 0.000000
1.000000 0.000000 0.000000
0.002074 0.152775 0.000000
0.147340 0.150451 0.000000
0.285917 0.148234 0.000000
0.420391 0.146082 0.000000
0.551323 0.143987 0.000000
0.678990 0.141945 0.000000
0.803556 0.139952 0.000000
0.925134 0.138006 0.000000
1.000000 0.136108 0.000000
0.000000 0.287412 0.000000
0.139808 0.285088 0.000000
0.278385 0.282871 0.000000
0.412859 0.280719 0.000000
0.543792 0.278624 0.000000
0.671458 0.276582 0.000000
0.796024 0.274588 0.000000
0.917602 0.272643 0.000000
1.000000 0.270744 0.000000
0.000000 0.417736 0.000000
0.132518 0.415412 0.000000
0.271095 0.413195 0.000000
0.405568 0.411043 0.000000
0.536501 0.408948 0.000000
0.664167 0.406906 0.000000
0.788733 0.404913 0.000000
0.910311 0.402967 0.000000
1.000000 0.401068 0.000000
0.000000 0.544552 0.000000
0.125424 0.542228 0.000000
0.264000 0.540011 0.000000
0.398474 0.537859 0.000000
0.529407 0.535764 0.000000
0.657073 0.533721 0.000000
0.781639 0.531728 0.000000
0.903217 0.529783 0.000000
1.000000 0.527884 0.000000
0.000000 0.668249 0.000000
0.118504 0.665925 0.000000
0.257081 0.663707 0.000000
0.391554 0.661556 0.000000
0.522487 0.659461 0.000000
0.650153 0.657418 0.000000
0.774719 0.655425 0.000000
0.896297 0.653480 0.000000
1.000000 0.651581 0.000000
0.000000 0.789060 0.000000
0.111746 0.786736 0.000000
0.250322 0.784519 0.000000
0.384796 0.782367 0.000000
0.515729 0.780272 0.000000
0.643395 0.778229 0.000000
0.767961 0.776236 0.000000
0.889539 0.774291 0.000000
1.000000 0.772392 0.000000
0.000000 0.907144 0.000000
0.105140 0.904819 0.000000
0.243717 0.902602 0.000000
0.378190 0.900451 0.000000
0.509123 0.898356 0.000000
0.636789 0.896313 0.000000
0.761355 0.894320 0.000000
0.882933 0.892375 0.000000
1.000000 0.890476 0.000000
0.000000 1.000000 0.000000
0.098680 1.000000 0.000000
0.237257 1.000000 0.000000
0.371731 1.000000 0.000000
0.502663 1.000000 0.000000
0.630330 1.000000 0.000000
0.754896 1.000000 0.000000
0.876474 1.000000 0.000000
0.995146 1.000000 0.000000
0.009310 0.009310 0.138403
0.154576 0.006985 0.136079
0.293153 0.004768 0.133862
0.427626 0.002616 0.131710
0.558559 0.000522 0.129615
0.686225 0.000000 0.127573
0.810791 0.000000 0.125580
0.932369 0.000000 0.123634
1.000000 0.000000 0.121735
0.001326 0.152027 0.130420
0.146592 0.149703 0.128095
0.285169 0.147486 0.125878
0.419642 0.145334 0.123726
0.550575 0.143239 0.121631
0.678242 0.141197 0.119589
0.802807 0.139203 0.117596
0.924386 0.137258 0.115650
1.000000 0.135359 0.113752
0.000000 0.286664 0.122888
0.139060 0.284340 0.120563
0.277637 0.282123 0.118346
0.412111 0.279971 0.116195
0.543043 0.277876 0.114100
0.670710 0.275833 0.112057
0.795276 0.273840 0.110064
0.916854 0.271895 0.108119
1.000000 0.269996 0.106220
0.000000 0.416988 0.115597
0.131770 0.414664 0.113273
0.270347 0.412447 0.111056
0.404820 0.410295 0.108904
0.535753 0.408200 0.106809
0.663419 0.406157 0.104766
0.787985 0.404164 0.102773
0.909563 0.402219 0.100828
1.000000 0.400320 0.098929
0.000000 0.543804 0.108503
0.124675 0.541480 0.106179
0.263252 0.539262 0.103961
0.397726 0.537111 0.101810
0.528659 0.535016 0.099715
0.656325 0.532973 0.097672
0.780891 0.530980 0.095679
0.902469 0.529035 0.093734
1.000000 0.527136 0.091835
0.000000 0.667501 0.101583
0.117756 0.665176 0.099259
0.256332 0.662959 0.097042
0.390806 0.660808 0.094890
0.521739 0.658713 0.092795
0.649405 0.656670 0.090752
0.773971 0.654677 0.088759
0.895549 0.652732 0.086814
1.000000 0.650833 0.084915
0.000000 0.788312 0.094825
0.110997 0.785988 0.092501
0.249574 0.783770 0.090283
0.384048 0.781619 0.088132
0.514980 0.779524 0.086037
0.642647 0.777481 0.083994
0.767213 0.775488 0.082001
0.888791 0.773543 0.080056
1.000000 0.771644 0.078157
0.000000 0.906396 0.088219
0.104392 0.904071 0.085895
0.242968 0.901854 0.083678
0.377442 0.899702 0.081526
0.508375 0.897607 0.079431
0.636041 0.895565 0.077388
0.760607 0.893572 0.075395
0.882185 0.891626 0.073450
1.000000 0.889728 0.071551
0.000000 1.000000 0.081759
0.097932 1.000000 0.079435
0.236509 1.000000 0.077218
0.370982 1.000000 0.075066
0.501915 1.000000 0.072971
0.629582 1.000000 0.070929
0.754147 1.000000 0.068936
0.875726 1.000000 0.066990
0.994398 1.000000 0.065092
0.008567 0.008567 0.276542
0.153833 0.006243 0.274218
0.292410 0.004025 0.272000
0.426883 0.001874 0.269849
0.557816 0.000000 0.267754
0.685483 0.000000 0.265711
0.810049 0.000000 0.263718
0.931627 0.000000 0.261773
1.000000 0.000000 0.259874
0.000583 0.151285 0.268558
0.145849 0.148960 0.266234
0.284426 0.146743 0.264016
0.418900 0.144591 0.261865
0.549832 0.142496 0.259770
0.677499 0.140454 0.257727
0.802065 0.138461 0.255734
0.923643 0.136515 0.253789
1.000000 0.134617 0.251890
0.000000 0.285921 0.261026
0.138317 0.283597 0.258702
0.276894 0.281380 0.256485
0.411368 0.279228 0.254333
0.542301 0.277133 0.252238
0.669967 0.275091 0.250195
0.794533 0.273098 0.248202
0.916111 0.271152 0.246257
1.000000 0.269254 0.244358
0.000000 0.416245 0.253736
0.131027 0.413921 0.251411
0.269604 0.411704 0.249194
0.404077 0.409552 0.247043
0.535010 0.407457 0.244948
0.662676 0.405415 0.242905
0.787242 0.403422 0.240912
0.908820 0.401476 0.238967
1.000000 0.399578 0.237068
0.000000 0.543061 0.246641
0.123933 0.540737 0.244317
0.262509 0.538520 0.242100
0.396983 0.536368 0.239948
0.527916 0.534273 0.237853
0.655582 0.532230 0.235811
0.780148 0.530237 0.233818
0.901726 0.528292 0.231872
1.000000 0.526393 0.229974
0.000000 0.666758 0.239722
0.117013 0.664434 0.237397
0.255590 0.662216 0.235180
0.390063 0.660065 0.233029
0.520996 0.657970 0.230934
0.648662 0.655927 0.228891
0.773228 0.653934 0.226898
0.894806 0.651989 0.224953
1.000000 0.650090 0.223054
0.000000 0.787569 0.232963
0.110255 0.785245 0.230639
0.248831 0.783028 0.228422
0.383305 0.780876 0.226270
0.514238 0.778781 0.224175
0.641904 0.776738 0.222133
0.766470 0.774745 0.220140
0.888048 0.772800 0.218194
1.000000 0.770901 0.216295
0.000000 0.905653 0.226358
0.103649 0.903329 0.224033
0.242226 0.901111 0.221816
0.376699 0.898960 0.219664
0.507632 0.896865 0.217570
0.635298 0.894822 0.215527
0.759864 0.892829 0.213534
0.881442 0.890884 0.211588
1.000000 0.888985 0.209690
0.000000 1.000000 0.219898
0.097189 1.000000 0.217574
0.235766 1.000000 0.215356
0.370240 1.000000 0.213205
0.501172 1.000000 0.211110
0.628839 1.000000 0.209067
0.753405 1.000000 0.207074
0.874983 1.000000 0.205129
0.993655 1.000000 0.203230
0.007829 0.007829 0.413673
0.153096 0.005505 0.411349
0.291673 0.003288 0.409132
0.426146 0.001136 0.406980
0.557079 0.000000 0.404885
0.684745 0.000000 0.402843
0.809311 0.000000 0.400849
0.930889 0.000000 0.398904
1.000000 0.000000 0.397005
0.000000 0.150547 0.405689
0.145112 0.148223 0.403365
0.283689 0.146006 0.401148
0.418162 0.143854 0.398996
0.549095 0.141759 0.396901
0.676761 0.139716 0.394859
0.801327 0.137723 0.392866
0.922905 0.135778 0.390920
1.000000 0.133879 0.389022
0.000000 0.285184 0.398158
0.137580 0.282860 0.395833
0.276157 0.280642 0.393616
0.410631 0.278491 0.391465
0.541563 0.276396 0.389370
0.669230 0.274353 0.387327
0.793796 0.272360 0.385334
0.915374 0.270415 0.383389
1.000000 0.268516 0.381490
0.000000 0.415508 0.390867
0.130290 0.413184 0.388543
0.268866 0.410967 0.386326
0.403340 0.408815 0.384174
0.534273 0.406720 0.382079
0.661939 0.404677 0.380036
0.786505 0.402684 0.378043
0.908083 0.400739 0.376098
1.000000 0.398840 0.374199
0.000000 0.542324 0.383773
0.123195 0.540000 0.381449
0.261772 0.537782 0.379231
0.396246 0.535631 0.377080
0.527179 0.533536 0.374985
0.654845 0.531493 0.372942
0.779411 0.529500 0.370949
0.900989 0.527555 0.369004
1.000000 0.525656 0.367105
0.000000 0.666021 0.376853
0.116276 0.663696 0.374529
0.254852 0.661479 0.372312
0.389326 0.659327 0.370160
0.520259 0.657232 0.368065
0.647925 0.655190 0.366022
0.772491 0.653197 0.364029
0.894069 0.651251 0.362084
1.000000 0.649353 0.360185
0.000000 0.786832 0.370095
0.109517 0.784508 0.367770
0.248094 0.782290 0.365553
0.382568 0.780139 0.363402
0.513500 0.778044 0.361307
0.641167 0.776001 0.359264
0.765733 0.774008 0.357271
0.887311 0.772063 0.355326
1.000000 0.770164 0.353427
0.000000 0.904915 0.363489
0.102911 0.902591 0.361165
0.241488 0.900374 0.358947
0.375962 0.898222 0.356796
0.506895 0.896127 0.354701
0.634561 0.894085 0.352658
0.759127 0.892092 0.350665
0.880705 0.890146 0.348720
0.999377 0.888248 0.346821
0.000000 1.000000 0.357029
0.096452 1.000000 0.354705
0.235029 1.000000 0.352488
0.369502 1.000000 0.350336
0.500435 1.000000 0.348241
0.628101 1.000000 0.346199
0.752667 1.000000 0.344206
0.874245 1.000000 0.342260
0.992918 1.000000 0.340362
0.007098 0.007098 0.549798
0.152364 0.004773 0.547473
0.290941 0.002556 0.545256
0.425414 0.000404 0.543104
0.556347 0.000000 0.541010
0.684013 0.000000 0.538967
0.808579 0.000000 0.536974
0.930157 0.000000 0.535028
1.000000 0.000000 0.533130
0.000000 0.149815 0.541814
0.144380 0.147491 0.539489
0.282957 0.145274 0.537272
0.417430 0.143122 0.535121
0.548363 0.141027 0.533026
0.676030 0.138985 0.530983
0.800595 0.136991 0.528990
0.922174 0.135046 0.527045
1.000000 0.133147 0.525146
0.000000 0.284452 0.534282
0.136848 0.282128 0.531958
0.275425 0.279911 0.529740
0.409899 0.277759 0.527589
0.540831 0.275664 0.525494
0.668498 0.273621 0.523451
0.793064 0.271628 0.521458
0.914642 0.269683 0.519513
1.000000 0.267784 0.517614
0.000000 0.414776 0.526991
0.129558 0.412452 0.524667
0.268134 0.410235 0.522450
0.402608 0.408083 0.520298
0.533541 0.405988 0.518203
0.661207 0.403945 0.516161
0.785773 0.401952 0.514168
0.907351 0.400007 0.512222
1.000000 0.398108 0.510324
0.000000 0.541592 0.519897
0.122463 0.539268 0.517573
0.261040 0.537050 0.515356
0.395514 0.534899 0.513204
0.526447 0.532804 0.511109
0.654113 0.530761 0.509066
0.778679 0.528768 0.507073
0.900257 0.526823 0.505128
1.000000 0.524924 0.503229
0.000000 0.665289 0.512977
0.115544 0.662964 0.510653
0.254120 0.660747 0.508436
0.388594 0.658595 0.506284
0.519527 0.656501 0.504189
0.647193 0.654458 0.502147
0.771759 0.652465 0.500154
0.893337 0.650520 0.498208
1.000000 0.648621 0.496310
0.000000 0.786100 0.506219
0.108785 0.783776 0.503895
0.247362 0.781558 0.501678
0.381836 0.779407 0.499526
0.512768 0.777312 0.497431
0.640435 0.775269 0.495388
0.765001 0.773276 0.493395
0.886579 0.771331 0.491450
1.000000 0.769432 0.489551
0.000000 0.904184 0.499613
0.102180 0.901859 0.497289
0.240756 0.899642 0.495072
0.375230 0.897490 0.492920
0.506163 0.895395 0.490825
0.633829 0.893353 0.488783
0.758395 0.891360 0.486789
0.879973 0.889414 0.484844
0.998645 0.887516 0.482945
0.000000 1.000000 0.493154
0.095720 1.000000 0.490829
0.234297 1.000000 0.488612
0.368770 1.000000 0.486461
0.499703 1.000000 0.484366
0.627370 1.000000 0.482323
0.751935 1.000000 0.480330
0.873513 1.000000 0.478385
0.992186 1.000000 0.476486
0.006371 0.006371 0.684915
0.151637 0.004047 0.682591
0.290214 0.001830 0.680373
0.424688 0.000000 0.678222
0.555620 0.000000 0.676127
0.683287 0.000000 0.674084
0.807853 0.000000 0.672091
0.929431 0.000000 0.670146
1.000000 0.000000 0.668247
0.000000 0.149089 0.676931
0.143653 0.146764 0.674607
0.282230 0.144547 0.672389
0.416704 0.142396 0.670238
0.547637 0.140301 0.668143
0.675303 0.138258 0.666100
0.799869 0.136265 0.664107
0.921447 0.134320 0.662162
1.000000 0.132421 0.660263
0.000000 0.283726 0.669399
0.136122 0.281401 0.667075
0.274698 0.279184 0.664858
0.409172 0.277032 0.662706
0.540105 0.274938 0.660611
0.667771 0.272895 0.658568
0.792337 0.270902 0.656575
0.913915 0.268956 0.654630
1.000000 0.267058 0.652731
0.000000 0.414050 0.662109
0.128831 0.411725 0.659784
0.267408 0.409508 0.657567
0.401882 0.407356 0.655416
0.532814 0.405262 0.653321
0.660481 0.403219 0.651278
0.785047 0.401226 0.649285
0.906625 0.399281 0.647340
1.000000 0.397382 0.645441
0.000000 0.540865 0.655014
0.121737 0.538541 0.652690
0.260314 0.536324 0.650473
0.394787 0.534172 0.648321
0.525720 0.532077 0.646226
0.653386 0.530035 0.644184
0.777952 0.528042 0.642191
0.899530 0.526096 0.640245
1.000000 0.524198 0.638347
0.000000 0.664562 0.648095
0.114817 0.662238 0.645770
0.253394 0.660021 0.643553
0.387868 0.657869 0.641402
0.518800 0.655774 0.639307
0.646467 0.653731 0.637264
0.771033 0.651738 0.635271
0.892611 0.649793 0.633326
1.000000 0.647894 0.631427
0.000000 0.785373 0.641336
0.108059 0.783049 0.639012
0.246636 0.780832 0.636795
0.381109 0.778680 0.634643
0.512042 0.776585 0.632548
0.639708 0.774543 0.630506
0.764274 0.772550 0.628512
0.885852 0.770604 0.626567
1.000000 0.768706 0.624668
0.000000 0.903457 0.634731
0.101453 0.901133 0.632406
0.240030 0.898915 0.630189
0.374503 0.896764 0.628037
0.505436 0.894669 0.625942
0.633103 0.892626 0.623900
0.757668 0.890633 0.621907
0.879247 0.888688 0.619961
0.997919 0.886789 0.618063
0.000000 1.000000 0.628271
0.094993 1.000000 0.625947
0.233570 1.000000 0.623729
0.368044 1.000000 0.621578
0.498977 1.000000 0.619483
0.626643 1.000000 0.617440
0.751209 1.000000 0.615447
0.872787 1.000000 0.613502
0.991459 1.000000 0.611603
0.005650 0.005650 0.819025
0.150916 0.003326 0.816701
0.289493 0.001108 0.814483
0.423967 0.000000 0.812332
0.554899 0.000000 0.810237
0.682566 0.000000 0.808194
0.807132 0.000000 0.806201
0.928710 0.000000 0.804256
1.000000 0.000000 0.802357
0.000000 0.148368 0.811041
0.142932 0.146043 0.808717
0.281509 0.143826 0.806500
0.415983 0.141675 0.804348
0.546916 0.139580 0.802253
0.674582 0.137537 0.800210
0.799148 0.135544 0.798217
0.920726 0.133599 0.796272
1.000000 0.131700 0.794373
0.000000 0.283004 0.803509
0.135401 0.280680 0.801185
0.273977 0.278463 0.798968
0.408451 0.276311 0.796816
0.539384 0.274216 0.794721
0.667050 0.272174 0.792679
0.791616 0.270181 0.790686
0.913194 0.268235 0.788740
1.000000 0.266337 0.786842
0.000000 0.413329 0.796219
0.128110 0.411004 0.793895
0.266687 0.408787 0.791677
0.401160 0.406635 0.789526
0.532093 0.404540 0.787431
0.659760 0.402498 0.785388
0.784326 0.400505 0.783395
0.905904 0.398559 0.781450
1.000000 0.396661 0.779551
0.000000 0.540144 0.789125
0.121016 0.537820 0.786800
0.259593 0.535603 0.784583
0.394066 0.533451 0.782431
0.524999 0.531356 0.780337
0.652665 0.529314 0.778294
0.777231 0.527320 0.776301
0.898809 0.525375 0.774356
1.000000 0.523476 0.772457
0.000000 0.663841 0.782205
0.114096 0.661517 0.779881
0.252673 0.659299 0.777663
0.387146 0.657148 0.775512
0.518079 0.655053 0.773417
0.645746 0.653010 0.771374
0.770312 0.651017 0.769381
0.891890 0.649072 0.767436
1.000000 0.647173 0.765537
0.000000 0.784652 0.775446
0.107338 0.782328 0.773122
0.245914 0.780111 0.770905
0.380388 0.777959 0.768753
0.511321 0.775864 0.766658
0.638987 0.773822 0.764616
0.763553 0.771829 0.762623
0.885131 0.769883 0.760677
1.000000 0.767984 0.758779
0.000000 0.902736 0.768841
0.100732 0.900412 0.766516
0.239309 0.898194 0.764299
0.373782 0.896043 0.762148
0.504715 0.893948 0.760053
0.632381 0.891905 0.758010
0.756947 0.889912 0.756017
0.878525 0.887967 0.754072
0.997198 0.886068 0.752173
0.000000 1.000000 0.762381
0.094272 1.000000 0.760057
0.232849 1.000000 0.757840
0.367323 1.000000 0.755688
0.498256 1.000000 0.753593
0.625922 1.000000 0.751550
0.750488 1.000000 0.749557
0.872066 1.000000 0.747612
0.990738 1.000000 0.745713
0.004934 0.004934 0.952128
0.150201 0.002610 0.949804
0.288777 0.000393 0.947586
0.423251 0.000000 0.945435
0.554184 0.000000 0.943340
0.681850 0.000000 0.941297
0.806416 0.000000 0.939304
0.927994 0.000000 0.937359
1.000000 0.000000 0.935460
0.000000 0.147652 0.944144
0.142217 0.145328 0.941820
0.280793 0.143110 0.939603
0.415267 0.140959 0.937451
0.546200 0.138864 0.935356
0.673866 0.136821 0.933313
0.798432 0.134828 0.931320
0.920010 0.132883 0.929375
1.000000 0.130984 0.927476
0.000000 0.282289 0.936612
0.134685 0.279965 0.934288
0.273262 0.277747 0.932071
0.407735 0.275596 0.929919
0.538668 0.273501 0.927824
0.666334 0.271458 0.925782
0.790900 0.269465 0.923789
0.912478 0.267520 0.921843
1.000000 0.265621 0.919945
0.000000 0.412613 0.929322
0.127394 0.410289 0.926998
0.265971 0.408071 0.924780
0.400445 0.405920 0.922629
0.531378 0.403825 0.920534
0.659044 0.401782 0.918491
0.783610 0.399789 0.916498
0.905188 0.397844 0.914553
1.000000 0.395945 0.912654
0.000000 0.539429 0.922228
0.120300 0.537104 0.919903
0.258877 0.534887 0.917686
0.393351 0.532736 0.915535
0.524283 0.530641 0.913440
0.651950 0.528598 0.911397
0.776516 0.526605 0.909404
0.898094 0.524660 0.907459
1.000000 0.522761 0.905560
0.000000 0.663125 0.915308
0.113380 0.660801 0.912984
0.251957 0.658584 0.910766
0.386431 0.656432 0.908615
0.517364 0.654337 0.906520
0.645030 0.652295 0.904477
0.769596 0.650301 0.902484
0.891174 0.648356 0.900539
1.000000 0.646457 0.898640
0.000000 0.783937 0.908550
0.106622 0.781612 0.906225
0.245199 0.779395 0.904008
0.379672 0.777244 0.901856
0.510605 0.775149 0.899761
0.638272 0.773106 0.897719
0.762837 0.771113 0.895726
0.884416 0.769168 0.893780
1.000000 0.767269 0.891882
0.000000 0.902020 0.901944
0.100016 0.899696 0.899619
0.238593 0.897479 0.897402
0.373067 0.895327 0.895251
0.503999 0.893232 0.893156
0.631666 0.891189 0.891113
0.756232 0.889196 0.889120
0.877810 0.887251 0.887175
0.996482 0.885352 0.885276
0.000000 1.000000 0.895484
0.093557 1.000000 0.893160
0.232133 1.000000 0.890943
0.366607 1.000000 0.888791
0.497540 1.000000 0.886696
0.625206 1.000000 0.884653
0.749772 1.000000 0.882660
0.871350 1.000000 0.880715
0.990023 1.000000 0.878816
0.004282 0.004282 1.000000
0.149548 0.001957 1.000000
0.288125 0.000000 1.000000
0.422598 0.000000 1.000000
0.553531 0.000000 1.000000
0.681198 0.000000 1.000000
0.805763 0.000000 1.000000
0.927342 0.000000 1.000000
1.000000 0.000000 1.000000
0.000000 0.146999 1.000000
0.141564 0.144675 1.000000
0.280141 0.142458 1.000000
0.414615 0.140306 1.000000
0.545547 0.138211 1.000000
0.673214 0.136169 1.000000
0.797780 0.134176 1.000000
0.919358 0.132230 1.000000
1.000000 0.130332 1.000000
0.000000 0.281636 1.000000
0.134032 0.279312 1.000000
0.272609 0.277095 1.000000
0.407083 0.274943 1.000000
0.538016 0.272848 1.000000
0.665682 0.270806 1.000000
0.790248 0.268812 1.000000
0.911826 0.266867 1.000000
1.000000 0.264968 1.000000
0.000000 0.411960 1.000000
0.126742 0.409636 1.000000
0.265319 0.407419 1.000000
0.399792 0.405267 1.000000
0.530725 0.403172 1.000000
0.658391 0.401130 1.000000
0.782957 0.399137 1.000000
0.904535 0.397191 1.000000
1.000000 0.395292 1.000000
0.000000 0.538776 1.000000
0.119648 0.536452 1.000000
0.258224 0.534235 1.000000
0.392698 0.532083 1.000000
0.523631 0.529988 1.000000
0.651297 0.527945 1.000000
0.775863 0.525952 1.000000
0.897441 0.524007 1.000000
1.000000 0.522108 1.000000
0.000000 0.662473 1.000000
0.112728 0.660149 1.000000
0.251305 0.657931 1.000000
0.385778 0.655780 1.000000
0.516711 0.653685 1.000000
0.644377 0.651642 1.000000
0.768943 0.649649 1.000000
0.890521 0.647704 1.000000
1.000000 0.645805 1.000000
0.000000 0.783284 1.000000
0.105970 0.780960 1.000000
0.244546 0.778743 1.000000
0.379020 0.776591 1.000000
0.509953 0.774496 1.000000
0.637619 0.772453 1.000000
0.762185 0.770460 1.000000
0.883763 0.768515 1.000000
1.000000 0.766616 1.000000
0.000000 0.901368 1.000000
0.099364 0.899043 1.000000
0.237941 0.896826 1.000000
0.372414 0.894675 1.000000
0.503347 0.892580 1.000000
0.631013 0.890537 1.000000
0.755579 0.888544 1.000000
0.877157 0.886599 1.000000
0.995830 0.884700 1.000000
0.000000 1.000000 1.000000
0.092904 1.000000 1.000000
0.231481 1.000000 1.000000
0.365955 1.000000 1.000000
0.496887 1.000000 1.000000
0.624554 1.000000 1.000000
0.749120 1.000000 1.000000
0.870698 1.000000 1.000000
0.989370 1.000000 1.000000
