luts/film_stocks/kodak_doublex_5222_bw.cube
TITLE "Kodak Double-X 5222 B&W"
LUT_3D_SIZE 5
DOMAIN_MIN 0.0 0.0 0.0
DOMAIN_MAX 1.0 1.0 1.0
0.000000 0.000000 0.000000
0.050275 0.050275 0.050275
0.131115 0.131115 0.131115
0.204889 0.204889 0.204889
0.273910 0.273910 0.273910
0.230497 0.230497 0.230497
0.298085 0.298085 0.298085
0.362252 0.362252 0.362252
0.423527 0.423527 0.423527
0.482270 0.482270 0.482270
0.445191 0.445191 0.445191
0.503080 0.503080 0.503080
0.558774 0.558774 0.558774
0.612455 0.612455 0.612455
0.664267 0.664267 0.664267
0.631528 0.631528 0.631528
0.682690 0.682690 0.682690
0.732137 0.732137 0.732137
0.779963 0.779963 0.779963
0.826246 0.826246 0.826246
0.796988 0.796988 0.796988
0.842726 0.842726 0.842726
0.887011 0.887011 0.887011
0.929900 0.929900 0.929900
0.970000 0.970000 0.970000
0.000000 0.000000 0.000000
0.078784 0.078784 0.078784
0.156802 0.156802 0.156802
0.228795 0.228795 0.228795
0.296475 0.296475 0.296475
0.253877 0.253877 0.253877
0.320229 0.320229 0.320229
0.383365 0.383365 0.383365
0.443746 0.443746 0.443746
0.501691 0.501691 0.501691
0.465110 0.465110 0.465110
0.522230 0.522230 0.522230
0.577223 0.577223 0.577223
0.630254 0.630254 0.630254
0.681459 0.681459 0.681459
0.649101 0.649101 0.649101
0.699670 0.699670 0.699670
0.748557 0.748557 0.748557
0.795851 0.795851 0.795851
0.841625 0.841625 0.841625
0.812688 0.812688 0.812688
0.857926 0.857926 0.857926
0.901731 0.901731 0.901731
0.944157 0.944157 0.944157
0.970000 0.970000 0.970000
0.021916 0.021916 0.021916
0.106134 0.106134 0.106134
0.181813 0.181813 0.181813
0.252209 0.252209 0.252209
0.318647 0.318647 0.318647
0.276808 0.276808 0.276808
0.342004 0.342004 0.342004
0.404161 0.404161 0.404161
0.463684 0.463684 0.463684
0.520859 0.520859 0.520859
0.484759 0.484759 0.484759
0.541135 0.541135 0.541135
0.595445 0.595445 0.595445
0.647843 0.647843 0.647843
0.698453 0.698453 0.698453
0.666469 0.666469 0.666469
0.716456 0.716456 0.716456
0.764793 0.764793 0.764793
0.811563 0.811563 0.811563
0.856837 0.856837 0.856837
0.828215 0.828215 0.828215
0.872960 0.872960 0.872960
0.916291 0.916291 0.916291
0.958260 0.958260 0.958260
0.970000 0.970000 0.970000
0.051890 0.051890 0.051890
0.132557 0.132557 0.132557
0.206227 0.206227 0.206227
0.275171 0.275171 0.275171
0.340448 0.340448 0.340448
0.299322 0.299322 0.299322
0.363430 0.363430 0.363430
0.424655 0.424655 0.424655
0.483352 0.483352 0.483352
0.539782 0.539782 0.539782
0.504147 0.504147 0.504147
0.559802 0.559802 0.559802
0.613447 0.613447 0.613447
0.665225 0.665225 0.665225
0.715253 0.715253 0.715253
0.683636 0.683636 0.683636
0.733052 0.733052 0.733052
0.780848 0.780848 0.780848
0.827103 0.827103 0.827103
0.871883 0.871883 0.871883
0.843573 0.843573 0.843573
0.887831 0.887831 0.887831
0.930694 0.930694 0.930694
0.970000 0.970000 0.970000
0.970000 0.970000 0.970000
0.080327 0.080327 0.080327
0.158204 0.158204 0.158204
0.230104 0.230104 0.230104
0.297714 0.297714 0.297714
0.361898 0.361898 0.361898
0.321445 0.321445 0.321445
0.384525 0.384525 0.384525
0.444858 0.444858 0.444858
0.502759 0.502759 0.502759
0.558466 0.558466 0.558466
0.523284 0.523284 0.523284
0.578238 0.578238 0.578238
0.631234 0.631234 0.631234
0.682406 0.682406 0.682406
0.731863 0.731863 0.731863
0.700605 0.700605 0.700605
0.749461 0.749461 0.749461
0.796726 0.796726 0.796726
0.842472 0.842472 0.842472
0.886765 0.886765 0.886765
0.858763 0.858763 0.858763
0.902541 0.902541 0.902541
0.944942 0.944942 0.944942
0.970000 0.970000 0.970000
0.970000 0.970000 0.970000
