luts/film_stocks/kodak_trix_400_bw.cube
TITLE "Kodak Tri-X 400 B&W"
LUT_3D_SIZE 5
DOMAIN_MIN 0.0 0.0 0.0
DOMAIN_MAX 1.0 1.0 1.0
0.000000 0.000000 0.000000
0.052021 0.052021 0.052021
0.122897 0.122897 0.122897
0.189490 0.189490 0.189490
0.253141 0.253141 0.253141
0.212963 0.212963 0.212963
0.275716 0.275716 0.275716
0.336306 0.336306 0.336306
0.395044 0.395044 0.395044
0.452143 0.452143 0.452143
0.416012 0.416012 0.416012
0.472555 0.472555 0.472555
0.527659 0.527659 0.527659
0.581431 0.581431 0.581431
0.633958 0.633958 0.633958
0.600695 0.600695 0.600695
0.652786 0.652786 0.652786
0.703724 0.703724 0.703724
0.753564 0.753564 0.753564
0.802353 0.802353 0.802353
0.771446 0.771446 0.771446
0.819862 0.819862 0.819862
0.867280 0.867280 0.867280
0.913735 0.913735 0.913735
0.959256 0.959256 0.959256
0.000889 0.000889 0.000889
0.076722 0.076722 0.076722
0.145900 0.145900 0.145900
0.211397 0.211397 0.211397
0.274209 0.274209 0.274209
0.234542 0.234542 0.234542
0.296517 0.296517 0.296517
0.356449 0.356449 0.356449
0.414610 0.414610 0.414610
0.471190 0.471190 0.471190
0.435384 0.435384 0.435384
0.491424 0.491424 0.491424
0.546065 0.546065 0.546065
0.599406 0.599406 0.599406
0.651526 0.651526 0.651526
0.618518 0.618518 0.618518
0.670211 0.670211 0.670211
0.720771 0.720771 0.720771
0.770249 0.770249 0.770249
0.818690 0.818690 0.818690
0.788002 0.788002 0.788002
0.836076 0.836076 0.836076
0.883163 0.883163 0.883163
0.929297 0.929297 0.929297
0.974507 0.974507 0.974507
0.027846 0.027846 0.027846
0.100732 0.100732 0.100732
0.168490 0.168490 0.168490
0.232998 0.232998 0.232998
0.295027 0.295027 0.295027
0.255840 0.255840 0.255840
0.317083 0.317083 0.317083
0.376389 0.376389 0.376389
0.433995 0.433995 0.433995
0.490071 0.490071 0.490071
0.454579 0.454579 0.454579
0.510132 0.510132 0.510132
0.564321 0.564321 0.564321
0.617239 0.617239 0.617239
0.668961 0.668961 0.668961
0.636204 0.636204 0.636204
0.687506 0.687506 0.687506
0.737693 0.737693 0.737693
0.786814 0.786814 0.786814
0.834912 0.834912 0.834912
0.804441 0.804441 0.804441
0.852176 0.852176 0.852176
0.898936 0.898936 0.898936
0.944753 0.944753 0.944753
0.980000 0.980000 0.980000
0.053411 0.053411 0.053411
0.124183 0.124183 0.124183
0.190713 0.190713 0.190713
0.254315 0.254315 0.254315
0.315610 0.315610 0.315610
0.276875 0.276875 0.276875
0.337427 0.337427 0.337427
0.396133 0.396133 0.396133
0.453203 0.453203 0.453203
0.508790 0.508790 0.508790
0.473605 0.473605 0.473605
0.528683 0.528683 0.528683
0.582431 0.582431 0.582431
0.634935 0.634935 0.634935
0.686265 0.686265 0.686265
0.653755 0.653755 0.653755
0.704672 0.704672 0.704672
0.754492 0.754492 0.754492
0.803261 0.803261 0.803261
0.851020 0.851020 0.851020
0.820763 0.820763 0.820763
0.868163 0.868163 0.868163
0.914600 0.914600 0.914600
0.960103 0.960103 0.960103
0.980000 0.980000 0.980000
0.078069 0.078069 0.078069
0.147162 0.147162 0.147162
0.212602 0.212602 0.212602
0.275368 0.275368 0.275368
0.335969 0.335969 0.335969
0.297662 0.297662 0.297662
0.357559 0.357559 0.357559
0.415689 0.415689 0.415689
0.472240 0.472240 0.472240
0.527352 0.527352 0.527352
0.492465 0.492465 0.492465
0.547080 0.547080 0.547080
0.600397 0.600397 0.600397
0.652495 0.652495 0.652495
0.703440 0.703440 0.703440
0.671173 0.671173 0.671173
0.721712 0.721712 0.721712
0.771170 0.771170 0.771170
0.819591 0.819591 0.819591
0.867015 0.867015 0.867015
0.836970 0.836970 0.836970
0.884040 0.884040 0.884040
0.930157 0.930157 0.930157
0.975349 0.975349 0.975349
0.980000 0.980000 0.980000
