luts/film_stocks/kodak_doublex_5222_bw.cube
TITLE "Kodak Double-X 5222 B&W"
LUT_3D_SIZE 9
DOMAIN_MIN 0.0 0.0 0.0
DOMAIN_MAX 1.0 1.0 1.0
0.000000 0.000000 0.000000
0.005226 0.005226 0.005226
0.050275 0.050275 0.050275
0.091829 0.091829 0.091829
0.131115 0.131115 0.131115
0.168694 0.168694 0.168694
0.204889 0.204889 0.204889
0.239912 0.239912 0.239912
0.273910 0.273910 0.273910
0.106357 0.106357 0.106357
0.144973 0.144973 0.144973
0.182018 0.182018 0.182018
0.217767 0.217767 0.217767
0.252402 0.252402 0.252402
0.286056 0.286056 0.286056
0.318829 0.318829 0.318829
0.350800 0.350800 0.350800
0.382030 0.382030 0.382030
0.230497 0.230497 0.230497
0.264762 0.264762 0.264762
0.298085 0.298085 0.298085
0.330558 0.330558 0.330558
0.362252 0.362252 0.362252
0.393226 0.393226 0.393226
0.423527 0.423527 0.423527
0.453197 0.453197 0.453197
0.482270 0.482270 0.482270
0.342183 0.342183 0.342183
0.373609 0.373609 0.373609
0.404333 0.404333 0.404333
0.434400 0.434400 0.434400
0.463849 0.463849 0.463849
0.492712 0.492712 0.492712
0.521017 0.521017 0.521017
0.548791 0.548791 0.548791
0.576054 0.576054 0.576054
0.445191 0.445191 0.445191
0.474423 0.474423 0.474423
0.503080 0.503080 0.503080
0.531189 0.531189 0.531189
0.558774 0.558774 0.558774
0.585857 0.585857 0.585857
0.612455 0.612455 0.612455
0.638587 0.638587 0.638587
0.664267 0.664267 0.664267
0.541291 0.541291 0.541291
0.568691 0.568691 0.568691
0.595596 0.595596 0.595596
0.622022 0.622022 0.622022
0.647988 0.647988 0.647988
0.673507 0.673507 0.673507
0.698594 0.698594 0.698594
0.723260 0.723260 0.723260
0.747516 0.747516 0.747516
0.631528 0.631528 0.631528
0.657329 0.657329 0.657329
0.682690 0.682690 0.682690
0.707622 0.707622 0.707622
0.732137 0.732137 0.732137
0.756248 0.756248 0.756248
0.779963 0.779963 0.779963
0.803293 0.803293 0.803293
0.826246 0.826246 0.826246
0.716595 0.716595 0.716595
0.740962 0.740962 0.740962
0.764927 0.764927 0.764927
0.788501 0.788501 0.788501
0.811693 0.811693 0.811693
0.834510 0.834510 0.834510
0.856962 0.856962 0.856962
0.879056 0.879056 0.879056
0.900798 0.900798 0.900798
0.796988 0.796988 0.796988
0.820043 0.820043 0.820043
0.842726 0.842726 0.842726
0.865047 0.865047 0.865047
0.887011 0.887011 0.887011
0.908627 0.908627 0.908627
0.929900 0.929900 0.929900
0.950837 0.950837 0.950837
0.970000 0.970000 0.970000
0.000000 0.000000 0.000000
0.021057 0.021057 0.021057
0.064694 0.064694 0.064694
0.105390 0.105390 0.105390
0.144049 0.144049 0.144049
0.181129 0.181129 0.181129
0.216906 0.216906 0.216906
0.251567 0.251567 0.251567
0.285244 0.285244 0.285244
0.119670 0.119670 0.119670
0.157714 0.157714 0.157714
0.194293 0.194293 0.194293
0.229646 0.229646 0.229646
0.263935 0.263935 0.263935
0.297280 0.297280 0.297280
0.329773 0.329773 0.329773
0.361486 0.361486 0.361486
0.392476 0.392476 0.392476
0.242246 0.242246 0.242246
0.276179 0.276179 0.276179
0.309204 0.309204 0.309204
0.341406 0.341406 0.341406
0.372849 0.372849 0.372849
0.403589 0.403589 0.403589
0.433672 0.433672 0.433672
0.463135 0.463135 0.463135
0.492012 0.492012 0.492012
0.352938 0.352938 0.352938
0.384119 0.384119 0.384119
0.414615 0.414615 0.414615
0.444469 0.444469 0.444469
0.473715 0.473715 0.473715
0.502386 0.502386 0.502386
0.530508 0.530508 0.530508
0.558106 0.558106 0.558106
0.585200 0.585200 0.585200
0.455185 0.455185 0.455185
0.484218 0.484218 0.484218
0.512686 0.512686 0.512686
0.540615 0.540615 0.540615
0.568027 0.568027 0.568027
0.594943 0.594943 0.594943
0.621381 0.621381 0.621381
0.647358 0.647358 0.647358
0.672888 0.672888 0.672888
0.550653 0.550653 0.550653
0.577883 0.577883 0.577883
0.604623 0.604623 0.604623
0.630891 0.630891 0.630891
0.656704 0.656704 0.656704
0.682075 0.682075 0.682075
0.707017 0.707017 0.707017
0.731543 0.731543 0.731543
0.755663 0.755663 0.755663
0.640341 0.640341 0.640341
0.665991 0.665991 0.665991
0.691204 0.691204 0.691204
0.715993 0.715993 0.715993
0.740370 0.740370 0.740370
0.764346 0.764346 0.764346
0.787929 0.787929 0.787929
0.811130 0.811130 0.811130
0.833957 0.833957 0.833957
0.724915 0.724915 0.724915
0.749145 0.749145 0.749145
0.772976 0.772976 0.772976
0.796420 0.796420 0.796420
0.819483 0.819483 0.819483
0.842176 0.842176 0.842176
0.864505 0.864505 0.864505
0.886478 0.886478 0.886478
0.908103 0.908103 0.908103
0.804860 0.804860 0.804860
0.827787 0.827787 0.827787
0.850347 0.850347 0.850347
0.872546 0.872546 0.872546
0.894391 0.894391 0.894391
0.915890 0.915890 0.915890
0.937048 0.937048 0.937048
0.957871 0.957871 0.957871
0.970000 0.970000 0.970000
0.000000 0.000000 0.000000
0.036301 0.036301 0.036301
0.078784 0.078784 0.078784
0.118718 0.118718 0.118718
0.156802 0.156802 0.156802
0.193414 0.193414 0.193414
0.228795 0.228795 0.228795
0.263108 0.263108 0.263108
0.296475 0.296475 0.296475
0.132773 0.132773 0.132773
0.170287 0.170287 0.170287
0.206428 0.206428 0.206428
0.241403 0.241403 0.241403
0.275360 0.275360 0.275360
0.308407 0.308407 0.308407
0.340627 0.340627 0.340627
0.372089 0.372089 0.372089
0.402846 0.402846 0.402846
0.253877 0.253877 0.253877
0.287492 0.287492 0.287492
0.320229 0.320229 0.320229
0.352166 0.352166 0.352166
0.383365 0.383365 0.383365
0.413877 0.413877 0.413877
0.443746 0.443746 0.443746
0.473006 0.473006 0.473006
0.501691 0.501691 0.501691
0.363607 0.363607 0.363607
0.394551 0.394551 0.394551
0.424824 0.424824 0.424824
0.454467 0.454467 0.454467
0.483515 0.483515 0.483515
0.511996 0.511996 0.511996
0.539938 0.539938 0.539938
0.567363 0.567363 0.567363
0.594291 0.594291 0.594291
0.465110 0.465110 0.465110
0.493948 0.493948 0.493948
0.522230 0.522230 0.522230
0.549981 0.549981 0.549981
0.577223 0.577223 0.577223
0.603975 0.603975 0.603975
0.630254 0.630254 0.630254
0.656078 0.656078 0.656078
0.681459 0.681459 0.681459
0.559957 0.559957 0.559957
0.587018 0.587018 0.587018
0.613596 0.613596 0.613596
0.639708 0.639708 0.639708
0.665369 0.665369 0.665369
0.690593 0.690593 0.690593
0.715392 0.715392 0.715392
0.739779 0.739779 0.739779
0.763764 0.763764 0.763764
0.649101 0.649101 0.649101
0.674602 0.674602 0.674602
0.699670 0.699670 0.699670
0.724318 0.724318 0.724318
0.748557 0.748557 0.748557
0.772398 0.772398 0.772398
0.795851 0.795851 0.795851
0.818924 0.818924 0.818924
0.841625 0.841625 0.841625
0.733189 0.733189 0.733189
0.757282 0.757282 0.757282
0.780981 0.780981 0.780981
0.804294 0.804294 0.804294
0.827231 0.827231 0.827231
0.849799 0.849799 0.849799
0.872007 0.872007 0.872007
0.893861 0.893861 0.893861
0.915368 0.915368 0.915368
0.812688 0.812688 0.812688
0.835490 0.835490 0.835490
0.857926 0.857926 0.857926
0.880004 0.880004 0.880004
0.901731 0.901731 0.901731
0.923113 0.923113 0.923113
0.944157 0.944157 0.944157
0.964868 0.964868 0.964868
0.970000 0.970000 0.970000
0.006121 0.006121 0.006121
0.051083 0.051083 0.051083
0.092587 0.092587 0.092587
0.131836 0.131836 0.131836
0.169387 0.169387 0.169387
0.205558 0.205558 0.205558
0.240561 0.240561 0.240561
0.274541 0.274541 0.274541
0.307609 0.307609 0.307609
0.145683 0.145683 0.145683
0.182702 0.182702 0.182702
0.218428 0.218428 0.218428
0.253044 0.253044 0.253044
0.286680 0.286680 0.286680
0.319438 0.319438 0.319438
0.351394 0.351394 0.351394
0.382610 0.382610 0.382610
0.413139 0.413139 0.413139
0.265397 0.265397 0.265397
0.298704 0.298704 0.298704
0.331161 0.331161 0.331161
0.362841 0.362841 0.362841
0.393802 0.393802 0.393802
0.424091 0.424091 0.424091
0.453749 0.453749 0.453749
0.482811 0.482811 0.482811
0.511306 0.511306 0.511306
0.374194 0.374194 0.374194
0.404905 0.404905 0.404905
0.434960 0.434960 0.434960
0.464397 0.464397 0.464397
0.493249 0.493249 0.493249
0.521545 0.521545 0.521545
0.549308 0.549308 0.549308
0.576562 0.576562 0.576562
0.603326 0.603326 0.603326
0.474967 0.474967 0.474967
0.503614 0.503614 0.503614
0.531713 0.531713 0.531713
0.559288 0.559288 0.559288
0.586362 0.586362 0.586362
0.612951 0.612951 0.612951
0.639074 0.639074 0.639074
0.664746 0.664746 0.664746
0.689981 0.689981 0.689981
0.569202 0.569202 0.569202
0.596097 0.596097 0.596097
0.622515 0.622515 0.622515
0.648472 0.648472 0.648472
0.673983 0.673983 0.673983
0.699062 0.699062 0.699062
0.723720 0.723720 0.723720
0.747969 0.747969 0.747969
0.771820 0.771820 0.771820
0.657811 0.657811 0.657811
0.683163 0.683163 0.683163
0.708087 0.708087 0.708087
0.732595 0.732595 0.732595
0.756698 0.756698 0.756698
0.780406 0.780406 0.780406
0.803728 0.803728 0.803728
0.826674 0.826674 0.826674
0.849252 0.849252 0.849252
0.741416 0.741416 0.741416
0.765374 0.765374 0.765374
0.788941 0.788941 0.788941
0.812125 0.812125 0.812125
0.834936 0.834936 0.834936
0.857381 0.857381 0.857381
0.879468 0.879468 0.879468
0.901203 0.901203 0.901203
0.922594 0.922594 0.922594
0.820473 0.820473 0.820473
0.843150 0.843150 0.843150
0.865463 0.865463 0.865463
0.887421 0.887421 0.887421
0.909031 0.909031 0.909031
0.930297 0.930297 0.930297
0.951227 0.951227 0.951227
0.970000 0.970000 0.970000
0.970000 0.970000 0.970000
0.021916 0.021916 0.021916
0.065483 0.065483 0.065483
0.106134 0.106134 0.106134
0.144760 0.144760 0.144760
0.181813 0.181813 0.181813
0.217568 0.217568 0.217568
0.252209 0.252209 0.252209
0.285869 0.285869 0.285869
0.318647 0.318647 0.318647
0.158415 0.158415 0.158415
0.194969 0.194969 0.194969
0.230301 0.230301 0.230301
0.264571 0.264571 0.264571
0.297899 0.297899 0.297899
0.330377 0.330377 0.330377
0.362075 0.362075 0.362075
0.393053 0.393053 0.393053
0.423358 0.423358 0.423358
0.276808 0.276808 0.276808
0.309818 0.309818 0.309818
0.342004 0.342004 0.342004
0.373434 0.373434 0.373434
0.404161 0.404161 0.404161
0.434232 0.434232 0.434232
0.463684 0.463684 0.463684
0.492550 0.492550 0.492550
0.520859 0.520859 0.520859
0.384699 0.384699 0.384699
0.415183 0.415183 0.415183
0.445024 0.445024 0.445024
0.474259 0.474259 0.474259
0.502920 0.502920 0.502920
0.531032 0.531032 0.531032
0.558620 0.558620 0.558620
0.585705 0.585705 0.585705
0.612307 0.612307 0.612307
0.484759 0.484759 0.484759
0.513216 0.513216 0.513216
0.541135 0.541135 0.541135
0.568538 0.568538 0.568538
0.595445 0.595445 0.595445
0.621874 0.621874 0.621874
0.647843 0.647843 0.647843
0.673364 0.673364 0.673364
0.698453 0.698453 0.698453
0.578390 0.578390 0.578390
0.605121 0.605121 0.605121
0.631381 0.631381 0.631381
0.657185 0.657185 0.657185
0.682548 0.682548 0.682548
0.707482 0.707482 0.707482
0.732000 0.732000 0.732000
0.756113 0.756113 0.756113
0.779831 0.779831 0.779831
0.666469 0.666469 0.666469
0.691674 0.691674 0.691674
0.716456 0.716456 0.716456
0.740825 0.740825 0.740825
0.764793 0.764793 0.764793
0.788369 0.788369 0.788369
0.811563 0.811563 0.811563
0.834383 0.834383 0.834383
0.856837 0.856837 0.856837
0.749597 0.749597 0.749597
0.773421 0.773421 0.773421
0.796857 0.796857 0.796857
0.819914 0.819914 0.819914
0.842599 0.842599 0.842599
0.864922 0.864922 0.864922
0.886889 0.886889 0.886889
0.908506 0.908506 0.908506
0.929781 0.929781 0.929781
0.828215 0.828215 0.828215
0.850768 0.850768 0.850768
0.872960 0.872960 0.872960
0.894799 0.894799 0.894799
0.916291 0.916291 0.916291
0.937443 0.937443 0.937443
0.958260 0.958260 0.958260
0.970000 0.970000 0.970000
0.970000 0.970000 0.970000
0.037132 0.037132 0.037132
0.079556 0.079556 0.079556
0.119451 0.119451 0.119451
0.157503 0.157503 0.157503
0.194091 0.194091 0.194091
0.229450 0.229450 0.229450
0.263744 0.263744 0.263744
0.297095 0.297095 0.297095
0.329592 0.329592 0.329592
0.170979 0.170979 0.170979
0.207096 0.207096 0.207096
0.242051 0.242051 0.242051
0.275990 0.275990 0.275990
0.309020 0.309020 0.309020
0.341226 0.341226 0.341226
0.372674 0.372674 0.372674
0.403418 0.403418 0.403418
0.433504 0.433504 0.433504
0.288116 0.288116 0.288116
0.320837 0.320837 0.320837
0.352760 0.352760 0.352760
0.383945 0.383945 0.383945
0.414445 0.414445 0.414445
0.444302 0.444302 0.444302
0.473551 0.473551 0.473551
0.502225 0.502225 0.502225
0.530351 0.530351 0.530351
0.395126 0.395126 0.395126
0.425387 0.425387 0.425387
0.455019 0.455019 0.455019
0.484056 0.484056 0.484056
0.512527 0.512527 0.512527
0.540459 0.540459 0.540459
0.567874 0.567874 0.567874
0.594793 0.594793 0.594793
0.621234 0.621234 0.621234
0.494485 0.494485 0.494485
0.522757 0.522757 0.522757
0.550498 0.550498 0.550498
0.577730 0.577730 0.577730
0.604473 0.604473 0.604473
0.630744 0.630744 0.630744
0.656559 0.656559 0.656559
0.681933 0.681933 0.681933
0.706877 0.706877 0.706877
0.587522 0.587522 0.587522
0.614091 0.614091 0.614091
0.640195 0.640195 0.640195
0.665847 0.665847 0.665847
0.691063 0.691063 0.691063
0.715855 0.715855 0.715855
0.740234 0.740234 0.740234
0.764211 0.764211 0.764211
0.787797 0.787797 0.787797
0.675077 0.675077 0.675077
0.700137 0.700137 0.700137
0.724777 0.724777 0.724777
0.749009 0.749009 0.749009
0.772843 0.772843 0.772843
0.796288 0.796288 0.796288
0.819354 0.819354 0.819354
0.842049 0.842049 0.842049
0.864380 0.864380 0.864380
0.757732 0.757732 0.757732
0.781423 0.781423 0.781423
0.804729 0.804729 0.804729
0.827659 0.827659 0.827659
0.850220 0.850220 0.850220
0.872421 0.872421 0.872421
0.894269 0.894269 0.894269
0.915769 0.915769 0.915769
0.936929 0.936929 0.936929
0.835915 0.835915 0.835915
0.858344 0.858344 0.858344
0.880416 0.880416 0.880416
0.902136 0.902136 0.902136
0.923512 0.923512 0.923512
0.944550 0.944550 0.944550
0.965255 0.965255 0.965255
0.970000 0.970000 0.970000
0.970000 0.970000 0.970000
0.051890 0.051890 0.051890
0.093344 0.093344 0.093344
0.132557 0.132557 0.132557
0.170079 0.170079 0.170079
0.206227 0.206227 0.206227
0.241209 0.241209 0.241209
0.275171 0.275171 0.275171
0.308223 0.308223 0.308223
0.340448 0.340448 0.340448
0.183386 0.183386 0.183386
0.219089 0.219089 0.219089
0.253685 0.253685 0.253685
0.287305 0.287305 0.287305
0.320046 0.320046 0.320046
0.351988 0.351988 0.351988
0.383191 0.383191 0.383191
0.413707 0.413707 0.413707
0.443579 0.443579 0.443579
0.299322 0.299322 0.299322
0.331764 0.331764 0.331764
0.363430 0.363430 0.363430
0.394378 0.394378 0.394378
0.424655 0.424655 0.424655
0.454302 0.454302 0.454302
0.483352 0.483352 0.483352
0.511837 0.511837 0.511837
0.539782 0.539782 0.539782
0.405476 0.405476 0.405476
0.435519 0.435519 0.435519
0.464945 0.464945 0.464945
0.493787 0.493787 0.493787
0.522072 0.522072 0.522072
0.549826 0.549826 0.549826
0.577070 0.577070 0.577070
0.603825 0.603825 0.603825
0.630107 0.630107 0.630107
0.504147 0.504147 0.504147
0.532236 0.532236 0.532236
0.559802 0.559802 0.559802
0.586866 0.586866 0.586866
0.613447 0.613447 0.613447
0.639562 0.639562 0.639562
0.665225 0.665225 0.665225
0.690451 0.690451 0.690451
0.715253 0.715253 0.715253
0.596598 0.596598 0.596598
0.623008 0.623008 0.623008
0.648956 0.648956 0.648956
0.674459 0.674459 0.674459
0.699529 0.699529 0.699529
0.724180 0.724180 0.724180
0.748421 0.748421 0.748421
0.772265 0.772265 0.772265
0.795719 0.795719 0.795719
0.683636 0.683636 0.683636
0.708552 0.708552 0.708552
0.733052 0.733052 0.733052
0.757147 0.757147 0.757147
0.780848 0.780848 0.780848
0.804164 0.804164 0.804164
0.827103 0.827103 0.827103
0.849673 0.849673 0.849673
0.871883 0.871883 0.871883
0.765821 0.765821 0.765821
0.789381 0.789381 0.789381
0.812558 0.812558 0.812558
0.835362 0.835362 0.835362
0.857800 0.857800 0.857800
0.879880 0.879880 0.879880
0.901609 0.901609 0.901609
0.922993 0.922993 0.922993
0.944039 0.944039 0.944039
0.843573 0.843573 0.843573
0.865880 0.865880 0.865880
0.887831 0.887831 0.887831
0.909434 0.909434 0.909434
0.930694 0.930694 0.930694
0.951618 0.951618 0.951618
0.970000 0.970000 0.970000
0.970000 0.970000 0.970000
0.970000 0.970000 0.970000
0.066271 0.066271 0.066271
0.106877 0.106877 0.106877
0.145470 0.145470 0.145470
0.182497 0.182497 0.182497
0.218230 0.218230 0.218230
0.252851 0.252851 0.252851
0.286493 0.286493 0.286493
0.319255 0.319255 0.319255
0.351216 0.351216 0.351216
0.195645 0.195645 0.195645
0.230955 0.230955 0.230955
0.265206 0.265206 0.265206
0.298518 0.298518 0.298518
0.330980 0.330980 0.330980
0.362665 0.362665 0.362665
0.393629 0.393629 0.393629
0.423922 0.423922 0.423922
0.453584 0.453584 0.453584
0.310431 0.310431 0.310431
0.342602 0.342602 0.342602
0.374018 0.374018 0.374018
0.404733 0.404733 0.404733
0.434792 0.434792 0.434792
0.464233 0.464233 0.464233
0.493088 0.493088 0.493088
0.521386 0.521386 0.521386
0.549153 0.549153 0.549153
0.415750 0.415750 0.415750
0.445580 0.445580 0.445580
0.474804 0.474804 0.474804
0.503454 0.503454 0.503454
0.531556 0.531556 0.531556
0.559134 0.559134 0.559134
0.586210 0.586210 0.586210
0.612803 0.612803 0.612803
0.638928 0.638928 0.638928
0.513747 0.513747 0.513747
0.541655 0.541655 0.541655
0.569049 0.569049 0.569049
0.595947 0.595947 0.595947
0.622367 0.622367 0.622367
0.648327 0.648327 0.648327
0.673840 0.673840 0.673840
0.698921 0.698921 0.698921
0.723582 0.723582 0.723582
0.605620 0.605620 0.605620
0.631871 0.631871 0.631871
0.657666 0.657666 0.657666
0.683021 0.683021 0.683021
0.707947 0.707947 0.707947
0.732458 0.732458 0.732458
0.756563 0.756563 0.756563
0.780273 0.780273 0.780273
0.803598 0.803598 0.803598
0.692145 0.692145 0.692145
0.716918 0.716918 0.716918
0.741280 0.741280 0.741280
0.765240 0.765240 0.765240
0.788809 0.788809 0.788809
0.811996 0.811996 0.811996
0.834808 0.834808 0.834808
0.857256 0.857256 0.857256
0.879344 0.879344 0.879344
0.773866 0.773866 0.773866
0.797294 0.797294 0.797294
0.820344 0.820344 0.820344
0.843023 0.843023 0.843023
0.865338 0.865338 0.865338
0.887298 0.887298 0.887298
0.908910 0.908910 0.908910
0.930178 0.930178 0.930178
0.951110 0.951110 0.951110
0.851189 0.851189 0.851189
0.873374 0.873374 0.873374
0.895206 0.895206 0.895206
0.916692 0.916692 0.916692
0.937837 0.937837 0.937837
0.958648 0.958648 0.958648
0.970000 0.970000 0.970000
0.970000 0.970000 0.970000
0.970000 0.970000 0.970000
0.080327 0.080327 0.080327
0.120182 0.120182 0.120182
0.158204 0.158204 0.158204
0.194767 0.194767 0.194767
0.230104 0.230104 0.230104
0.264380 0.264380 0.264380
0.297714 0.297714 0.297714
0.330196 0.330196 0.330196
0.361898 0.361898 0.361898
0.207764 0.207764 0.207764
0.242699 0.242699 0.242699
0.276620 0.276620 0.276620
0.309634 0.309634 0.309634
0.341824 0.341824 0.341824
0.373258 0.373258 0.373258
0.403990 0.403990 0.403990
0.434064 0.434064 0.434064
0.463520 0.463520 0.463520
0.321445 0.321445 0.321445
0.353353 0.353353 0.353353
0.384525 0.384525 0.384525
0.415013 0.415013 0.415013
0.444858 0.444858 0.444858
0.474096 0.474096 0.474096
0.502759 0.502759 0.502759
0.530875 0.530875 0.530875
0.558466 0.558466 0.558466
0.425951 0.425951 0.425951
0.455571 0.455571 0.455571
0.484596 0.484596 0.484596
0.513057 0.513057 0.513057
0.540979 0.540979 0.540979
0.568385 0.568385 0.568385
0.595295 0.595295 0.595295
0.621727 0.621727 0.621727
0.647697 0.647697 0.647697
0.523284 0.523284 0.523284
0.551015 0.551015 0.551015
0.578238 0.578238 0.578238
0.604972 0.604972 0.604972
0.631234 0.631234 0.631234
0.657041 0.657041 0.657041
0.682406 0.682406 0.682406
0.707343 0.707343 0.707343
0.731863 0.731863 0.731863
0.614587 0.614587 0.614587
0.640681 0.640681 0.640681
0.666326 0.666326 0.666326
0.691533 0.691533 0.691533
0.716317 0.716317 0.716317
0.740689 0.740689 0.740689
0.764659 0.764659 0.764659
0.788237 0.788237 0.788237
0.811433 0.811433 0.811433
0.700605 0.700605 0.700605
0.725237 0.725237 0.725237
0.749461 0.749461 0.749461
0.773288 0.773288 0.773288
0.796726 0.796726 0.796726
0.819784 0.819784 0.819784
0.842472 0.842472 0.842472
0.864797 0.864797 0.864797
0.886765 0.886765 0.886765
0.781865 0.781865 0.781865
0.805164 0.805164 0.805164
0.828087 0.828087 0.828087
0.850641 0.850641 0.850641
0.872836 0.872836 0.872836
0.894676 0.894676 0.894676
0.916171 0.916171 0.916171
0.937324 0.937324 0.937324
0.958143 0.958143 0.958143
0.858763 0.858763 0.858763
0.880828 0.880828 0.880828
0.902541 0.902541 0.902541
0.923911 0.923911 0.923911
0.944942 0.944942 0.944942
0.965641 0.965641 0.965641
0.970000 0.970000 0.970000
0.970000 0.970000 0.970000
0.970000 0.970000 0.970000
