luts/film_stocks/kodak_vision3_500t.cube
TITLE "Kodak Vision3 500T"
LUT_3D_SIZE 17
DOMAIN_MIN 0.0 0.0 0.0
DOMAIN_MAX 1.0 1.0 1.0
0.109428 0.028574 0.003390
0.170634 0.030908 0.004501
0.230261 0.033183 0.005583
0.288729 0.035413 0.006644
0.346257 0.037607 0.007688
0.402980 0.039771 0.008717
0.458988 0.041907 0.009734
0.514349 0.044019 0.010738
0.569113 0.046108 0.011732
0.623320 0.048176 0.012716
0.677002 0.050223 0.013690
0.730184 0.052252 0.014655
0.782891 0.054262 0.015612
0.835139 0.056255 0.016560
0.886947 0.058232 0.017500
0.919879 0.059488 0.018098
0.919879 0.059488 0.018098
0.113033 0.089608 0.006959
0.174239 0.091943 0.008070
0.233866 0.094217 0.009152
0.292334 0.096447 0.010213
0.349862 0.098642 0.011257
0.406585 0.100805 0.012287
0.462593 0.102942 0.013303
0.517954 0.105053 0.014308
0.572719 0.107142 0.015302
0.626925 0.109210 0.016285
0.680607 0.111258 0.017260
0.733789 0.113286 0.018225
0.786496 0.115297 0.019181
0.838744 0.117290 0.020130
0.890552 0.119266 0.021070
0.923484 0.120522 0.021667
0.923484 0.120522 0.021667
0.116629 0.150489 0.010520
0.177835 0.152824 0.011630
0.237462 0.155099 0.012713
0.295930 0.157329 0.013774
0.353458 0.159523 0.014818
0.410181 0.161687 0.015847
0.466189 0.163823 0.016864
0.521551 0.165935 0.017868
0.576315 0.168024 0.018862
0.630521 0.170092 0.019846
0.684203 0.172139 0.020820
0.737385 0.174168 0.021785
0.790092 0.176178 0.022742
0.842340 0.178171 0.023690
0.894148 0.180148 0.024630
0.927080 0.181404 0.025228
0.927080 0.181404 0.025228
0.120216 0.211218 0.014071
0.181422 0.213553 0.015182
0.241049 0.215827 0.016264
0.299517 0.218058 0.017325
0.357045 0.220252 0.018369
0.413768 0.222416 0.019399
0.469776 0.224552 0.020415
0.525138 0.226664 0.021420
0.579902 0.228753 0.022414
0.634108 0.230820 0.023397
0.687790 0.232868 0.024372
0.740972 0.234897 0.025337
0.793679 0.236907 0.026293
0.845927 0.238900 0.027241
0.897735 0.240876 0.028182
0.930667 0.242132 0.028779
0.930667 0.242132 0.028779
0.123794 0.271794 0.017614
0.185000 0.274129 0.018725
0.244627 0.276403 0.019807
0.303095 0.278633 0.020868
0.360623 0.280828 0.021912
0.417346 0.282991 0.022941
0.473354 0.285128 0.023958
0.528716 0.287239 0.024962
0.583480 0.289328 0.025956
0.637686 0.291396 0.026940
0.691368 0.293444 0.027914
0.744550 0.295472 0.028879
0.797257 0.297483 0.029836
0.849505 0.299476 0.030784
0.901313 0.301452 0.031724
0.934245 0.302708 0.032322
0.934245 0.302708 0.032322
0.127363 0.332217 0.021147
0.188569 0.334552 0.022258
0.248196 0.336826 0.023340
0.306664 0.339056 0.024401
0.364192 0.341251 0.025445
0.420915 0.343414 0.026475
0.476923 0.345551 0.027491
0.532284 0.347662 0.028496
0.587049 0.349751 0.029490
0.641255 0.351819 0.030474
0.694937 0.353867 0.031448
0.748119 0.355895 0.032413
0.800826 0.357906 0.033369
0.853074 0.359899 0.034318
0.904882 0.361875 0.035258
0.937814 0.363131 0.035856
0.937814 0.363131 0.035856
0.130923 0.392487 0.024672
0.192129 0.394822 0.025783
0.251756 0.397096 0.026865
0.310224 0.399326 0.027926
0.367752 0.401521 0.028970
0.424475 0.403684 0.029999
0.480483 0.405821 0.031016
0.535844 0.407932 0.032021
0.590608 0.410021 0.033014
0.644815 0.412089 0.033998
0.698497 0.414137 0.034972
0.751679 0.416165 0.035938
0.804386 0.418176 0.036894
0.856634 0.420169 0.037842
0.908442 0.422145 0.038783
0.941374 0.423401 0.039380
0.941374 0.423401 0.039380
0.134473 0.452604 0.028188
0.195680 0.454939 0.029299
0.255306 0.457213 0.030381
0.313775 0.459443 0.031442
0.371303 0.461638 0.032486
0.428026 0.463801 0.033515
0.484034 0.465938 0.034532
0.539395 0.468050 0.035536
0.594159 0.470139 0.036530
0.648366 0.472206 0.037514
0.702048 0.474254 0.038488
0.755230 0.476283 0.039453
0.807936 0.478293 0.040410
0.860185 0.480286 0.041358
0.911993 0.482262 0.042298
0.944925 0.483518 0.042896
0.944925 0.483518 0.042896
0.138015 0.512568 0.031695
0.199221 0.514903 0.032805
0.258848 0.517178 0.033887
0.317317 0.519408 0.034949
0.374845 0.521602 0.035993
0.431567 0.523766 0.037022
0.487576 0.525902 0.038038
0.542937 0.528014 0.039043
0.597701 0.530103 0.040037
0.651908 0.532171 0.041021
0.705589 0.534218 0.041995
0.758772 0.536247 0.042960
0.811478 0.538257 0.043917
0.863727 0.540250 0.044865
0.915535 0.542226 0.045805
0.948467 0.543483 0.046403
0.948467 0.543483 0.046403
0.141548 0.572380 0.035192
0.202754 0.574715 0.036303
0.262381 0.576989 0.037385
0.320850 0.579219 0.038446
0.378378 0.581414 0.039490
0.435100 0.583577 0.040520
0.491109 0.585714 0.041536
0.546470 0.587825 0.042541
0.601234 0.589914 0.043535
0.655441 0.591982 0.044519
0.709122 0.594030 0.045493
0.762305 0.596058 0.046458
0.815011 0.598069 0.047415
0.867260 0.600062 0.048363
0.919068 0.602038 0.049303
0.952000 0.603294 0.049901
0.952000 0.603294 0.049901
0.145072 0.632038 0.038681
0.206278 0.634373 0.039792
0.265905 0.636648 0.040874
0.324373 0.638878 0.041935
0.381901 0.641072 0.042979
0.438624 0.643236 0.044009
0.494633 0.645372 0.045025
0.549994 0.647484 0.046030
0.604758 0.649573 0.047024
0.658965 0.651641 0.048008
0.712646 0.653688 0.048982
0.765829 0.655717 0.049947
0.818535 0.657727 0.050903
0.870784 0.659720 0.051852
0.922591 0.661696 0.052792
0.955523 0.662953 0.053390
0.955523 0.662953 0.053390
0.148587 0.691544 0.042161
0.209793 0.693879 0.043272
0.269420 0.696153 0.044354
0.327888 0.698384 0.045415
0.385416 0.700578 0.046459
0.442139 0.702742 0.047489
0.498148 0.704878 0.048505
0.553509 0.706990 0.049510
0.608273 0.709079 0.050504
0.662479 0.711146 0.051488
0.716161 0.713194 0.052462
0.769344 0.715223 0.053427
0.822050 0.717233 0.054383
0.874298 0.719226 0.055332
0.926106 0.721202 0.056272
0.959038 0.722458 0.056870
0.959038 0.722458 0.056870
0.152093 0.750897 0.045632
0.213299 0.753232 0.046743
0.272926 0.755506 0.047825
0.331394 0.757736 0.048886
0.388922 0.759931 0.049930
0.445645 0.762094 0.050960
0.501653 0.764231 0.051976
0.557014 0.766343 0.052981
0.611778 0.768431 0.053975
0.665985 0.770499 0.054959
0.719667 0.772547 0.055933
0.772849 0.774575 0.056898
0.825556 0.776586 0.057854
0.877804 0.778579 0.058803
0.929612 0.780555 0.059743
0.962544 0.781811 0.060341
0.962544 0.781811 0.060341
0.155589 0.810097 0.049095
0.216795 0.812432 0.050205
0.276422 0.814706 0.051287
0.334891 0.816936 0.052348
0.392419 0.819131 0.053393
0.449141 0.821294 0.054422
0.505150 0.823431 0.055438
0.560511 0.825542 0.056443
0.615275 0.827631 0.057437
0.669482 0.829699 0.058421
0.723163 0.831747 0.059395
0.776346 0.833775 0.060360
0.829052 0.835786 0.061317
0.881301 0.837779 0.062265
0.933109 0.839755 0.063205
0.966041 0.841011 0.063803
0.966041 0.841011 0.063803
0.159077 0.869144 0.052548
0.220283 0.871479 0.053658
0.279910 0.873753 0.054741
0.338378 0.875983 0.055802
0.395906 0.878178 0.056846
0.452629 0.880341 0.057875
0.508638 0.882478 0.058892
0.563999 0.884590 0.059896
0.618763 0.886679 0.060890
0.672970 0.888746 0.061874
0.726651 0.890794 0.062848
0.779834 0.892822 0.063813
0.832540 0.894833 0.064770
0.884789 0.896826 0.065718
0.936596 0.898802 0.066658
0.969528 0.900058 0.067256
0.969528 0.900058 0.067256
0.162556 0.928038 0.055992
0.223762 0.930373 0.057103
0.283389 0.932647 0.058185
0.341857 0.934878 0.059246
0.399385 0.937072 0.060290
0.456108 0.939236 0.061319
0.512116 0.941372 0.062336
0.567477 0.943484 0.063340
0.622242 0.945573 0.064334
0.676448 0.947640 0.065318
0.730130 0.949688 0.066292
0.783312 0.951717 0.067257
0.836019 0.953727 0.068214
0.888267 0.955720 0.069162
0.940075 0.957696 0.070102
0.973007 0.958953 0.070700
0.973007 0.958953 0.070700
0.165193 0.972696 0.058604
0.226399 0.975030 0.059714
0.286026 0.977305 0.060796
0.344495 0.979535 0.061858
0.402023 0.981729 0.062902
0.458745 0.983893 0.063931
0.514754 0.986029 0.064947
0.570115 0.988141 0.065952
0.624879 0.990230 0.066946
0.679086 0.992298 0.067930
0.732767 0.994345 0.068904
0.785950 0.996374 0.069869
0.838656 0.998385 0.070826
0.890905 1.000000 0.071774
0.942713 1.000000 0.072714
0.975645 1.000000 0.073312
0.975645 1.000000 0.073312
0.109428 0.028574 0.003390
0.170634 0.030908 0.004501
0.230261 0.033183 0.005583
0.288729 0.035413 0.006644
0.346257 0.037607 0.007688
0.402980 0.039771 0.008717
0.458988 0.041907 0.009734
0.514349 0.044019 0.010738
0.569113 0.046108 0.011732
0.623320 0.048176 0.012716
0.677002 0.050223 0.013690
0.730184 0.052252 0.014655
0.782891 0.054262 0.015612
0.835139 0.056255 0.016560
0.886947 0.058232 0.017500
0.919879 0.059488 0.018098
0.919879 0.059488 0.018098
0.113033 0.089608 0.006959
0.174239 0.091943 0.008070
0.233866 0.094217 0.009152
0.292334 0.096447 0.010213
0.349862 0.098642 0.011257
0.406585 0.100805 0.012287
0.462593 0.102942 0.013303
0.517954 0.105053 0.014308
0.572719 0.107142 0.015302
0.626925 0.109210 0.016285
0.680607 0.111258 0.017260
0.733789 0.113286 0.018225
0.786496 0.115297 0.019181
0.838744 0.117290 0.020130
0.890552 0.119266 0.021070
0.923484 0.120522 0.021667
0.923484 0.120522 0.021667
0.116629 0.150489 0.010520
0.177835 0.152824 0.011630
0.237462 0.155099 0.012713
0.295930 0.157329 0.013774
0.353458 0.159523 0.014818
0.410181 0.161687 0.015847
0.466189 0.163823 0.016864
0.521551 0.165935 0.017868
0.576315 0.168024 0.018862
0.630521 0.170092 0.019846
0.684203 0.172139 0.020820
0.737385 0.174168 0.021785
0.790092 0.176178 0.022742
0.842340 0.178171 0.023690
0.894148 0.180148 0.024630
0.927080 0.181404 0.025228
0.927080 0.181404 0.025228
0.120216 0.211218 0.014071
0.181422 0.213553 0.015182
0.241049 0.215827 0.016264
0.299517 0.218058 0.017325
0.357045 0.220252 0.018369
0.413768 0.222416 0.019399
0.469776 0.224552 0.020415
0.525138 0.226664 0.021420
0.579902 0.228753 0.022414
0.634108 0.230820 0.023397
0.687790 0.232868 0.024372
0.740972 0.234897 0.025337
0.793679 0.236907 0.026293
0.845927 0.238900 0.027241
0.897735 0.240876 0.028182
0.930667 0.242132 0.028779
0.930667 0.242132 0.028779
0.123794 0.271794 0.017614
0.185000 0.274129 0.018725
0.244627 0.276403 0.019807
0.303095 0.278633 0.020868
0.360623 0.280828 0.021912
0.417346 0.282991 0.022941
0.473354 0.285128 0.023958
0.528716 0.287239 0.024962
0.583480 0.289328 0.025956
0.637686 0.291396 0.026940
0.691368 0.293444 0.027914
0.744550 0.295472 0.028879
0.797257 0.297483 0.029836
0.849505 0.299476 0.030784
0.901313 0.301452 0.031724
0.934245 0.302708 0.032322
0.934245 0.302708 0.032322
0.127363 0.332217 0.021147
0.188569 0.334552 0.022258
0.248196 0.336826 0.023340
0.306664 0.339056 0.024401
0.364192 0.341251 0.025445
0.420915 0.343414 0.026475
0.476923 0.345551 0.027491
0.532284 0.347662 0.028496
0.587049 0.349751 0.029490
0.641255 0.351819 0.030474
0.694937 0.353867 0.031448
0.748119 0.355895 0.032413
0.800826 0.357906 0.033369
0.853074 0.359899 0.034318
0.904882 0.361875 0.035258
0.937814 0.363131 0.035856
0.937814 0.363131 0.035856
0.130923 0.392487 0.024672
0.192129 0.394822 0.025783
0.251756 0.397096 0.026865
0.310224 0.399326 0.027926
0.367752 0.401521 0.028970
0.424475 0.403684 0.029999
0.480483 0.405821 0.031016
0.535844 0.407932 0.032021
0.590608 0.410021 0.033014
0.644815 0.412089 0.033998
0.698497 0.414137 0.034972
0.751679 0.416165 0.035938
0.804386 0.418176 0.036894
0.856634 0.420169 0.037842
0.908442 0.422145 0.038783
0.941374 0.423401 0.039380
0.941374 0.423401 0.039380
0.134473 0.452604 0.028188
0.195680 0.454939 0.029299
0.255306 0.457213 0.030381
0.313775 0.459443 0.031442
0.371303 0.461638 0.032486
0.428026 0.463801 0.033515
0.484034 0.465938 0.034532
0.539395 0.468050 0.035536
0.594159 0.470139 0.036530
0.648366 0.472206 0.037514
0.702048 0.474254 0.038488
0.755230 0.476283 0.039453
0.807936 0.478293 0.040410
0.860185 0.480286 0.041358
0.911993 0.482262 0.042298
0.944925 0.483518 0.042896
0.944925 0.483518 0.042896
0.138015 0.512568 0.031695
0.199221 0.514903 0.032805
0.258848 0.517178 0.033887
0.317317 0.519408 0.034949
0.374845 0.521602 0.035993
0.431567 0.523766 0.037022
0.487576 0.525902 0.038038
0.542937 0.528014 0.039043
0.597701 0.530103 0.040037
0.651908 0.532171 0.041021
0.705589 0.534218 0.041995
0.758772 0.536247 0.042960
0.811478 0.538257 0.043917
0.863727 0.540250 0.044865
0.915535 0.542226 0.045805
0.948467 0.543483 0.046403
0.948467 0.543483 0.046403
0.141548 0.572380 0.035192
0.202754 0.574715 0.036303
0.262381 0.576989 0.037385
0.320850 0.579219 0.038446
0.378378 0.581414 0.039490
0.435100 0.583577 0.040520
0.491109 0.585714 0.041536
0.546470 0.587825 0.042541
0.601234 0.589914 0.043535
0.655441 0.591982 0.044519
0.709122 0.594030 0.045493
0.762305 0.596058 0.046458
0.815011 0.598069 0.047415
0.867260 0.600062 0.048363
0.919068 0.602038 0.049303
0.952000 0.603294 0.049901
0.952000 0.603294 0.049901
0.145072 0.632038 0.038681
0.206278 0.634373 0.039792
0.265905 0.636648 0.040874
0.324373 0.638878 0.041935
0.381901 0.641072 0.042979
0.438624 0.643236 0.044009
0.494633 0.645372 0.045025
0.549994 0.647484 0.046030
0.604758 0.649573 0.047024
0.658965 0.651641 0.048008
0.712646 0.653688 0.048982
0.765829 0.655717 0.049947
0.818535 0.657727 0.050903
0.870784 0.659720 0.051852
0.922591 0.661696 0.052792
0.955523 0.662953 0.053390
0.955523 0.662953 0.053390
0.148587 0.691544 0.042161
0.209793 0.693879 0.043272
0.269420 0.696153 0.044354
0.327888 0.698384 0.045415
0.385416 0.700578 0.046459
0.442139 0.702742 0.047489
0.498148 0.704878 0.048505
0.553509 0.706990 0.049510
0.608273 0.709079 0.050504
0.662479 0.711146 0.051488
0.716161 0.713194 0.052462
0.769344 0.715223 0.053427
0.822050 0.717233 0.054383
0.874298 0.719226 0.055332
0.926106 0.721202 0.056272
0.959038 0.722458 0.056870
0.959038 0.722458 0.056870
0.152093 0.750897 0.045632
0.213299 0.753232 0.046743
0.272926 0.755506 0.047825
0.331394 0.757736 0.048886
0.388922 0.759931 0.049930
0.445645 0.762094 0.050960
0.501653 0.764231 0.051976
0.557014 0.766343 0.052981
0.611778 0.768431 0.053975
0.665985 0.770499 0.054959
0.719667 0.772547 0.055933
0.772849 0.774575 0.056898
0.825556 0.776586 0.057854
0.877804 0.778579 0.058803
0.929612 0.780555 0.059743
0.962544 0.781811 0.060341
0.962544 0.781811 0.060341
0.155589 0.810097 0.049095
0.216795 0.812432 0.050205
0.276422 0.814706 0.051287
0.334891 0.816936 0.052348
0.392419 0.819131 0.053393
0.449141 0.821294 0.054422
0.505150 0.823431 0.055438
0.560511 0.825542 0.056443
0.615275 0.827631 0.057437
0.669482 0.829699 0.058421
0.723163 0.831747 0.059395
0.776346 0.833775 0.060360
0.829052 0.835786 0.061317
0.881301 0.837779 0.062265
0.933109 0.839755 0.063205
0.966041 0.841011 0.063803
0.966041 0.841011 0.063803
0.159077 0.869144 0.052548
0.220283 0.871479 0.053658
0.279910 0.873753 0.054741
0.338378 0.875983 0.055802
0.395906 0.878178 0.056846
0.452629 0.880341 0.057875
0.508638 0.882478 0.058892
0.563999 0.884590 0.059896
0.618763 0.886679 0.060890
0.672970 0.888746 0.061874
0.726651 0.890794 0.062848
0.779834 0.892822 0.063813
0.832540 0.894833 0.064770
0.884789 0.896826 0.065718
0.936596 0.898802 0.066658
0.969528 0.900058 0.067256
0.969528 0.900058 0.067256
0.162556 0.928038 0.055992
0.223762 0.930373 0.057103
0.283389 0.932647 0.058185
0.341857 0.934878 0.059246
0.399385 0.937072 0.060290
0.456108 0.939236 0.061319
0.512116 0.941372 0.062336
0.567477 0.943484 0.063340
0.622242 0.945573 0.064334
0.676448 0.947640 0.065318
0.730130 0.949688 0.066292
0.783312 0.951717 0.067257
0.836019 0.953727 0.068214
0.888267 0.955720 0.069162
0.940075 0.957696 0.070102
0.973007 0.958953 0.070700
0.973007 0.958953 0.070700
0.165193 0.972696 0.058604
0.226399 0.975030 0.059714
0.286026 0.977305 0.060796
0.344495 0.979535 0.061858
0.402023 0.981729 0.062902
0.458745 0.983893 0.063931
0.514754 0.986029 0.064947
0.570115 0.988141 0.065952
0.624879 0.990230 0.066946
0.679086 0.992298 0.067930
0.732767 0.994345 0.068904
0.785950 0.996374 0.069869
0.838656 0.998385 0.070826
0.890905 1.000000 0.071774
0.942713 1.000000 0.072714
0.975645 1.000000 0.073312
0.975645 1.000000 0.073312
0.109963 0.028783 0.036363
0.171169 0.031118 0.037474
0.230796 0.033393 0.038556
0.289264 0.035623 0.039617
0.346792 0.037817 0.040661
0.403515 0.039981 0.041691
0.459524 0.042117 0.042707
0.514885 0.044229 0.043712
0.569649 0.046318 0.044706
0.623856 0.048386 0.045689
0.677537 0.050433 0.046664
0.730720 0.052462 0.047629
0.783426 0.054472 0.048585
0.835675 0.056465 0.049534
0.887482 0.058441 0.050474
0.920414 0.059698 0.051071
0.920414 0.059698 0.051071
0.113568 0.089818 0.039933
0.174774 0.092152 0.041043
0.234401 0.094427 0.042126
0.292869 0.096657 0.043187
0.350398 0.098852 0.044231
0.407120 0.101015 0.045260
0.463129 0.103152 0.046277
0.518490 0.105263 0.047281
0.573254 0.107352 0.048275
0.627461 0.109420 0.049259
0.681142 0.111468 0.050233
0.734325 0.113496 0.051198
0.787031 0.115507 0.052155
0.839280 0.117500 0.053103
0.891087 0.119476 0.054043
0.924019 0.120732 0.054641
0.924019 0.120732 0.054641
0.117164 0.150699 0.043493
0.178370 0.153034 0.044604
0.237997 0.155308 0.045686
0.296465 0.157539 0.046747
0.353994 0.159733 0.047791
0.410716 0.161897 0.048821
0.466725 0.164033 0.049837
0.522086 0.166145 0.050842
0.576850 0.168234 0.051836
0.631057 0.170301 0.052819
0.684738 0.172349 0.053794
0.737921 0.174378 0.054759
0.790627 0.176388 0.055715
0.842876 0.178381 0.056663
0.894683 0.180357 0.057604
0.927616 0.181614 0.058201
0.927616 0.181614 0.058201
0.120751 0.211428 0.047045
0.181957 0.213763 0.048155
0.241584 0.216037 0.049238
0.300052 0.218267 0.050299
0.357581 0.220462 0.051343
0.414303 0.222625 0.052372
0.470312 0.224762 0.053388
0.525673 0.226874 0.054393
0.580437 0.228962 0.055387
0.634644 0.231030 0.056371
0.688325 0.233078 0.057345
0.741508 0.235106 0.058310
0.794214 0.237117 0.059267
0.846463 0.239110 0.060215
0.898270 0.241086 0.061155
0.931203 0.242342 0.061753
0.931203 0.242342 0.061753
0.124329 0.272004 0.050587
0.185535 0.274338 0.051698
0.245162 0.276613 0.052780
0.303630 0.278843 0.053841
0.361159 0.281038 0.054885
0.417881 0.283201 0.055915
0.473890 0.285338 0.056931
0.529251 0.287449 0.057936
0.584015 0.289538 0.058930
0.638222 0.291606 0.059913
0.691903 0.293654 0.060888
0.745086 0.295682 0.061853
0.797792 0.297693 0.062809
0.850041 0.299686 0.063757
0.901848 0.301662 0.064698
0.934781 0.302918 0.065295
0.934781 0.302918 0.065295
0.127898 0.332427 0.054121
0.189104 0.334761 0.055232
0.248731 0.337036 0.056314
0.307199 0.339266 0.057375
0.364728 0.341460 0.058419
0.421450 0.343624 0.059448
0.477459 0.345761 0.060465
0.532820 0.347872 0.061469
0.587584 0.349961 0.062463
0.641791 0.352029 0.063447
0.695472 0.354077 0.064421
0.748655 0.356105 0.065386
0.801361 0.358116 0.066343
0.853610 0.360109 0.067291
0.905417 0.362085 0.068231
0.938350 0.363341 0.068829
0.938350 0.363341 0.068829
0.131458 0.392697 0.057645
0.192664 0.395031 0.058756
0.252291 0.397306 0.059838
0.310759 0.399536 0.060899
0.368287 0.401730 0.061943
0.425010 0.403894 0.062973
0.481019 0.406031 0.063989
0.536380 0.408142 0.064994
0.591144 0.410231 0.065988
0.645351 0.412299 0.066972
0.699032 0.414347 0.067946
0.752215 0.416375 0.068911
0.804921 0.418386 0.069868
0.857170 0.420379 0.070816
0.908977 0.422355 0.071756
0.941909 0.423611 0.072354
0.941909 0.423611 0.072354
0.135009 0.452814 0.061161
0.196215 0.455149 0.062272
0.255842 0.457423 0.063354
0.314310 0.459653 0.064415
0.371838 0.461848 0.065459
0.428561 0.464011 0.066489
0.484570 0.466148 0.067505
0.539931 0.468259 0.068510
0.594695 0.470348 0.069504
0.648902 0.472416 0.070487
0.702583 0.474464 0.071462
0.755766 0.476492 0.072427
0.808472 0.478503 0.073383
0.860721 0.480496 0.074332
0.912528 0.482472 0.075272
0.945460 0.483728 0.075869
0.945460 0.483728 0.075869
0.138551 0.512778 0.064668
0.199757 0.515113 0.065779
0.259384 0.517387 0.066861
0.317852 0.519618 0.067922
0.375380 0.521812 0.068966
0.432103 0.523976 0.069995
0.488112 0.526112 0.071012
0.543473 0.528224 0.072017
0.598237 0.530313 0.073010
0.652443 0.532380 0.073994
0.706125 0.534428 0.074968
0.759308 0.536457 0.075934
0.812014 0.538467 0.076890
0.864262 0.540460 0.077838
0.916070 0.542436 0.078779
0.949002 0.543692 0.079376
0.949002 0.543692 0.079376
0.142084 0.572590 0.068166
0.203290 0.574924 0.069277
0.262917 0.577199 0.070359
0.321385 0.579429 0.071420
0.378913 0.581623 0.072464
0.435636 0.583787 0.073493
0.491644 0.585924 0.074510
0.547005 0.588035 0.075514
0.601770 0.590124 0.076508
0.655976 0.592192 0.077492
0.709658 0.594240 0.078466
0.762840 0.596268 0.079431
0.815547 0.598279 0.080388
0.867795 0.600272 0.081336
0.919603 0.602248 0.082276
0.952535 0.603504 0.082874
0.952535 0.603504 0.082874
0.145607 0.632248 0.071655
0.206814 0.634583 0.072766
0.266440 0.636857 0.073848
0.324909 0.639088 0.074909
0.382437 0.641282 0.075953
0.439160 0.643446 0.076982
0.495168 0.645582 0.077999
0.550529 0.647694 0.079003
0.605293 0.649783 0.079997
0.659500 0.651850 0.080981
0.713182 0.653898 0.081955
0.766364 0.655927 0.082920
0.819070 0.657937 0.083877
0.871319 0.659930 0.084825
0.923127 0.661906 0.085765
0.956059 0.663163 0.086363
0.956059 0.663163 0.086363
0.149122 0.691754 0.075135
0.210328 0.694089 0.076246
0.269955 0.696363 0.077328
0.328424 0.698593 0.078389
0.385952 0.700788 0.079433
0.442674 0.702951 0.080462
0.498683 0.705088 0.081479
0.554044 0.707200 0.082483
0.608808 0.709288 0.083477
0.663015 0.711356 0.084461
0.716696 0.713404 0.085435
0.769879 0.715432 0.086400
0.822585 0.717443 0.087357
0.874834 0.719436 0.088305
0.926642 0.721412 0.089245
0.959574 0.722668 0.089843
0.959574 0.722668 0.089843
0.152628 0.751107 0.078606
0.213834 0.753441 0.079717
0.273461 0.755716 0.080799
0.331929 0.757946 0.081860
0.389457 0.760141 0.082904
0.446180 0.762304 0.083933
0.502189 0.764441 0.084950
0.557550 0.766552 0.085954
0.612314 0.768641 0.086948
0.666521 0.770709 0.087932
0.720202 0.772757 0.088906
0.773385 0.774785 0.089871
0.826091 0.776796 0.090828
0.878340 0.778789 0.091776
0.930147 0.780765 0.092716
0.963079 0.782021 0.093314
0.963079 0.782021 0.093314
0.156125 0.810307 0.082068
0.217331 0.812641 0.083179
0.276958 0.814916 0.084261
0.335426 0.817146 0.085322
0.392954 0.819341 0.086366
0.449677 0.821504 0.087395
0.505685 0.823641 0.088412
0.561047 0.825752 0.089417
0.615811 0.827841 0.090410
0.670017 0.829909 0.091394
0.723699 0.831957 0.092368
0.776881 0.833985 0.093334
0.829588 0.835996 0.094290
0.881836 0.837989 0.095238
0.933644 0.839965 0.096178
0.966576 0.841221 0.096776
0.966576 0.841221 0.096776
0.159612 0.869354 0.085521
0.220818 0.871689 0.086632
0.280445 0.873963 0.087714
0.338914 0.876193 0.088775
0.396442 0.878388 0.089819
0.453165 0.880551 0.090849
0.509173 0.882688 0.091865
0.564534 0.884799 0.092870
0.619298 0.886888 0.093864
0.673505 0.888956 0.094847
0.727186 0.891004 0.095822
0.780369 0.893032 0.096787
0.833075 0.895043 0.097743
0.885324 0.897036 0.098691
0.937132 0.899012 0.099632
0.970064 0.900268 0.100229
0.970064 0.900268 0.100229
0.163091 0.928248 0.088965
0.224297 0.930583 0.090076
0.283924 0.932857 0.091158
0.342392 0.935087 0.092219
0.399921 0.937282 0.093263
0.456643 0.939446 0.094293
0.512652 0.941582 0.095309
0.568013 0.943694 0.096314
0.622777 0.945783 0.097308
0.676984 0.947850 0.098292
0.730665 0.949898 0.099266
0.783848 0.951927 0.100231
0.836554 0.953937 0.101187
0.888803 0.955930 0.102136
0.940610 0.957906 0.103076
0.973543 0.959162 0.103674
0.973543 0.959162 0.103674
0.165729 0.972906 0.091577
0.226935 0.975240 0.092688
0.286562 0.977515 0.093770
0.345030 0.979745 0.094831
0.402558 0.981939 0.095875
0.459281 0.984103 0.096904
0.515290 0.986239 0.097921
0.570651 0.988351 0.098926
0.625415 0.990440 0.099919
0.679621 0.992508 0.100903
0.733303 0.994555 0.101877
0.786486 0.996584 0.102843
0.839192 0.998594 0.103799
0.891441 1.000000 0.104747
0.943248 1.000000 0.105687
0.976180 1.000000 0.106285
0.976180 1.000000 0.106285
0.110861 0.029135 0.091682
0.172067 0.031470 0.092792
0.231694 0.033745 0.093874
0.290163 0.035975 0.094936
0.347691 0.038169 0.095980
0.404413 0.040333 0.097009
0.460422 0.042469 0.098025
0.515783 0.044581 0.099030
0.570547 0.046670 0.100024
0.624754 0.048738 0.101008
0.678435 0.050785 0.101982
0.731618 0.052814 0.102947
0.784324 0.054824 0.103904
0.836573 0.056817 0.104852
0.888381 0.058794 0.105792
0.921313 0.060050 0.106390
0.921313 0.060050 0.106390
0.114466 0.090170 0.095251
