luts/film_stocks/kodak_ektachrome_100d.cube
TITLE "Kodak Ektachrome 100D"
LUT_3D_SIZE 9
DOMAIN_MIN 0.0 0.0 0.0
DOMAIN_MAX 1.0 1.0 1.0
0.000000 0.000000 0.000000
0.183405 0.000000 0.000000
0.362373 0.000000 0.000000
0.527714 0.000000 0.000000
0.682510 0.000000 0.000000
0.828260 0.000000 0.000000
0.965869 0.000000 0.000000
1.000000 0.000000 0.000000
1.000000 0.000000 0.000000
0.000000 0.146507 0.000000
0.158951 0.138363 0.000000
0.337918 0.130415 0.000000
0.503259 0.123072 0.000000
0.658056 0.116198 0.000000
0.803805 0.109726 0.000000
0.941415 0.103615 0.000000
1.000000 0.097838 0.000000
1.000000 0.094420 0.000000
0.000000 0.299237 0.000000
0.133457 0.291093 0.000000
0.312425 0.283145 0.000000
0.477766 0.275803 0.000000
0.632563 0.268928 0.000000
0.778312 0.262456 0.000000
0.915922 0.256345 0.000000
1.000000 0.250568 0.000000
1.000000 0.247150 0.000000
0.000000 0.444205 0.000000
0.109260 0.436060 0.000000
0.288228 0.428113 0.000000
0.453569 0.420770 0.000000
0.608365 0.413896 0.000000
0.754115 0.407423 0.000000
0.891724 0.401312 0.000000
1.000000 0.395536 0.000000
1.000000 0.392118 0.000000
0.000000 0.582989 0.000000
0.086095 0.574845 0.000000
0.265063 0.566897 0.000000
0.430404 0.559555 0.000000
0.585200 0.552680 0.000000
0.730950 0.546208 0.000000
0.868559 0.540097 0.000000
0.998644 0.534320 0.000000
1.000000 0.530902 0.000000
0.000000 0.716358 0.000000
0.063834 0.708213 0.000000
0.242802 0.700265 0.000000
0.408142 0.692923 0.000000
0.562939 0.686049 0.000000
0.708688 0.679576 0.000000
0.846298 0.673465 0.000000
0.976382 0.667688 0.000000
1.000000 0.664271 0.000000
0.000000 0.844773 0.000000
0.042399 0.836629 0.000000
0.221367 0.828681 0.000000
0.386708 0.821339 0.000000
0.541504 0.814464 0.000000
0.687254 0.807992 0.000000
0.824863 0.801881 0.000000
0.954948 0.796104 0.000000
1.000000 0.792686 0.000000
0.000000 0.968550 0.000000
0.021739 0.960406 0.000000
0.200707 0.952458 0.000000
0.366047 0.945116 0.000000
0.520844 0.938241 0.000000
0.666594 0.931769 0.000000
0.804203 0.925658 0.000000
0.934287 0.919881 0.000000
1.000000 0.916463 0.000000
0.000000 1.000000 0.000000
0.006393 1.000000 0.000000
0.185361 1.000000 0.000000
0.350702 1.000000 0.000000
0.505498 1.000000 0.000000
0.651248 1.000000 0.000000
0.788857 1.000000 0.000000
0.918942 1.000000 0.000000
0.995901 1.000000 0.000000
0.000000 0.000000 0.169112
0.180927 0.000000 0.160967
0.359895 0.000000 0.153019
0.525236 0.000000 0.145677
0.680032 0.000000 0.138802
0.825782 0.000000 0.132330
0.963391 0.000000 0.126219
1.000000 0.000000 0.120442
1.000000 0.000000 0.117025
0.000000 0.144029 0.144657
0.156473 0.135885 0.136513
0.335441 0.127937 0.128565
0.500782 0.120595 0.121222
0.655578 0.113720 0.114348
0.801328 0.107248 0.107876
0.938937 0.101137 0.101765
1.000000 0.095360 0.095988
1.000000 0.091942 0.092570
0.000000 0.296760 0.119164
0.130980 0.288615 0.111019
0.309948 0.280667 0.103072
0.475289 0.273325 0.095729
0.630085 0.266451 0.088855
0.775835 0.259978 0.082383
0.913444 0.253867 0.076272
1.000000 0.248090 0.070495
1.000000 0.244673 0.067077
0.000000 0.441727 0.094967
0.106782 0.433583 0.086822
0.285750 0.425635 0.078874
0.451091 0.418292 0.071532
0.605887 0.411418 0.064658
0.751637 0.404946 0.058185
0.889247 0.398835 0.052074
1.000000 0.393058 0.046297
1.000000 0.389640 0.042880
0.000000 0.580512 0.071802
0.083617 0.572367 0.063657
0.262585 0.564419 0.055709
0.427926 0.557077 0.048367
0.582722 0.550203 0.041492
0.728472 0.543730 0.035020
0.866081 0.537619 0.028909
0.996166 0.531842 0.023132
1.000000 0.528425 0.019715
0.000000 0.713880 0.049540
0.061356 0.705735 0.041396
0.240324 0.697788 0.033448
0.405665 0.690445 0.026105
0.560461 0.683571 0.019231
0.706211 0.677098 0.012759
0.843820 0.670987 0.006648
0.973905 0.665211 0.000871
1.000000 0.661793 0.000000
0.000000 0.842296 0.028106
0.039921 0.834151 0.019961
0.218889 0.826203 0.012013
0.384230 0.818861 0.004671
0.539026 0.811987 0.000000
0.684776 0.805514 0.000000
0.822385 0.799403 0.000000
0.952470 0.793626 0.000000
1.000000 0.790209 0.000000
0.000000 0.966073 0.007445
0.019261 0.957928 0.000000
0.198229 0.949980 0.000000
0.363570 0.942638 0.000000
0.518366 0.935764 0.000000
0.664116 0.929291 0.000000
0.801725 0.923180 0.000000
0.931810 0.917403 0.000000
1.000000 0.913986 0.000000
0.000000 1.000000 0.000000
0.003915 1.000000 0.000000
0.182883 1.000000 0.000000
0.348224 1.000000 0.000000
0.503020 1.000000 0.000000
0.648770 1.000000 0.000000
0.786379 1.000000 0.000000
0.916464 1.000000 0.000000
0.993423 1.000000 0.000000
0.000000 0.000000 0.339466
0.178431 0.000000 0.331322
0.357399 0.000000 0.323374
0.522740 0.000000 0.316032
0.677536 0.000000 0.309157
0.823286 0.000000 0.302685
0.960895 0.000000 0.296574
1.000000 0.000000 0.290797
1.000000 0.000000 0.287379
0.000000 0.141533 0.315012
0.153977 0.133389 0.306867
0.332945 0.125441 0.298920
0.498286 0.118099 0.291577
0.653082 0.111224 0.284703
0.798832 0.104752 0.278231
0.936441 0.098641 0.272120
1.000000 0.092864 0.266343
1.000000 0.089446 0.262925
0.000000 0.294264 0.289519
0.128484 0.286119 0.281374
0.307452 0.278171 0.273427
0.472793 0.270829 0.266084
0.627589 0.263955 0.259210
0.773339 0.257482 0.252737
0.910948 0.251371 0.246626
1.000000 0.245594 0.240850
1.000000 0.242177 0.237432
0.000000 0.439231 0.265322
0.104286 0.431087 0.257177
0.283254 0.423139 0.249229
0.448595 0.415796 0.241887
0.603392 0.408922 0.235013
0.749141 0.402450 0.228540
0.886751 0.396339 0.222429
1.000000 0.390562 0.216652
1.000000 0.387144 0.213235
0.000000 0.578016 0.242156
0.081121 0.569871 0.234012
0.260089 0.561923 0.226064
0.425430 0.554581 0.218722
0.580226 0.547707 0.211847
0.725976 0.541234 0.205375
0.863585 0.535123 0.199264
0.993670 0.529346 0.193487
1.000000 0.525929 0.190069
0.000000 0.711384 0.219895
0.058860 0.703239 0.211750
0.237828 0.695292 0.203803
0.403169 0.687949 0.196460
0.557965 0.681075 0.189586
0.703715 0.674602 0.183114
0.841324 0.668491 0.177003
0.971409 0.662715 0.171226
1.000000 0.659297 0.167808
0.000000 0.839800 0.198461
0.037425 0.831655 0.190316
0.216393 0.823707 0.182368
0.381734 0.816365 0.175026
0.536530 0.809491 0.168151
0.682280 0.803018 0.161679
0.819889 0.796907 0.155568
0.949974 0.791130 0.149791
1.000000 0.787713 0.146374
0.000000 0.963577 0.177800
0.016765 0.955432 0.169656
0.195733 0.947484 0.161708
0.361074 0.940142 0.154365
0.515870 0.933268 0.147491
0.661620 0.926795 0.141019
0.799229 0.920684 0.134908
0.929314 0.914907 0.129131
1.000000 0.911490 0.125713
0.000000 1.000000 0.162454
0.001419 1.000000 0.154310
0.180387 1.000000 0.146362
0.345728 1.000000 0.139020
0.500524 1.000000 0.132145
0.646274 1.000000 0.125673
0.783883 1.000000 0.119562
0.913968 1.000000 0.113785
0.990927 1.000000 0.110367
0.000000 0.000000 0.503582
0.176027 0.000000 0.495437
0.354995 0.000000 0.487489
0.520335 0.000000 0.480147
0.675132 0.000000 0.473273
0.820881 0.000000 0.466800
0.958491 0.000000 0.460689
1.000000 0.000000 0.454912
1.000000 0.000000 0.451495
0.000000 0.139129 0.479127
0.151572 0.130984 0.470983
0.330540 0.123037 0.463035
0.495881 0.115694 0.455692
0.650677 0.108820 0.448818
0.796427 0.102347 0.442346
0.934036 0.096236 0.436235
1.000000 0.090460 0.430458
1.000000 0.087042 0.427040
0.000000 0.291859 0.453634
0.126079 0.283714 0.445490
0.305047 0.275767 0.437542
0.470388 0.268424 0.430199
0.625184 0.261550 0.423325
0.770934 0.255078 0.416853
0.908543 0.248967 0.410742
1.000000 0.243190 0.404965
1.000000 0.239772 0.401547
0.000000 0.436827 0.429437
0.101882 0.428682 0.421292
0.280850 0.420734 0.413345
0.446191 0.413392 0.406002
0.600987 0.406518 0.399128
0.746737 0.400045 0.392655
0.884346 0.393934 0.386544
1.000000 0.388157 0.380767
1.000000 0.384740 0.377350
0.000000 0.575611 0.406272
0.078717 0.567466 0.398127
0.257685 0.559519 0.390179
0.423025 0.552176 0.382837
0.577822 0.545302 0.375963
0.723571 0.538830 0.369490
0.861181 0.532719 0.363379
0.991265 0.526942 0.357602
1.000000 0.523524 0.354185
0.000000 0.708979 0.384010
0.056455 0.700835 0.375866
0.235423 0.692887 0.367918
0.400764 0.685545 0.360575
0.555560 0.678670 0.353701
0.701310 0.672198 0.347229
0.838920 0.666087 0.341118
0.969004 0.660310 0.335341
1.000000 0.656892 0.331923
0.000000 0.837395 0.362576
0.035021 0.829250 0.354431
0.213989 0.821303 0.346483
0.379330 0.813960 0.339141
0.534126 0.807086 0.332267
0.679876 0.800614 0.325794
0.817485 0.794503 0.319683
0.947570 0.788726 0.313906
1.000000 0.785308 0.310489
0.000000 0.961172 0.341915
0.014360 0.953027 0.333771
0.193328 0.945080 0.325823
0.358669 0.937737 0.318481
0.513466 0.930863 0.311606
0.659215 0.924391 0.305134
0.796825 0.918280 0.299023
0.926909 0.912503 0.293246
1.000000 0.909085 0.289828
0.000000 1.000000 0.326570
0.000000 1.000000 0.318425
0.177983 1.000000 0.310477
0.343323 1.000000 0.303135
0.498120 1.000000 0.296261
0.643869 1.000000 0.289788
0.781479 1.000000 0.283677
0.911563 1.000000 0.277900
0.988523 1.000000 0.274483
0.000000 0.000000 0.662500
0.173698 0.000000 0.654355
0.352666 0.000000 0.646408
0.518007 0.000000 0.639065
0.672803 0.000000 0.632191
0.818553 0.000000 0.625719
0.956162 0.000000 0.619608
1.000000 0.000000 0.613831
1.000000 0.000000 0.610413
0.000000 0.136801 0.638046
0.149244 0.128656 0.629901
0.328212 0.120708 0.621954
0.493553 0.113366 0.614611
0.648349 0.106491 0.607737
0.794099 0.100019 0.601264
0.931708 0.093908 0.595153
1.000000 0.088131 0.589376
1.000000 0.084714 0.585959
0.000000 0.289531 0.612553
0.123751 0.281386 0.604408
0.302719 0.273438 0.596460
0.468060 0.266096 0.589118
0.622856 0.259222 0.582244
0.768606 0.252749 0.575771
0.906215 0.246638 0.569660
1.000000 0.240861 0.563883
1.000000 0.237444 0.560466
0.000000 0.434498 0.588355
0.099553 0.426354 0.580211
0.278521 0.418406 0.572263
0.443862 0.411063 0.564921
0.598659 0.404189 0.558046
0.744408 0.397717 0.551574
0.882018 0.391606 0.545463
1.000000 0.385829 0.539686
1.000000 0.382411 0.536268
0.000000 0.573283 0.565190
0.076388 0.565138 0.557045
0.255356 0.557190 0.549098
0.420697 0.549848 0.541755
0.575493 0.542974 0.534881
0.721243 0.536501 0.528409
0.858852 0.530390 0.522298
0.988937 0.524613 0.516521
1.000000 0.521196 0.513103
0.000000 0.706651 0.542929
0.054127 0.698506 0.534784
0.233095 0.690559 0.526837
0.398436 0.683216 0.519494
0.553232 0.676342 0.512620
0.698982 0.669870 0.506147
0.836591 0.663759 0.500036
0.966676 0.657982 0.494260
1.000000 0.654564 0.490842
0.000000 0.835067 0.521494
0.032692 0.826922 0.513350
0.211660 0.818974 0.505402
0.377001 0.811632 0.498059
0.531797 0.804758 0.491185
0.677547 0.798285 0.484713
0.815157 0.792174 0.478602
0.945241 0.786397 0.472825
1.000000 0.782980 0.469407
0.000000 0.958844 0.500834
0.012032 0.950699 0.492689
0.191000 0.942751 0.484742
0.356341 0.935409 0.477399
0.511137 0.928535 0.470525
0.656887 0.922062 0.464052
0.794496 0.915951 0.457941
0.924581 0.910174 0.452165
1.000000 0.906757 0.448747
0.000000 1.000000 0.485488
0.000000 1.000000 0.477343
0.175654 1.000000 0.469396
0.340995 1.000000 0.462053
0.495791 1.000000 0.455179
0.641541 1.000000 0.448707
0.779150 1.000000 0.442596
0.909235 1.000000 0.436819
0.986194 0.998694 0.433401
0.000000 0.000000 0.816730
0.171439 0.000000 0.808586
0.350406 0.000000 0.800638
0.515747 0.000000 0.793295
0.670544 0.000000 0.786421
0.816293 0.000000 0.779949
0.953903 0.000000 0.773838
1.000000 0.000000 0.768061
1.000000 0.000000 0.764643
0.000000 0.134541 0.792276
0.146984 0.126396 0.784131
0.325952 0.118448 0.776184
0.491293 0.111106 0.768841
0.646089 0.104232 0.761967
0.791839 0.097759 0.755494
0.929448 0.091648 0.749383
1.000000 0.085871 0.743607
1.000000 0.082454 0.740189
0.000000 0.287271 0.766783
0.121491 0.279126 0.758638
0.300459 0.271179 0.750691
0.465800 0.263836 0.743348
0.620596 0.256962 0.736474
0.766346 0.250489 0.730001
0.903955 0.244378 0.723890
1.000000 0.238602 0.718113
1.000000 0.235184 0.714696
0.000000 0.432239 0.742586
0.097294 0.424094 0.734441
0.276262 0.416146 0.726493
0.441603 0.408804 0.719151
0.596399 0.401930 0.712276
0.742149 0.395457 0.705804
0.879758 0.389346 0.699693
1.000000 0.383569 0.693916
1.000000 0.380152 0.690499
0.000000 0.571023 0.719420
0.074128 0.562878 0.711276
0.253096 0.554931 0.703328
0.418437 0.547588 0.695985
0.573234 0.540714 0.689111
0.718983 0.534241 0.682639
0.856593 0.528130 0.676528
0.986677 0.522354 0.670751
1.000000 0.518936 0.667333
0.000000 0.704391 0.697159
0.051867 0.696247 0.689014
0.230835 0.688299 0.681067
0.396176 0.680957 0.673724
0.550972 0.674082 0.666850
0.696722 0.667610 0.660377
0.834331 0.661499 0.654266
0.964416 0.655722 0.648490
1.000000 0.652304 0.645072
0.000000 0.832807 0.675724
0.030433 0.824662 0.667580
0.209401 0.816715 0.659632
0.374741 0.809372 0.652290
0.529538 0.802498 0.645415
0.675288 0.796025 0.638943
0.812897 0.789914 0.632832
0.942981 0.784138 0.627055
1.000000 0.780720 0.623637
0.000000 0.956584 0.655064
0.009772 0.948439 0.646919
0.188740 0.940492 0.638972
0.354081 0.933149 0.631629
0.508877 0.926275 0.624755
0.654627 0.919802 0.618283
0.792237 0.913691 0.612172
0.922321 0.907915 0.606395
0.999280 0.904497 0.602977
0.000000 1.000000 0.639718
0.000000 1.000000 0.631574
0.173394 1.000000 0.623626
0.338735 1.000000 0.616283
0.493532 1.000000 0.609409
0.639281 1.000000 0.602937
0.776891 1.000000 0.596826
0.906975 0.999852 0.591049
0.983935 0.996435 0.587631
0.000000 0.000000 0.966579
0.169243 0.000000 0.958434
0.348211 0.000000 0.950487
0.513552 0.000000 0.943144
0.668348 0.000000 0.936270
0.814098 0.000000 0.929797
0.951707 0.000000 0.923686
1.000000 0.000000 0.917910
1.000000 0.000000 0.914492
0.000000 0.132345 0.942125
0.144789 0.124201 0.933980
0.323757 0.116253 0.926032
0.489097 0.108910 0.918690
0.643894 0.102036 0.911816
0.789644 0.095564 0.905343
0.927253 0.089453 0.899232
1.000000 0.083676 0.893455
1.000000 0.080258 0.890038
0.000000 0.285076 0.916632
0.119296 0.276931 0.908487
0.298264 0.268983 0.900539
0.463604 0.261641 0.893197
0.618401 0.254766 0.886323
0.764150 0.248294 0.879850
0.901760 0.242183 0.873739
1.000000 0.236406 0.867962
1.000000 0.232989 0.864545
0.000000 0.430043 0.892434
0.095098 0.421898 0.884290
0.274066 0.413951 0.876342
0.439407 0.406608 0.868999
0.594203 0.399734 0.862125
0.739953 0.393262 0.855653
0.877562 0.387151 0.849542
1.000000 0.381374 0.843765
1.000000 0.377956 0.840347
0.000000 0.568827 0.869269
0.071933 0.560683 0.861124
0.250901 0.552735 0.853177
0.416242 0.545393 0.845834
0.571038 0.538518 0.838960
0.716788 0.532046 0.832487
0.854397 0.525935 0.826376
0.984482 0.520158 0.820600
1.000000 0.516740 0.817182
0.000000 0.702196 0.847008
0.049672 0.694051 0.838863
0.228640 0.686104 0.830915
0.393980 0.678761 0.823573
0.548777 0.671887 0.816699
0.694527 0.665414 0.810226
0.832136 0.659303 0.804115
0.962220 0.653526 0.798338
1.000000 0.650109 0.794921
0.000000 0.830611 0.825573
0.028237 0.822467 0.817428
0.207205 0.814519 0.809481
0.372546 0.807177 0.802138
0.527342 0.800302 0.795264
0.673092 0.793830 0.788792
0.810701 0.787719 0.782681
0.940786 0.781942 0.776904
1.000000 0.778524 0.773486
0.000000 0.954388 0.804913
0.007577 0.946244 0.796768
0.186545 0.938296 0.788821
0.351886 0.930954 0.781478
0.506682 0.924079 0.774604
0.652432 0.917607 0.768131
0.790041 0.911496 0.762020
0.920126 0.905719 0.756243
0.997085 0.902301 0.752826
0.000000 1.000000 0.789567
0.000000 1.000000 0.781422
0.171199 1.000000 0.773475
0.336540 1.000000 0.766132
0.491336 1.000000 0.759258
0.637086 1.000000 0.752785
0.774695 1.000000 0.746674
0.904780 0.997657 0.740898
0.981739 0.994239 0.737480
0.000000 0.000000 1.000000
0.167109 0.000000 1.000000
0.346077 0.000000 1.000000
0.511417 0.000000 1.000000
0.666214 0.000000 1.000000
0.811963 0.000000 1.000000
0.949573 0.000000 1.000000
1.000000 0.000000 1.000000
1.000000 0.000000 1.000000
0.000000 0.130211 1.000000
0.142654 0.122066 1.000000
0.321622 0.114119 1.000000
0.486963 0.106776 1.000000
0.641759 0.099902 1.000000
0.787509 0.093429 1.000000
0.925118 0.087318 1.000000
1.000000 0.081542 1.000000
1.000000 0.078124 1.000000
0.000000 0.282941 1.000000
0.117161 0.274796 1.000000
0.296129 0.266849 1.000000
0.461470 0.259506 1.000000
0.616266 0.252632 1.000000
0.762016 0.246160 1.000000
0.899625 0.240049 1.000000
1.000000 0.234272 1.000000
1.000000 0.230854 1.000000
0.000000 0.427909 1.000000
0.092964 0.419764 1.000000
0.271932 0.411816 1.000000
0.437273 0.404474 1.000000
0.592069 0.397600 1.000000
0.737819 0.391127 1.000000
0.875428 0.385016 0.995217
1.000000 0.379239 0.989441
1.000000 0.375822 0.986023
0.000000 0.566693 1.000000
0.069799 0.558548 1.000000
0.248767 0.550601 0.998852
0.414107 0.543258 0.991510
0.568904 0.536384 0.984636
0.714653 0.529912 0.978163
0.852263 0.523801 0.972052
0.982347 0.518024 0.966275
1.000000 0.514606 0.962858
0.000000 0.700061 0.992683
0.047537 0.691917 0.984539
0.226505 0.683969 0.976591
0.391846 0.676627 0.969249
0.546642 0.669752 0.962374
0.692392 0.663280 0.955902
0.830002 0.657169 0.949791
0.960086 0.651392 0.944014
1.000000 0.647974 0.940596
0.000000 0.828477 0.971249
0.026103 0.820332 0.963104
0.205071 0.812385 0.955157
0.370412 0.805042 0.947814
0.525208 0.798168 0.940940
0.670958 0.791696 0.934467
0.808567 0.785585 0.928356
0.938652 0.779808 0.922580
1.000000 0.776390 0.919162
0.000000 0.952254 0.950589
0.005442 0.944109 0.942444
0.184410 0.936162 0.934496
0.349751 0.928819 0.927154
0.504548 0.921945 0.920280
0.650297 0.915473 0.913807
0.787907 0.909362 0.907696
0.917991 0.903585 0.901919
0.994951 0.900167 0.898502
0.000000 1.000000 0.935243
0.000000 1.000000 0.927098
0.169065 1.000000 0.919150
0.334405 1.000000 0.911808
0.489202 1.000000 0.904934
0.634951 1.000000 0.898461
0.772561 1.000000 0.892350
0.902645 0.995522 0.886573
0.979605 0.992105 0.883156
0.000000 0.000000 1.000000
0.165355 0.000000 1.000000
0.344323 0.000000 1.000000
0.509664 0.000000 1.000000
0.664460 0.000000 1.000000
0.810210 0.000000 1.000000
0.947819 0.000000 1.000000
1.000000 0.000000 1.000000
1.000000 0.000000 1.000000
0.000000 0.128457 1.000000
0.140901 0.120313 1.000000
0.319868 0.112365 1.000000
0.485209 0.105022 1.000000
0.640006 0.098148 1.000000
0.785755 0.091676 1.000000
0.923365 0.085565 1.000000
1.000000 0.079788 1.000000
1.000000 0.076370 1.000000
0.000000 0.281187 1.000000
0.115407 0.273043 1.000000
0.294375 0.265095 1.000000
0.459716 0.257753 1.000000
0.614513 0.250878 1.000000
0.760262 0.244406 1.000000
0.897872 0.238295 1.000000
1.000000 0.232518 1.000000
1.000000 0.229100 1.000000
0.000000 0.426155 1.000000
0.091210 0.418010 1.000000
0.270178 0.410063 1.000000
0.435519 0.402720 1.000000
0.590315 0.395846 1.000000
0.736065 0.389373 1.000000
0.873674 0.383262 1.000000
1.000000 0.377486 1.000000
1.000000 0.374068 1.000000
0.000000 0.564939 1.000000
0.068045 0.556795 1.000000
0.247013 0.548847 1.000000
0.412354 0.541505 1.000000
0.567150 0.534630 1.000000
0.712900 0.528158 1.000000
0.850509 0.522047 1.000000
0.980594 0.516270 1.000000
1.000000 0.512852 1.000000
0.000000 0.698308 1.000000
0.045784 0.690163 1.000000
0.224752 0.682215 1.000000
0.390092 0.674873 1.000000
0.544889 0.667999 1.000000
0.690638 0.661526 1.000000
0.828248 0.655415 1.000000
0.958332 0.649638 1.000000
1.000000 0.646221 1.000000
0.000000 0.826723 1.000000
0.024349 0.818579 1.000000
0.203317 0.810631 1.000000
0.368658 0.803289 1.000000
0.523454 0.796414 1.000000
0.669204 0.789942 1.000000
0.806813 0.783831 1.000000
0.936898 0.778054 1.000000
1.000000 0.774636 1.000000
0.000000 0.950500 1.000000
0.003689 0.942356 1.000000
0.182657 0.934408 1.000000
0.347997 0.927066 1.000000
0.502794 0.920191 1.000000
0.648544 0.913719 1.000000
0.786153 0.907608 1.000000
0.916237 0.901831 1.000000
0.993197 0.898413 1.000000
0.000000 1.000000 1.000000
0.000000 1.000000 1.000000
0.167311 1.000000 1.000000
0.332652 1.000000 1.000000
0.487448 1.000000 1.000000
0.633198 1.000000 1.000000
0.770807 0.999545 1.000000
0.900892 0.993769 1.000000
0.977851 0.990351 1.000000
