luts/film_stocks/kodak_doublex_5222_bw.cube
TITLE "Kodak Double-X 5222 B&W"
LUT_3D_SIZE 17
DOMAIN_MIN 0.0 0.0 0.0
DOMAIN_MAX 1.0 1.0 1.0
0.000000 0.000000 0.000000
0.000000 0.000000 0.000000
0.005226 0.005226 0.005226
0.028321 0.028321 0.028321
0.050275 0.050275 0.050275
0.071387 0.071387 0.071387
0.091829 0.091829 0.091829
0.111712 0.111712 0.111712
0.131115 0.131115 0.131115
0.150094 0.150094 0.150094
0.168694 0.168694 0.168694
0.186949 0.186949 0.186949
0.204889 0.204889 0.204889
0.222537 0.222537 0.222537
0.239912 0.239912 0.239912
0.257032 0.257032 0.257032
0.273910 0.273910 0.273910
0.036426 0.036426 0.036426
0.058048 0.058048 0.058048
0.078900 0.078900 0.078900
0.099128 0.099128 0.099128
0.118828 0.118828 0.118828
0.138071 0.138071 0.138071
0.156907 0.156907 0.156907
0.175378 0.175378 0.175378
0.193516 0.193516 0.193516
0.211347 0.211347 0.211347
0.228893 0.228893 0.228893
0.246173 0.246173 0.246173
0.263204 0.263204 0.263204
0.279998 0.279998 0.279998
0.296568 0.296568 0.296568
0.312925 0.312925 0.312925
0.329079 0.329079 0.329079
0.106357 0.106357 0.106357
0.125884 0.125884 0.125884
0.144973 0.144973 0.144973
0.163672 0.163672 0.163672
0.182018 0.182018 0.182018
0.200042 0.200042 0.200042
0.217767 0.217767 0.217767
0.235214 0.235214 0.235214
0.252402 0.252402 0.252402
0.269345 0.269345 0.269345
0.286056 0.286056 0.286056
0.302547 0.302547 0.302547
0.318829 0.318829 0.318829
0.334911 0.334911 0.334911
0.350800 0.350800 0.350800
0.366504 0.366504 0.366504
0.382030 0.382030 0.382030
0.170391 0.170391 0.170391
0.188616 0.188616 0.188616
0.206528 0.206528 0.206528
0.224150 0.224150 0.224150
0.241501 0.241501 0.241501
0.258598 0.258598 0.258598
0.275455 0.275455 0.275455
0.292085 0.292085 0.292085
0.308499 0.308499 0.308499
0.324707 0.324707 0.324707
0.340717 0.340717 0.340717
0.356538 0.356538 0.356538
0.372176 0.372176 0.372176
0.387639 0.387639 0.387639
0.402931 0.402931 0.402931
0.418059 0.418059 0.418059
0.433028 0.433028 0.433028
0.230497 0.230497 0.230497
0.247754 0.247754 0.247754
0.264762 0.264762 0.264762
0.281535 0.281535 0.281535
0.298085 0.298085 0.298085
0.314423 0.314423 0.314423
0.330558 0.330558 0.330558
0.346498 0.346498 0.346498
0.362252 0.362252 0.362252
0.377826 0.377826 0.377826
0.393226 0.393226 0.393226
0.408458 0.408458 0.408458
0.423527 0.423527 0.423527
0.438439 0.438439 0.438439
0.453197 0.453197 0.453197
0.467806 0.467806 0.467806
0.482270 0.482270 0.482270
0.287585 0.287585 0.287585
0.304057 0.304057 0.304057
0.320320 0.320320 0.320320
0.336383 0.336383 0.336383
0.352255 0.352255 0.352255
0.367942 0.367942 0.367942
0.383452 0.383452 0.383452
0.398790 0.398790 0.398790
0.413963 0.413963 0.413963
0.428974 0.428974 0.428974
0.443829 0.443829 0.443829
0.458533 0.458533 0.458533
0.473088 0.473088 0.473088
0.487500 0.487500 0.487500
0.501771 0.501771 0.501771
0.515905 0.515905 0.515905
0.529905 0.529905 0.529905
0.342183 0.342183 0.342183
0.357987 0.357987 0.357987
0.373609 0.373609 0.373609
0.389056 0.389056 0.389056
0.404333 0.404333 0.404333
0.419446 0.419446 0.419446
0.434400 0.434400 0.434400
0.449200 0.449200 0.449200
0.463849 0.463849 0.463849
0.478351 0.478351 0.478351
0.492712 0.492712 0.492712
0.506932 0.506932 0.506932
0.521017 0.521017 0.521017
0.534969 0.534969 0.534969
0.548791 0.548791 0.548791
0.562485 0.562485 0.562485
0.576054 0.576054 0.576054
0.394637 0.394637 0.394637
0.409854 0.409854 0.409854
0.424908 0.424908 0.424908
0.439806 0.439806 0.439806
0.454550 0.454550 0.454550
0.469145 0.469145 0.469145
0.483596 0.483596 0.483596
0.497905 0.497905 0.497905
0.512076 0.512076 0.512076
0.526112 0.526112 0.526112
0.540016 0.540016 0.540016
0.553791 0.553791 0.553791
0.567439 0.567439 0.567439
0.580964 0.580964 0.580964
0.594366 0.594366 0.594366
0.607649 0.607649 0.607649
0.620814 0.620814 0.620814
0.445191 0.445191 0.445191
0.459881 0.459881 0.459881
0.474423 0.474423 0.474423
0.488821 0.488821 0.488821
0.503080 0.503080 0.503080
0.517201 0.517201 0.517201
0.531189 0.531189 0.531189
0.545046 0.545046 0.545046
0.558774 0.558774 0.558774
0.572377 0.572377 0.572377
0.585857 0.585857 0.585857
0.599216 0.599216 0.599216
0.612455 0.612455 0.612455
0.625579 0.625579 0.625579
0.638587 0.638587 0.638587
0.651483 0.651483 0.651483
0.664267 0.664267 0.664267
0.494028 0.494028 0.494028
0.508237 0.508237 0.508237
0.522309 0.522309 0.522309
0.536249 0.536249 0.536249
0.550059 0.550059 0.550059
0.563741 0.563741 0.563741
0.577299 0.577299 0.577299
0.590734 0.590734 0.590734
0.604049 0.604049 0.604049
0.617247 0.617247 0.617247
0.630328 0.630328 0.630328
0.643295 0.643295 0.643295
0.656150 0.656150 0.656150
0.668894 0.668894 0.668894
0.681530 0.681530 0.681530
0.694059 0.694059 0.694059
0.706482 0.706482 0.706482
0.541291 0.541291 0.541291
0.555054 0.555054 0.555054
0.568691 0.568691 0.568691
0.582204 0.582204 0.582204
0.595596 0.595596 0.595596
0.608868 0.608868 0.608868
0.622022 0.622022 0.622022
0.635062 0.635062 0.635062
0.647988 0.647988 0.647988
0.660802 0.660802 0.660802
0.673507 0.673507 0.673507
0.686104 0.686104 0.686104
0.698594 0.698594 0.698594
0.710978 0.710978 0.710978
0.723260 0.723260 0.723260
0.735438 0.735438 0.735438
0.747516 0.747516 0.747516
0.587093 0.587093 0.587093
0.600441 0.600441 0.600441
0.613670 0.613670 0.613670
0.626783 0.626783 0.626783
0.639781 0.639781 0.639781
0.652666 0.652666 0.652666
0.665440 0.665440 0.665440
0.678106 0.678106 0.678106
0.690663 0.690663 0.690663
0.703115 0.703115 0.703115
0.715462 0.715462 0.715462
0.727705 0.727705 0.727705
0.739847 0.739847 0.739847
0.751889 0.751889 0.751889
0.763831 0.763831 0.763831
0.775675 0.775675 0.775675
0.787423 0.787423 0.787423
0.631528 0.631528 0.631528
0.644485 0.644485 0.644485
0.657329 0.657329 0.657329
0.670064 0.670064 0.670064
0.682690 0.682690 0.682690
0.695208 0.695208 0.695208
0.707622 0.707622 0.707622
0.719931 0.719931 0.719931
0.732137 0.732137 0.732137
0.744243 0.744243 0.744243
0.756248 0.756248 0.756248
0.768154 0.768154 0.768154
0.779963 0.779963 0.779963
0.791676 0.791676 0.791676
0.803293 0.803293 0.803293
0.814816 0.814816 0.814816
0.826246 0.826246 0.826246
0.674673 0.674673 0.674673
0.687260 0.687260 0.687260
0.699740 0.699740 0.699740
0.712115 0.712115 0.712115
0.724387 0.724387 0.724387
0.736556 0.736556 0.736556
0.748625 0.748625 0.748625
0.760594 0.760594 0.760594
0.772465 0.772465 0.772465
0.784239 0.784239 0.784239
0.795916 0.795916 0.795916
0.807499 0.807499 0.807499
0.818988 0.818988 0.818988
0.830384 0.830384 0.830384
0.841689 0.841689 0.841689
0.852902 0.852902 0.852902
0.864026 0.864026 0.864026
0.716595 0.716595 0.716595
0.728829 0.728829 0.728829
0.740962 0.740962 0.740962
0.752994 0.752994 0.752994
0.764927 0.764927 0.764927
0.776762 0.776762 0.776762
0.788501 0.788501 0.788501
0.800144 0.800144 0.800144
0.811693 0.811693 0.811693
0.823148 0.823148 0.823148
0.834510 0.834510 0.834510
0.845782 0.845782 0.845782
0.856962 0.856962 0.856962
0.868053 0.868053 0.868053
0.879056 0.879056 0.879056
0.889970 0.889970 0.889970
0.900798 0.900798 0.900798
0.757350 0.757350 0.757350
0.769247 0.769247 0.769247
0.781047 0.781047 0.781047
0.792751 0.792751 0.792751
0.804359 0.804359 0.804359
0.815874 0.815874 0.815874
0.827295 0.827295 0.827295
0.838624 0.838624 0.838624
0.849863 0.849863 0.849863
0.861010 0.861010 0.861010
0.872069 0.872069 0.872069
0.883039 0.883039 0.883039
0.893922 0.893922 0.893922
0.904718 0.904718 0.904718
0.915428 0.915428 0.915428
0.926053 0.926053 0.926053
0.936594 0.936594 0.936594
0.796988 0.796988 0.796988
0.808562 0.808562 0.808562
0.820043 0.820043 0.820043
0.831430 0.831430 0.831430
0.842726 0.842726 0.842726
0.853931 0.853931 0.853931
0.865047 0.865047 0.865047
0.876073 0.876073 0.876073
0.887011 0.887011 0.887011
0.897863 0.897863 0.897863
0.908627 0.908627 0.908627
0.919306 0.919306 0.919306
0.929900 0.929900 0.929900
0.940410 0.940410 0.940410
0.950837 0.950837 0.950837
0.961181 0.961181 0.961181
0.970000 0.970000 0.970000
0.000000 0.000000 0.000000
0.000000 0.000000 0.000000
0.013225 0.013225 0.013225
0.035886 0.035886 0.035886
0.057529 0.057529 0.057529
0.078398 0.078398 0.078398
0.098640 0.098640 0.098640
0.118352 0.118352 0.118352
0.137605 0.137605 0.137605
0.156451 0.156451 0.156451
0.174930 0.174930 0.174930
0.193076 0.193076 0.193076
0.210914 0.210914 0.210914
0.228467 0.228467 0.228467
0.245754 0.245754 0.245754
0.262790 0.262790 0.262790
0.279590 0.279590 0.279590
0.043867 0.043867 0.043867
0.065207 0.065207 0.065207
0.085834 0.085834 0.085834
0.105873 0.105873 0.105873
0.125412 0.125412 0.125412
0.144511 0.144511 0.144511
0.163219 0.163219 0.163219
0.181574 0.181574 0.181574
0.199604 0.199604 0.199604
0.217336 0.217336 0.217336
0.234790 0.234790 0.234790
0.251984 0.251984 0.251984
0.268933 0.268933 0.268933
0.285650 0.285650 0.285650
0.302147 0.302147 0.302147
0.318433 0.318433 0.318433
0.334520 0.334520 0.334520
0.113041 0.113041 0.113041
0.132413 0.132413 0.132413
0.151365 0.151365 0.151365
0.169941 0.169941 0.169941
0.188174 0.188174 0.188174
0.206093 0.206093 0.206093
0.223722 0.223722 0.223722
0.241079 0.241079 0.241079
0.258182 0.258182 0.258182
0.275045 0.275045 0.275045
0.291681 0.291681 0.291681
0.308100 0.308100 0.308100
0.324313 0.324313 0.324313
0.340328 0.340328 0.340328
0.356153 0.356153 0.356153
0.371796 0.371796 0.371796
0.387263 0.387263 0.387263
0.176617 0.176617 0.176617
0.194733 0.194733 0.194733
0.212544 0.212544 0.212544
0.230072 0.230072 0.230072
0.247335 0.247335 0.247335
0.264349 0.264349 0.264349
0.281127 0.281127 0.281127
0.297683 0.297683 0.297683
0.314026 0.314026 0.314026
0.330166 0.330166 0.330166
0.346111 0.346111 0.346111
0.361869 0.361869 0.361869
0.377447 0.377447 0.377447
0.392851 0.392851 0.392851
0.408087 0.408087 0.408087
0.423161 0.423161 0.423161
0.438076 0.438076 0.438076
0.236386 0.236386 0.236386
0.253557 0.253557 0.253557
0.270484 0.270484 0.270484
0.287180 0.287180 0.287180
0.303657 0.303657 0.303657
0.319925 0.319925 0.319925
0.335993 0.335993 0.335993
0.351869 0.351869 0.351869
0.367561 0.367561 0.367561
0.383075 0.383075 0.383075
0.398417 0.398417 0.398417
0.413593 0.413593 0.413593
0.428609 0.428609 0.428609
0.443468 0.443468 0.443468
0.458175 0.458175 0.458175
0.472734 0.472734 0.472734
0.487149 0.487149 0.487149
0.293203 0.293203 0.293203
0.309603 0.309603 0.309603
0.325797 0.325797 0.325797
0.341795 0.341795 0.341795
0.357603 0.357603 0.357603
0.373229 0.373229 0.373229
0.388680 0.388680 0.388680
0.403961 0.403961 0.403961
0.419078 0.419078 0.419078
0.434036 0.434036 0.434036
0.448839 0.448839 0.448839
0.463492 0.463492 0.463492
0.477998 0.477998 0.477998
0.492362 0.492362 0.492362
0.506586 0.506586 0.506586
0.520674 0.520674 0.520674
0.534629 0.534629 0.534629
0.347571 0.347571 0.347571
0.363313 0.363313 0.363313
0.378874 0.378874 0.378874
0.394263 0.394263 0.394263
0.409484 0.409484 0.409484
0.424542 0.424542 0.424542
0.439443 0.439443 0.439443
0.454191 0.454191 0.454191
0.468790 0.468790 0.468790
0.483244 0.483244 0.483244
0.497557 0.497557 0.497557
0.511731 0.511731 0.511731
0.525770 0.525770 0.525770
0.539677 0.539677 0.539677
0.553456 0.553456 0.553456
0.567107 0.567107 0.567107
0.580634 0.580634 0.580634
0.399823 0.399823 0.399823
0.414984 0.414984 0.414984
0.429985 0.429985 0.429985
0.444830 0.444830 0.444830
0.459523 0.459523 0.459523
0.474069 0.474069 0.474069
0.488471 0.488471 0.488471
0.502733 0.502733 0.502733
0.516858 0.516858 0.516858
0.530848 0.530848 0.530848
0.544708 0.544708 0.544708
0.558440 0.558440 0.558440
0.572046 0.572046 0.572046
0.585529 0.585529 0.585529
0.598890 0.598890 0.598890
0.612133 0.612133 0.612133
0.625259 0.625259 0.625259
0.450196 0.450196 0.450196
0.464836 0.464836 0.464836
0.479329 0.479329 0.479329
0.493679 0.493679 0.493679
0.507891 0.507891 0.507891
0.521966 0.521966 0.521966
0.535909 0.535909 0.535909
0.549722 0.549722 0.549722
0.563408 0.563408 0.563408
0.576969 0.576969 0.576969
0.590407 0.590407 0.590407
0.603725 0.603725 0.603725
0.616925 0.616925 0.616925
0.630009 0.630009 0.630009
0.642979 0.642979 0.642979
0.655837 0.655837 0.655837
0.668584 0.668584 0.668584
0.498869 0.498869 0.498869
0.513031 0.513031 0.513031
0.527058 0.527058 0.527058
0.540953 0.540953 0.540953
0.554719 0.554719 0.554719
0.568359 0.568359 0.568359
0.581875 0.581875 0.581875
0.595269 0.595269 0.595269
0.608544 0.608544 0.608544
0.621702 0.621702 0.621702
0.634744 0.634744 0.634744
0.647673 0.647673 0.647673
0.660490 0.660490 0.660490
0.673198 0.673198 0.673198
0.685797 0.685797 0.685797
0.698289 0.698289 0.698289
0.710677 0.710677 0.710677
0.545980 0.545980 0.545980
0.559700 0.559700 0.559700
0.573294 0.573294 0.573294
0.586765 0.586765 0.586765
0.600116 0.600116 0.600116
0.613348 0.613348 0.613348
0.626463 0.626463 0.626463
0.639464 0.639464 0.639464
0.652352 0.652352 0.652352
0.665129 0.665129 0.665129
0.677797 0.677797 0.677797
0.690357 0.690357 0.690357
0.702811 0.702811 0.702811
0.715161 0.715161 0.715161
0.727407 0.727407 0.727407
0.739551 0.739551 0.739551
0.751595 0.751595 0.751595
0.591640 0.591640 0.591640
0.604947 0.604947 0.604947
0.618136 0.618136 0.618136
0.631210 0.631210 0.631210
0.644169 0.644169 0.644169
0.657017 0.657017 0.657017
0.669754 0.669754 0.669754
0.682382 0.682382 0.682382
0.694904 0.694904 0.694904
0.707319 0.707319 0.707319
0.719631 0.719631 0.719631
0.731840 0.731840 0.731840
0.743948 0.743948 0.743948
0.755955 0.755955 0.755955
0.767864 0.767864 0.767864
0.779676 0.779676 0.779676
0.791391 0.791391 0.791391
0.635941 0.635941 0.635941
0.648859 0.648859 0.648859
0.661666 0.661666 0.661666
0.674364 0.674364 0.674364
0.686953 0.686953 0.686953
0.699436 0.699436 0.699436
0.711814 0.711814 0.711814
0.724088 0.724088 0.724088
0.736260 0.736260 0.736260
0.748331 0.748331 0.748331
0.760302 0.760302 0.760302
0.772176 0.772176 0.772176
0.783952 0.783952 0.783952
0.795632 0.795632 0.795632
0.807217 0.807217 0.807217
0.818708 0.818708 0.818708
0.830107 0.830107 0.830107
0.678960 0.678960 0.678960
0.691510 0.691510 0.691510
0.703954 0.703954 0.703954
0.716294 0.716294 0.716294
0.728531 0.728531 0.728531
0.740666 0.740666 0.740666
0.752701 0.752701 0.752701
0.764636 0.764636 0.764636
0.776474 0.776474 0.776474
0.788215 0.788215 0.788215
0.799860 0.799860 0.799860
0.811411 0.811411 0.811411
0.822869 0.822869 0.822869
0.834234 0.834234 0.834234
0.845507 0.845507 0.845507
0.856690 0.856690 0.856690
0.867783 0.867783 0.867783
0.720761 0.720761 0.720761
0.732961 0.732961 0.732961
0.745059 0.745059 0.745059
0.757058 0.757058 0.757058
0.768957 0.768957 0.768957
0.780760 0.780760 0.780760
0.792466 0.792466 0.792466
0.804077 0.804077 0.804077
0.815593 0.815593 0.815593
0.827017 0.827017 0.827017
0.838348 0.838348 0.838348
0.849589 0.849589 0.849589
0.860739 0.860739 0.860739
0.871800 0.871800 0.871800
0.882772 0.882772 0.882772
0.893657 0.893657 0.893657
0.904455 0.904455 0.904455
0.761401 0.761401 0.761401
0.773265 0.773265 0.773265
0.785033 0.785033 0.785033
0.796704 0.796704 0.796704
0.808280 0.808280 0.808280
0.819763 0.819763 0.819763
0.831153 0.831153 0.831153
0.842451 0.842451 0.842451
0.853658 0.853658 0.853658
0.864776 0.864776 0.864776
0.875805 0.875805 0.875805
0.886745 0.886745 0.886745
0.897598 0.897598 0.897598
0.908365 0.908365 0.908365
0.919046 0.919046 0.919046
0.929642 0.929642 0.929642
0.940154 0.940154 0.940154
0.800929 0.800929 0.800929
0.812472 0.812472 0.812472
0.823920 0.823920 0.823920
0.835277 0.835277 0.835277
0.846542 0.846542 0.846542
0.857716 0.857716 0.857716
0.868801 0.868801 0.868801
0.879798 0.879798 0.879798
0.890706 0.890706 0.890706
0.901528 0.901528 0.901528
0.912263 0.912263 0.912263
0.922913 0.922913 0.922913
0.933479 0.933479 0.933479
0.943960 0.943960 0.943960
0.954359 0.954359 0.954359
0.964675 0.964675 0.964675
0.970000 0.970000 0.970000
0.000000 0.000000 0.000000
0.000000 0.000000 0.000000
0.021057 0.021057 0.021057
0.043335 0.043335 0.043335
0.064694 0.064694 0.064694
0.085337 0.085337 0.085337
0.105390 0.105390 0.105390
0.124939 0.124939 0.124939
0.144049 0.144049 0.144049
0.162766 0.162766 0.162766
0.181129 0.181129 0.181129
0.199167 0.199167 0.199167
0.216906 0.216906 0.216906
0.234367 0.234367 0.234367
0.251567 0.251567 0.251567
0.268521 0.268521 0.268521
0.285244 0.285244 0.285244
0.051204 0.051204 0.051204
0.072284 0.072284 0.072284
0.092700 0.092700 0.092700
0.112561 0.112561 0.112561
0.131944 0.131944 0.131944
0.150906 0.150906 0.150906
0.169490 0.169490 0.169490
0.187732 0.187732 0.187732
0.205659 0.205659 0.205659
0.223294 0.223294 0.223294
0.240658 0.240658 0.240658
0.257767 0.257767 0.257767
0.274635 0.274635 0.274635
0.291276 0.291276 0.291276
0.307701 0.307701 0.307701
0.323918 0.323918 0.323918
0.339938 0.339938 0.339938
0.119670 0.119670 0.119670
0.138894 0.138894 0.138894
0.157714 0.157714 0.157714
0.176170 0.176170 0.176170
0.194293 0.194293 0.194293
0.212112 0.212112 0.212112
0.229646 0.229646 0.229646
0.246915 0.246915 0.246915
0.263935 0.263935 0.263935
0.280720 0.280720 0.280720
0.297280 0.297280 0.297280
0.313628 0.313628 0.313628
0.329773 0.329773 0.329773
0.345723 0.345723 0.345723
0.361486 0.361486 0.361486
0.377068 0.377068 0.377068
0.392476 0.392476 0.392476
0.182805 0.182805 0.182805
0.200815 0.200815 0.200815
0.218527 0.218527 0.218527
0.235963 0.235963 0.235963
0.253140 0.253140 0.253140
0.270072 0.270072 0.270072
0.286774 0.286774 0.286774
0.303256 0.303256 0.303256
0.319529 0.319529 0.319529
0.335602 0.335602 0.335602
0.351483 0.351483 0.351483
0.367179 0.367179 0.367179
0.382697 0.382697 0.382697
0.398044 0.398044 0.398044
0.413224 0.413224 0.413224
0.428243 0.428243 0.428243
0.443106 0.443106 0.443106
0.242246 0.242246 0.242246
0.259332 0.259332 0.259332
0.276179 0.276179 0.276179
0.292800 0.292800 0.292800
0.309204 0.309204 0.309204
0.325404 0.325404 0.325404
0.341406 0.341406 0.341406
0.357218 0.357218 0.357218
0.372849 0.372849 0.372849
0.388304 0.388304 0.388304
0.403589 0.403589 0.403589
0.418710 0.418710 0.418710
0.433672 0.433672 0.433672
0.448479 0.448479 0.448479
0.463135 0.463135 0.463135
0.477645 0.477645 0.477645
0.492012 0.492012 0.492012
0.298796 0.298796 0.298796
0.315125 0.315125 0.315125
0.331252 0.331252 0.331252
0.347184 0.347184 0.347184
0.362930 0.362930 0.362930
0.378496 0.378496 0.378496
0.393888 0.393888 0.393888
0.409113 0.409113 0.409113
0.424176 0.424176 0.424176
0.439081 0.439081 0.439081
0.453832 0.453832 0.453832
0.468435 0.468435 0.468435
0.482892 0.482892 0.482892
0.497208 0.497208 0.497208
0.511386 0.511386 0.511386
0.525428 0.525428 0.525428
0.539339 0.539339 0.539339
0.352938 0.352938 0.352938
0.368617 0.368617 0.368617
0.384119 0.384119 0.384119
0.399450 0.399450 0.399450
0.414615 0.414615 0.414615
0.429620 0.429620 0.429620
0.444469 0.444469 0.444469
0.459165 0.459165 0.459165
0.473715 0.473715 0.473715
0.488120 0.488120 0.488120
0.502386 0.502386 0.502386
0.516514 0.516514 0.516514
0.530508 0.530508 0.530508
0.544371 0.544371 0.544371
0.558106 0.558106 0.558106
0.571715 0.571715 0.571715
0.585200 0.585200 0.585200
0.404990 0.404990 0.404990
0.420096 0.420096 0.420096
0.435044 0.435044 0.435044
0.449837 0.449837 0.449837
0.464479 0.464479 0.464479
0.478976 0.478976 0.478976
0.493330 0.493330 0.493330
0.507545 0.507545 0.507545
0.521624 0.521624 0.521624
0.535570 0.535570 0.535570
0.549386 0.549386 0.549386
0.563075 0.563075 0.563075
0.576638 0.576638 0.576638
0.590080 0.590080 0.590080
0.603401 0.603401 0.603401
0.616604 0.616604 0.616604
0.629691 0.629691 0.629691
0.455185 0.455185 0.455185
0.469774 0.469774 0.469774
0.484218 0.484218 0.484218
0.498521 0.498521 0.498521
0.512686 0.512686 0.512686
0.526716 0.526716 0.526716
0.540615 0.540615 0.540615
0.554384 0.554384 0.554384
0.568027 0.568027 0.568027
0.581546 0.581546 0.581546
0.594943 0.594943 0.594943
0.608221 0.608221 0.608221
0.621381 0.621381 0.621381
0.634427 0.634427 0.634427
0.647358 0.647358 0.647358
0.660178 0.660178 0.660178
0.672888 0.672888 0.672888
0.503694 0.503694 0.503694
0.517809 0.517809 0.517809
0.531791 0.531791 0.531791
0.545642 0.545642 0.545642
0.559366 0.559366 0.559366
0.572963 0.572963 0.572963
0.586437 0.586437 0.586437
0.599791 0.599791 0.599791
0.613026 0.613026 0.613026
0.626144 0.626144 0.626144
0.639148 0.639148 0.639148
0.652038 0.652038 0.652038
0.664818 0.664818 0.664818
0.677489 0.677489 0.677489
0.690051 0.690051 0.690051
0.702508 0.702508 0.702508
0.714860 0.714860 0.714860
0.550653 0.550653 0.550653
0.564330 0.564330 0.564330
0.577883 0.577883 0.577883
0.591313 0.591313 0.591313
0.604623 0.604623 0.604623
0.617815 0.617815 0.617815
0.630891 0.630891 0.630891
0.643854 0.643854 0.643854
0.656704 0.656704 0.656704
0.669444 0.669444 0.669444
0.682075 0.682075 0.682075
0.694599 0.694599 0.694599
0.707017 0.707017 0.707017
0.719331 0.719331 0.719331
0.731543 0.731543 0.731543
0.743653 0.743653 0.743653
0.755663 0.755663 0.755663
0.596172 0.596172 0.596172
0.609439 0.609439 0.609439
0.622589 0.622589 0.622589
0.635623 0.635623 0.635623
0.648545 0.648545 0.648545
0.661355 0.661355 0.661355
0.674055 0.674055 0.674055
0.686646 0.686646 0.686646
0.699132 0.699132 0.699132
0.711512 0.711512 0.711512
0.723789 0.723789 0.723789
0.735963 0.735963 0.735963
0.748037 0.748037 0.748037
0.760011 0.760011 0.760011
0.771886 0.771886 0.771886
0.783665 0.783665 0.783665
0.795347 0.795347 0.795347
0.640341 0.640341 0.640341
0.653221 0.653221 0.653221
0.665991 0.665991 0.665991
0.678651 0.678651 0.678651
0.691204 0.691204 0.691204
0.703651 0.703651 0.703651
0.715993 0.715993 0.715993
0.728233 0.728233 0.728233
0.740370 0.740370 0.740370
0.752408 0.752408 0.752408
0.764346 0.764346 0.764346
0.776186 0.776186 0.776186
0.787929 0.787929 0.787929
0.799577 0.799577 0.799577
0.811130 0.811130 0.811130
0.822590 0.822590 0.822590
0.833957 0.833957 0.833957
0.683234 0.683234 0.683234
0.695748 0.695748 0.695748
0.708156 0.708156 0.708156
0.720461 0.720461 0.720461
0.732663 0.732663 0.732663
0.744764 0.744764 0.744764
0.756765 0.756765 0.756765
0.768667 0.768667 0.768667
0.780472 0.780472 0.780472
0.792181 0.792181 0.792181
0.803794 0.803794 0.803794
0.815313 0.815313 0.815313
0.826739 0.826739 0.826739
0.838072 0.838072 0.838072
0.849315 0.849315 0.849315
0.860467 0.860467 0.860467
0.871530 0.871530 0.871530
0.724915 0.724915 0.724915
0.737081 0.737081 0.737081
0.749145 0.749145 0.749145
0.761110 0.761110 0.761110
0.772976 0.772976 0.772976
0.784746 0.784746 0.784746
0.796420 0.796420 0.796420
0.807998 0.807998 0.807998
0.819483 0.819483 0.819483
0.830875 0.830875 0.830875
0.842176 0.842176 0.842176
0.853385 0.853385 0.853385
0.864505 0.864505 0.864505
0.875536 0.875536 0.875536
0.886478 0.886478 0.886478
0.897334 0.897334 0.897334
0.908103 0.908103 0.908103
0.765441 0.765441 0.765441
0.777272 0.777272 0.777272
0.789007 0.789007 0.789007
0.800646 0.800646 0.800646
0.812190 0.812190 0.812190
0.823641 0.823641 0.823641
0.835000 0.835000 0.835000
0.846267 0.846267 0.846267
0.857444 0.857444 0.857444
0.868531 0.868531 0.868531
0.879530 0.879530 0.879530
0.890441 0.890441 0.890441
0.901264 0.901264 0.901264
0.912002 0.912002 0.912002
0.922654 0.922654 0.922654
0.933221 0.933221 0.933221
0.943705 0.943705 0.943705
0.804860 0.804860 0.804860
0.816370 0.816370 0.816370
0.827787 0.827787 0.827787
0.839113 0.839113 0.839113
0.850347 0.850347 0.850347
0.861491 0.861491 0.861491
0.872546 0.872546 0.872546
0.883512 0.883512 0.883512
0.894391 0.894391 0.894391
0.905183 0.905183 0.905183
0.915890 0.915890 0.915890
0.926511 0.926511 0.926511
0.937048 0.937048 0.937048
0.947501 0.947501 0.947501
0.957871 0.957871 0.957871
0.968159 0.968159 0.968159
0.970000 0.970000 0.970000
0.000000 0.000000 0.000000
0.005674 0.005674 0.005674
0.028743 0.028743 0.028743
0.050679 0.050679 0.050679
0.071777 0.071777 0.071777
0.092208 0.092208 0.092208
0.112082 0.112082 0.112082
0.131476 0.131476 0.131476
0.150447 0.150447 0.150447
0.169040 0.169040 0.169040
0.187290 0.187290 0.187290
0.205224 0.205224 0.205224
0.222866 0.222866 0.222866
0.240236 0.240236 0.240236
0.257351 0.257351 0.257351
0.274226 0.274226 0.274226
0.290872 0.290872 0.290872
0.058447 0.058447 0.058447
