luts/film_stocks/kodak_ektachrome_100d.cube
TITLE "Kodak Ektachrome 100D"
LUT_3D_SIZE 17
DOMAIN_MIN 0.0 0.0 0.0
DOMAIN_MAX 1.0 1.0 1.0
0.000000 0.000000 0.000000
0.086307 0.000000 0.000000
0.183405 0.000000 0.000000
0.274918 0.000000 0.000000
0.362373 0.000000 0.000000
0.446495 0.000000 0.000000
0.527714 0.000000 0.000000
0.606317 0.000000 0.000000
0.682510 0.000000 0.000000
0.756450 0.000000 0.000000
0.828260 0.000000 0.000000
0.898039 0.000000 0.000000
0.965869 0.000000 0.000000
1.000000 0.000000 0.000000
1.000000 0.000000 0.000000
1.000000 0.000000 0.000000
1.000000 0.000000 0.000000
0.000000 0.065952 0.000000
0.075298 0.062119 0.000000
0.172396 0.057808 0.000000
0.263909 0.053744 0.000000
0.351364 0.049860 0.000000
0.435486 0.046124 0.000000
0.516705 0.042517 0.000000
0.595308 0.039027 0.000000
0.671502 0.035643 0.000000
0.745442 0.032360 0.000000
0.817251 0.029171 0.000000
0.887030 0.026072 0.000000
0.954861 0.023060 0.000000
1.000000 0.020131 0.000000
1.000000 0.017283 0.000000
1.000000 0.014513 0.000000
1.000000 0.013865 0.000000
0.000000 0.146507 0.000000
0.061853 0.142674 0.000000
0.158951 0.138363 0.000000
0.250464 0.134299 0.000000
0.337918 0.130415 0.000000
0.422040 0.126679 0.000000
0.503259 0.123072 0.000000
0.581862 0.119582 0.000000
0.658056 0.116198 0.000000
0.731996 0.112915 0.000000
0.803805 0.109726 0.000000
0.873584 0.106627 0.000000
0.941415 0.103615 0.000000
1.000000 0.100686 0.000000
1.000000 0.097838 0.000000
1.000000 0.095068 0.000000
1.000000 0.094420 0.000000
0.000000 0.224009 0.000000
0.048916 0.220177 0.000000
0.146014 0.215865 0.000000
0.237527 0.211801 0.000000
0.324982 0.207917 0.000000
0.409104 0.204181 0.000000
0.490323 0.200575 0.000000
0.568926 0.197084 0.000000
0.645119 0.193700 0.000000
0.719059 0.190417 0.000000
0.790869 0.187228 0.000000
0.860648 0.184129 0.000000
0.928478 0.181117 0.000000
0.994430 0.178188 0.000000
1.000000 0.175340 0.000000
1.000000 0.172570 0.000000
1.000000 0.171922 0.000000
0.000000 0.299237 0.000000
0.036360 0.295405 0.000000
0.133457 0.291093 0.000000
0.224971 0.287029 0.000000
0.312425 0.283145 0.000000
0.396547 0.279409 0.000000
0.477766 0.275803 0.000000
0.556369 0.272312 0.000000
0.632563 0.268928 0.000000
0.706503 0.265645 0.000000
0.778312 0.262456 0.000000
0.848091 0.259357 0.000000
0.915922 0.256345 0.000000
0.981873 0.253416 0.000000
1.000000 0.250568 0.000000
1.000000 0.247798 0.000000
1.000000 0.247150 0.000000
0.000000 0.372562 0.000000
0.024120 0.368730 0.000000
0.121218 0.364418 0.000000
0.212731 0.360354 0.000000
0.300186 0.356470 0.000000
0.384308 0.352734 0.000000
0.465527 0.349128 0.000000
0.544130 0.345637 0.000000
0.620324 0.342253 0.000000
0.694264 0.338970 0.000000
0.766073 0.335781 0.000000
0.835852 0.332682 0.000000
0.903683 0.329670 0.000000
0.969634 0.326741 0.000000
1.000000 0.323893 0.000000
1.000000 0.321124 0.000000
1.000000 0.320475 0.000000
0.000000 0.444205 0.000000
0.012162 0.440372 0.000000
0.109260 0.436060 0.000000
0.200773 0.431996 0.000000
0.288228 0.428113 0.000000
0.372350 0.424377 0.000000
0.453569 0.420770 0.000000
0.532172 0.417280 0.000000
0.608365 0.413896 0.000000
0.682305 0.410612 0.000000
0.754115 0.407423 0.000000
0.823894 0.404325 0.000000
0.891724 0.401312 0.000000
0.957676 0.398384 0.000000
1.000000 0.395536 0.000000
1.000000 0.392766 0.000000
1.000000 0.392118 0.000000
0.000000 0.514312 0.000000
0.000460 0.510479 0.000000
0.097558 0.506167 0.000000
0.189071 0.502103 0.000000
0.276526 0.498220 0.000000
0.360648 0.494484 0.000000
0.441867 0.490877 0.000000
0.520470 0.487387 0.000000
0.596663 0.484003 0.000000
0.670603 0.480719 0.000000
0.742413 0.477530 0.000000
0.812192 0.474432 0.000000
0.880022 0.471419 0.000000
0.945974 0.468491 0.000000
1.000000 0.465643 0.000000
1.000000 0.462873 0.000000
1.000000 0.462225 0.000000
0.000000 0.582989 0.000000
0.000000 0.579157 0.000000
0.086095 0.574845 0.000000
0.177608 0.570781 0.000000
0.265063 0.566897 0.000000
0.349185 0.563161 0.000000
0.430404 0.559555 0.000000
0.509007 0.556064 0.000000
0.585200 0.552680 0.000000
0.659140 0.549397 0.000000
0.730950 0.546208 0.000000
0.800729 0.543109 0.000000
0.868559 0.540097 0.000000
0.934511 0.537168 0.000000
0.998644 0.534320 0.000000
1.000000 0.531550 0.000000
1.000000 0.530902 0.000000
0.000000 0.650317 0.000000
0.000000 0.646484 0.000000
0.074857 0.642172 0.000000
0.166370 0.638108 0.000000
0.253825 0.634225 0.000000
0.337947 0.630489 0.000000
0.419166 0.626882 0.000000
0.497769 0.623392 0.000000
0.573962 0.620008 0.000000
0.647902 0.616724 0.000000
0.719712 0.613535 0.000000
0.789491 0.610437 0.000000
0.857321 0.607424 0.000000
0.923273 0.604496 0.000000
0.987406 0.601648 0.000000
1.000000 0.598878 0.000000
1.000000 0.598230 0.000000
0.000000 0.716358 0.000000
0.000000 0.712525 0.000000
0.063834 0.708213 0.000000
0.155347 0.704149 0.000000
0.242802 0.700265 0.000000
0.326923 0.696530 0.000000
0.408142 0.692923 0.000000
0.486745 0.689432 0.000000
0.562939 0.686049 0.000000
0.636879 0.682765 0.000000
0.708688 0.679576 0.000000
0.778467 0.676477 0.000000
0.846298 0.673465 0.000000
0.912250 0.670536 0.000000
0.976382 0.667688 0.000000
1.000000 0.664919 0.000000
1.000000 0.664271 0.000000
0.000000 0.781163 0.000000
0.000000 0.777330 0.000000
0.053017 0.773018 0.000000
0.144530 0.768954 0.000000
0.231985 0.765070 0.000000
0.316107 0.761334 0.000000
0.397325 0.757728 0.000000
0.475928 0.754237 0.000000
0.552122 0.750853 0.000000
0.626062 0.747570 0.000000
0.697872 0.744381 0.000000
0.767650 0.741282 0.000000
0.835481 0.738270 0.000000
0.901433 0.735341 0.000000
0.965565 0.732493 0.000000
1.000000 0.729724 0.000000
1.000000 0.729076 0.000000
0.000000 0.844773 0.000000
0.000000 0.840941 0.000000
0.042399 0.836629 0.000000
0.133912 0.832565 0.000000
0.221367 0.828681 0.000000
0.305489 0.824945 0.000000
0.386708 0.821339 0.000000
0.465311 0.817848 0.000000
0.541504 0.814464 0.000000
0.615444 0.811181 0.000000
0.687254 0.807992 0.000000
0.757033 0.804893 0.000000
0.824863 0.801881 0.000000
0.890815 0.798952 0.000000
0.954948 0.796104 0.000000
1.000000 0.793334 0.000000
1.000000 0.792686 0.000000
0.000000 0.907226 0.000000
0.000000 0.903393 0.000000
0.031975 0.899081 0.000000
0.123488 0.895017 0.000000
0.210943 0.891134 0.000000
0.295065 0.887398 0.000000
0.376283 0.883791 0.000000
0.454886 0.880300 0.000000
0.531080 0.876917 0.000000
0.605020 0.873633 0.000000
0.676830 0.870444 0.000000
0.746608 0.867346 0.000000
0.814439 0.864333 0.000000
0.880391 0.861405 0.000000
0.944523 0.858556 0.000000
1.000000 0.855787 0.000000
1.000000 0.855139 0.000000
0.000000 0.968550 0.000000
0.000000 0.964718 0.000000
0.021739 0.960406 0.000000
0.113252 0.956342 0.000000
0.200707 0.952458 0.000000
0.284829 0.948722 0.000000
0.366047 0.945116 0.000000
0.444650 0.941625 0.000000
0.520844 0.938241 0.000000
0.594784 0.934958 0.000000
0.666594 0.931769 0.000000
0.736372 0.928670 0.000000
0.804203 0.925658 0.000000
0.870155 0.922729 0.000000
0.934287 0.919881 0.000000
0.996653 0.917111 0.000000
1.000000 0.916463 0.000000
0.000000 1.000000 0.000000
0.000000 1.000000 0.000000
0.011687 1.000000 0.000000
0.103200 1.000000 0.000000
0.190655 1.000000 0.000000
0.274776 1.000000 0.000000
0.355995 1.000000 0.000000
0.434598 1.000000 0.000000
0.510792 0.998464 0.000000
0.584732 0.995181 0.000000
0.656541 0.991992 0.000000
0.726320 0.988893 0.000000
0.794151 0.985881 0.000000
0.860103 0.982952 0.000000
0.924235 0.980104 0.000000
0.986601 0.977334 0.000000
1.000000 0.976686 0.000000
0.000000 1.000000 0.000000
0.000000 1.000000 0.000000
0.006393 1.000000 0.000000
0.097906 1.000000 0.000000
0.185361 1.000000 0.000000
0.269483 1.000000 0.000000
0.350702 1.000000 0.000000
0.429305 1.000000 0.000000
0.505498 1.000000 0.000000
0.579438 1.000000 0.000000
0.651248 1.000000 0.000000
0.721027 1.000000 0.000000
0.788857 1.000000 0.000000
0.854809 1.000000 0.000000
0.918942 1.000000 0.000000
0.981307 1.000000 0.000000
0.995901 1.000000 0.000000
0.000000 0.000000 0.080754
0.085124 0.000000 0.076921
0.182222 0.000000 0.072609
0.273735 0.000000 0.068545
0.361190 0.000000 0.064662
0.445312 0.000000 0.060926
0.526530 0.000000 0.057319
0.605133 0.000000 0.053828
0.681327 0.000000 0.050445
0.755267 0.000000 0.047161
0.827077 0.000000 0.043972
0.896855 0.000000 0.040874
0.964686 0.000000 0.037861
1.000000 0.000000 0.034933
1.000000 0.000000 0.032085
1.000000 0.000000 0.029315
1.000000 0.000000 0.028667
0.000000 0.064769 0.069745
0.074115 0.060936 0.065913
0.171213 0.056624 0.061601
0.262726 0.052560 0.057537
0.350181 0.048677 0.053653
0.434303 0.044941 0.049917
0.515522 0.041334 0.046311
0.594125 0.037844 0.042820
0.670318 0.034460 0.039436
0.744258 0.031176 0.036153
0.816068 0.027987 0.032964
0.885847 0.024889 0.029865
0.953677 0.021877 0.026853
1.000000 0.018948 0.023924
1.000000 0.016100 0.021076
1.000000 0.013330 0.018307
1.000000 0.012682 0.017658
0.000000 0.145324 0.056300
0.060669 0.141491 0.052467
0.157767 0.137179 0.048155
0.249280 0.133115 0.044091
0.336735 0.129232 0.040207
0.420857 0.125496 0.036472
0.502076 0.121889 0.032865
0.580679 0.118399 0.029374
0.656872 0.115015 0.025991
0.730813 0.111731 0.022707
0.802622 0.108542 0.019518
0.872401 0.105444 0.016419
0.940232 0.102431 0.013407
1.000000 0.099503 0.010478
1.000000 0.096655 0.007630
1.000000 0.093885 0.004861
1.000000 0.093237 0.004213
0.000000 0.222826 0.043363
0.047733 0.218993 0.039531
0.144831 0.214682 0.035219
0.236344 0.210618 0.031155
0.323799 0.206734 0.027271
0.407921 0.202998 0.023535
0.489140 0.199391 0.019928
0.567743 0.195901 0.016438
0.643936 0.192517 0.013054
0.717876 0.189234 0.009771
0.789686 0.186045 0.006582
0.859465 0.182946 0.003483
0.927295 0.179934 0.000471
0.993247 0.177005 0.000000
1.000000 0.174157 0.000000
1.000000 0.171387 0.000000
1.000000 0.170739 0.000000
0.000000 0.298054 0.030807
0.035176 0.294221 0.026974
0.132274 0.289910 0.022662
0.223787 0.285846 0.018598
0.311242 0.281962 0.014714
0.395364 0.278226 0.010978
0.476583 0.274619 0.007372
0.555186 0.271129 0.003881
0.631379 0.267745 0.000497
0.705320 0.264462 0.000000
0.777129 0.261273 0.000000
0.846908 0.258174 0.000000
0.914739 0.255162 0.000000
0.980690 0.252233 0.000000
1.000000 0.249385 0.000000
1.000000 0.246615 0.000000
1.000000 0.245967 0.000000
0.000000 0.371379 0.018567
0.022937 0.367547 0.014735
0.120035 0.363235 0.010423
0.211548 0.359171 0.006359
0.299003 0.355287 0.002475
0.383125 0.351551 0.000000
0.464344 0.347944 0.000000
0.542947 0.344454 0.000000
0.619140 0.341070 0.000000
0.693080 0.337787 0.000000
0.764890 0.334598 0.000000
0.834669 0.331499 0.000000
0.902499 0.328487 0.000000
0.968451 0.325558 0.000000
1.000000 0.322710 0.000000
1.000000 0.319940 0.000000
1.000000 0.319292 0.000000
0.000000 0.443022 0.006609
0.010979 0.439189 0.002776
0.108077 0.434877 0.000000
0.199590 0.430813 0.000000
0.287045 0.426929 0.000000
0.371167 0.423194 0.000000
0.452386 0.419587 0.000000
0.530989 0.416096 0.000000
0.607182 0.412713 0.000000
0.681122 0.409429 0.000000
0.752932 0.406240 0.000000
0.822711 0.403142 0.000000
0.890541 0.400129 0.000000
0.956493 0.397200 0.000000
1.000000 0.394352 0.000000
1.000000 0.391583 0.000000
1.000000 0.390935 0.000000
0.000000 0.513129 0.000000
0.000000 0.509296 0.000000
0.096375 0.504984 0.000000
0.187888 0.500920 0.000000
0.275343 0.497037 0.000000
0.359465 0.493301 0.000000
0.440684 0.489694 0.000000
0.519287 0.486203 0.000000
0.595480 0.482820 0.000000
0.669420 0.479536 0.000000
0.741230 0.476347 0.000000
0.811009 0.473249 0.000000
0.878839 0.470236 0.000000
0.944791 0.467308 0.000000
1.000000 0.464460 0.000000
1.000000 0.461690 0.000000
1.000000 0.461042 0.000000
0.000000 0.581806 0.000000
0.000000 0.577973 0.000000
0.084912 0.573662 0.000000
0.176425 0.569598 0.000000
0.263880 0.565714 0.000000
0.348002 0.561978 0.000000
0.429220 0.558371 0.000000
0.507823 0.554881 0.000000
0.584017 0.551497 0.000000
0.657957 0.548214 0.000000
0.729767 0.545025 0.000000
0.799545 0.541926 0.000000
0.867376 0.538914 0.000000
0.933328 0.535985 0.000000
0.997460 0.533137 0.000000
1.000000 0.530367 0.000000
1.000000 0.529719 0.000000
0.000000 0.649134 0.000000
0.000000 0.645301 0.000000
0.073674 0.640989 0.000000
0.165187 0.636925 0.000000
0.252642 0.633041 0.000000
0.336763 0.629306 0.000000
0.417982 0.625699 0.000000
0.496585 0.622208 0.000000
0.572779 0.618825 0.000000
0.646719 0.615541 0.000000
0.718529 0.612352 0.000000
0.788307 0.609254 0.000000
0.856138 0.606241 0.000000
0.922090 0.603312 0.000000
0.986222 0.600464 0.000000
1.000000 0.597695 0.000000
1.000000 0.597047 0.000000
0.000000 0.715175 0.000000
0.000000 0.711342 0.000000
0.062650 0.707030 0.000000
0.154163 0.702966 0.000000
0.241618 0.699082 0.000000
0.325740 0.695347 0.000000
0.406959 0.691740 0.000000
0.485562 0.688249 0.000000
0.561756 0.684866 0.000000
0.635696 0.681582 0.000000
0.707505 0.678393 0.000000
0.777284 0.675294 0.000000
0.845115 0.672282 0.000000
0.911066 0.669353 0.000000
0.975199 0.666505 0.000000
1.000000 0.663736 0.000000
1.000000 0.663088 0.000000
0.000000 0.779979 0.000000
0.000000 0.776147 0.000000
0.051834 0.771835 0.000000
0.143347 0.767771 0.000000
0.230801 0.763887 0.000000
0.314923 0.760151 0.000000
0.396142 0.756545 0.000000
0.474745 0.753054 0.000000
0.550939 0.749670 0.000000
0.624879 0.746387 0.000000
0.696688 0.743198 0.000000
0.766467 0.740099 0.000000
0.834298 0.737087 0.000000
0.900249 0.734158 0.000000
0.964382 0.731310 0.000000
1.000000 0.728540 0.000000
1.000000 0.727892 0.000000
0.000000 0.843590 0.000000
0.000000 0.839757 0.000000
0.041216 0.835446 0.000000
0.132729 0.831382 0.000000
0.220184 0.827498 0.000000
0.304306 0.823762 0.000000
0.385525 0.820155 0.000000
0.464128 0.816665 0.000000
0.540321 0.813281 0.000000
0.614261 0.809998 0.000000
0.686071 0.806809 0.000000
0.755850 0.803710 0.000000
0.823680 0.800698 0.000000
0.889632 0.797769 0.000000
0.953765 0.794921 0.000000
1.000000 0.792151 0.000000
1.000000 0.791503 0.000000
0.000000 0.906043 0.000000
0.000000 0.902210 0.000000
0.030792 0.897898 0.000000
0.122305 0.893834 0.000000
0.209760 0.889950 0.000000
0.293881 0.886215 0.000000
0.375100 0.882608 0.000000
0.453703 0.879117 0.000000
0.529897 0.875734 0.000000
0.603837 0.872450 0.000000
0.675646 0.869261 0.000000
0.745425 0.866162 0.000000
0.813256 0.863150 0.000000
0.879208 0.860221 0.000000
0.943340 0.857373 0.000000
1.000000 0.854604 0.000000
1.000000 0.853956 0.000000
0.000000 0.967367 0.000000
0.000000 0.963534 0.000000
0.020556 0.959222 0.000000
0.112069 0.955159 0.000000
0.199523 0.951275 0.000000
0.283645 0.947539 0.000000
0.364864 0.943932 0.000000
0.443467 0.940442 0.000000
0.519661 0.937058 0.000000
0.593601 0.933775 0.000000
0.665410 0.930586 0.000000
0.735189 0.927487 0.000000
0.803020 0.924475 0.000000
0.868972 0.921546 0.000000
0.933104 0.918698 0.000000
0.995470 0.915928 0.000000
1.000000 0.915280 0.000000
0.000000 1.000000 0.000000
0.000000 1.000000 0.000000
0.010503 1.000000 0.000000
0.102016 1.000000 0.000000
0.189471 1.000000 0.000000
0.273593 1.000000 0.000000
0.354812 1.000000 0.000000
0.433415 1.000000 0.000000
0.509609 0.997281 0.000000
0.583549 0.993997 0.000000
0.655358 0.990808 0.000000
0.725137 0.987710 0.000000
0.792968 0.984697 0.000000
0.858919 0.981769 0.000000
0.923052 0.978921 0.000000
0.985418 0.976151 0.000000
1.000000 0.975503 0.000000
0.000000 1.000000 0.000000
0.000000 1.000000 0.000000
0.005210 1.000000 0.000000
0.096723 1.000000 0.000000
0.184178 1.000000 0.000000
0.268300 1.000000 0.000000
0.349518 1.000000 0.000000
0.428121 1.000000 0.000000
0.504315 1.000000 0.000000
0.578255 1.000000 0.000000
0.650065 1.000000 0.000000
0.719843 1.000000 0.000000
0.787674 1.000000 0.000000
0.853626 1.000000 0.000000
0.917758 1.000000 0.000000
0.980124 1.000000 0.000000
0.994718 1.000000 0.000000
0.000000 0.000000 0.169112
0.083829 0.000000 0.165279
0.180927 0.000000 0.160967
0.272440 0.000000 0.156903
0.359895 0.000000 0.153019
0.444017 0.000000 0.149284
0.525236 0.000000 0.145677
0.603839 0.000000 0.142186
0.680032 0.000000 0.138802
0.753972 0.000000 0.135519
0.825782 0.000000 0.132330
0.895561 0.000000 0.129231
0.963391 0.000000 0.126219
1.000000 0.000000 0.123290
1.000000 0.000000 0.120442
1.000000 0.000000 0.117673
1.000000 0.000000 0.117025
0.000000 0.063474 0.158103
0.072821 0.059642 0.154270
0.169919 0.055330 0.149958
0.261432 0.051266 0.145894
0.348887 0.047382 0.142011
0.433009 0.043646 0.138275
0.514227 0.040040 0.134668
0.592830 0.036549 0.131178
0.669024 0.033165 0.127794
0.742964 0.029882 0.124510
0.814774 0.026693 0.121322
0.884552 0.023594 0.118223
0.952383 0.020582 0.115211
1.000000 0.017653 0.112282
1.000000 0.014805 0.109434
1.000000 0.012036 0.106664
1.000000 0.011387 0.106016
0.000000 0.144029 0.144657
0.059375 0.140197 0.140824
0.156473 0.135885 0.136513
0.247986 0.131821 0.132449
0.335441 0.127937 0.128565
0.419563 0.124201 0.124829
0.500782 0.120595 0.121222
0.579385 0.117104 0.117732
0.655578 0.113720 0.114348
0.729518 0.110437 0.111065
0.801328 0.107248 0.107876
0.871107 0.104149 0.104777
0.938937 0.101137 0.101765
1.000000 0.098208 0.098836
1.000000 0.095360 0.095988
1.000000 0.092591 0.093218
1.000000 0.091942 0.092570
0.000000 0.221532 0.131721
0.046439 0.217699 0.127888
0.143536 0.213387 0.123576
0.235050 0.209323 0.119512
0.322504 0.205439 0.115629
0.406626 0.201704 0.111893
0.487845 0.198097 0.108286
0.566448 0.194606 0.104795
0.642642 0.191223 0.101412
0.716582 0.187939 0.098128
0.788391 0.184750 0.094939
0.858170 0.181651 0.091841
0.926001 0.178639 0.088828
0.991952 0.175710 0.085900
1.000000 0.172862 0.083052
1.000000 0.170093 0.080282
1.000000 0.169445 0.079634
0.000000 0.296760 0.119164
0.033882 0.292927 0.115331
0.130980 0.288615 0.111019
0.222493 0.284551 0.106956
0.309948 0.280667 0.103072
0.394070 0.276932 0.099336
0.475289 0.273325 0.095729
0.553891 0.269834 0.092239
0.630085 0.266451 0.088855
0.704025 0.263167 0.085572
0.775835 0.259978 0.082383
0.845613 0.256879 0.079284
0.913444 0.253867 0.076272
0.979396 0.250938 0.073343
1.000000 0.248090 0.070495
1.000000 0.245321 0.067725
1.000000 0.244673 0.067077
0.000000 0.370085 0.106925
0.021643 0.366252 0.103092
0.118741 0.361940 0.098780
0.210254 0.357876 0.094716
0.297709 0.353992 0.090833
0.381830 0.350257 0.087097
0.463049 0.346650 0.083490
0.541652 0.343159 0.080000
0.617846 0.339776 0.076616
0.691786 0.336492 0.073332
0.763596 0.333303 0.070144
0.833374 0.330204 0.067045
0.901205 0.327192 0.064033
0.967157 0.324263 0.061104
1.000000 0.321415 0.058256
1.000000 0.318646 0.055486
1.000000 0.317998 0.054838
0.000000 0.441727 0.094967
0.009684 0.437895 0.091134
0.106782 0.433583 0.086822
0.198295 0.429519 0.082758
0.285750 0.425635 0.078874
0.369872 0.421899 0.075139
0.451091 0.418292 0.071532
0.529694 0.414802 0.068041
0.605887 0.411418 0.064658
0.679828 0.408135 0.061374
0.751637 0.404946 0.058185
0.821416 0.401847 0.055086
0.889247 0.398835 0.052074
0.955198 0.395906 0.049145
1.000000 0.393058 0.046297
1.000000 0.390288 0.043528
1.000000 0.389640 0.042880
0.000000 0.511834 0.083265
0.000000 0.508002 0.079432
0.095080 0.503690 0.075120
0.186593 0.499626 0.071056
0.274048 0.495742 0.067173
0.358170 0.492006 0.063437
0.439389 0.488399 0.059830
0.517992 0.484909 0.056339
0.594186 0.481525 0.052956
0.668126 0.478242 0.049672
0.739935 0.475053 0.046483
0.809714 0.471954 0.043385
0.877545 0.468942 0.040372
0.943496 0.466013 0.037444
1.000000 0.463165 0.034595
1.000000 0.460395 0.031826
1.000000 0.459747 0.031178
0.000000 0.580512 0.071802
0.000000 0.576679 0.067969
0.083617 0.572367 0.063657
0.175130 0.568303 0.059593
0.262585 0.564419 0.055709
0.346707 0.560684 0.051973
0.427926 0.557077 0.048367
0.506529 0.553586 0.044876
0.582722 0.550203 0.041492
0.656662 0.546919 0.038209
0.728472 0.543730 0.035020
0.798251 0.540631 0.031921
0.866081 0.537619 0.028909
0.932033 0.534690 0.025980
0.996166 0.531842 0.023132
1.000000 0.529073 0.020363
1.000000 0.528425 0.019715
0.000000 0.647839 0.060564
0.000000 0.644006 0.056731
0.072379 0.639695 0.052419
0.163892 0.635631 0.048355
0.251347 0.631747 0.044471
0.335469 0.628011 0.040735
0.416688 0.624404 0.037129
0.495291 0.620914 0.033638
0.571484 0.617530 0.030254
0.645424 0.614247 0.026971
0.717234 0.611058 0.023782
0.787013 0.607959 0.020683
0.854843 0.604947 0.017671
0.920795 0.602018 0.014742
0.984928 0.599170 0.011894
1.000000 0.596400 0.009125
1.000000 0.595752 0.008477
0.000000 0.713880 0.049540
0.000000 0.710047 0.045708
0.061356 0.705735 0.041396
0.152869 0.701671 0.037332
0.240324 0.697788 0.033448
0.324446 0.694052 0.029712
0.405665 0.690445 0.026105
0.484268 0.686955 0.022615
0.560461 0.683571 0.019231
0.634401 0.680287 0.015948
0.706211 0.677098 0.012759
0.775990 0.674000 0.009660
0.843820 0.670987 0.006648
0.909772 0.668059 0.003719
0.973905 0.665211 0.000871
1.000000 0.662441 0.000000
1.000000 0.661793 0.000000
0.000000 0.778685 0.038723
0.000000 0.774852 0.034891
0.050539 0.770540 0.030579
0.142052 0.766476 0.026515
0.229507 0.762592 0.022631
0.313629 0.758857 0.018895
0.394848 0.755250 0.015289
0.473451 0.751759 0.011798
0.549644 0.748376 0.008414
0.623584 0.745092 0.005131
0.695394 0.741903 0.001942
0.765173 0.738804 0.000000
0.833003 0.735792 0.000000
0.898955 0.732863 0.000000
0.963088 0.730015 0.000000
1.000000 0.727246 0.000000
1.000000 0.726598 0.000000
0.000000 0.842296 0.028106
0.000000 0.838463 0.024273
0.039921 0.834151 0.019961
0.131434 0.830087 0.015897
0.218889 0.826203 0.012013
0.303011 0.822468 0.008278
0.384230 0.818861 0.004671
0.462833 0.815370 0.001180
0.539026 0.811987 0.000000
0.612966 0.808703 0.000000
0.684776 0.805514 0.000000
0.754555 0.802415 0.000000
0.822385 0.799403 0.000000
0.888337 0.796474 0.000000
0.952470 0.793626 0.000000
1.000000 0.790857 0.000000
1.000000 0.790209 0.000000
0.000000 0.904748 0.017681
0.000000 0.900915 0.013849
0.029497 0.896603 0.009537
0.121010 0.892539 0.005473
0.208465 0.888656 0.001589
0.292587 0.884920 0.000000
0.373806 0.881313 0.000000
0.452409 0.877823 0.000000
0.528602 0.874439 0.000000
0.602542 0.871155 0.000000
0.674352 0.867967 0.000000
0.744131 0.864868 0.000000
0.811961 0.861856 0.000000
0.877913 0.858927 0.000000
0.942046 0.856079 0.000000
1.000000 0.853309 0.000000
1.000000 0.852661 0.000000
0.000000 0.966073 0.007445
0.000000 0.962240 0.003613
0.019261 0.957928 0.000000
0.110774 0.953864 0.000000
0.198229 0.949980 0.000000
0.282351 0.946245 0.000000
0.363570 0.942638 0.000000
0.442173 0.939147 0.000000
0.518366 0.935764 0.000000
0.592306 0.932480 0.000000
0.664116 0.929291 0.000000
0.733895 0.926192 0.000000
0.801725 0.923180 0.000000
0.867677 0.920251 0.000000
0.931810 0.917403 0.000000
0.994175 0.914634 0.000000
1.000000 0.913986 0.000000
0.000000 1.000000 0.000000
0.000000 1.000000 0.000000
0.009209 1.000000 0.000000
0.100722 1.000000 0.000000
0.188177 1.000000 0.000000
0.272299 1.000000 0.000000
0.353518 1.000000 0.000000
0.432121 0.999370 0.000000
0.508314 0.995986 0.000000
0.582254 0.992703 0.000000
0.654064 0.989514 0.000000
0.723843 0.986415 0.000000
0.791673 0.983403 0.000000
0.857625 0.980474 0.000000
0.921758 0.977626 0.000000
0.984123 0.974857 0.000000
0.998717 0.974208 0.000000
0.000000 1.000000 0.000000
0.000000 1.000000 0.000000
0.003915 1.000000 0.000000
0.095428 1.000000 0.000000
0.182883 1.000000 0.000000
0.267005 1.000000 0.000000
0.348224 1.000000 0.000000
0.426827 1.000000 0.000000
0.503020 1.000000 0.000000
0.576960 1.000000 0.000000
0.648770 1.000000 0.000000
0.718549 1.000000 0.000000
0.786379 1.000000 0.000000
0.852331 1.000000 0.000000
0.916464 1.000000 0.000000
0.978830 1.000000 0.000000
0.993423 1.000000 0.000000
0.000000 0.000000 0.255179
0.082568 0.000000 0.251346
0.179666 0.000000 0.247034
0.271179 0.000000 0.242970
0.358634 0.000000 0.239087
0.442756 0.000000 0.235351
0.523975 0.000000 0.231744
0.602578 0.000000 0.228253
0.678771 0.000000 0.224870
0.752711 0.000000 0.221586
0.824521 0.000000 0.218397
0.894300 0.000000 0.215299
0.962130 0.000000 0.212286
1.000000 0.000000 0.209357
1.000000 0.000000 0.206509
1.000000 0.000000 0.203740
1.000000 0.000000 0.203092
0.000000 0.062213 0.244170
