luts/film_stocks/kodak_vision3_250d.cube
TITLE "Kodak Vision3 250D"
LUT_3D_SIZE 5
DOMAIN_MIN 0.0 0.0 0.0
DOMAIN_MAX 1.0 1.0 1.0
0.010058 0.010058 0.000000
0.293901 0.005516 0.000000
0.559307 0.001270 0.000000
0.811539 0.000000 0.000000
1.000000 0.000000 0.000000
0.000000 0.287412 0.000000
0.278385 0.282871 0.000000
0.543792 0.278624 0.000000
0.796024 0.274588 0.000000
1.000000 0.270744 0.000000
0.000000 0.544552 0.000000
0.264000 0.540011 0.000000
0.529407 0.535764 0.000000
0.781639 0.531728 0.000000
1.000000 0.527884 0.000000
0.000000 0.789060 0.000000
0.250322 0.784519 0.000000
0.515729 0.780272 0.000000
0.767961 0.776236 0.000000
1.000000 0.772392 0.000000
0.000000 1.000000 0.000000
0.237257 1.000000 0.000000
0.502663 1.000000 0.000000
0.754896 1.000000 0.000000
0.995146 1.000000 0.000000
0.008567 0.008567 0.276542
0.292410 0.004025 0.272000
0.557816 0.000000 0.267754
0.810049 0.000000 0.263718
1.000000 0.000000 0.259874
0.000000 0.285921 0.261026
0.276894 0.281380 0.256485
0.542301 0.277133 0.252238
0.794533 0.273098 0.248202
1.000000 0.269254 0.244358
0.000000 0.543061 0.246641
0.262509 0.538520 0.242100
0.527916 0.534273 0.237853
0.780148 0.530237 0.233818
1.000000 0.526393 0.229974
0.000000 0.787569 0.232963
0.248831 0.783028 0.228422
0.514238 0.778781 0.224175
0.766470 0.774745 0.220140
1.000000 0.770901 0.216295
0.000000 1.000000 0.219898
0.235766 1.000000 0.215356
0.501172 1.000000 0.211110
0.753405 1.000000 0.207074
0.993655 1.000000 0.203230
0.007098 0.007098 0.549798
0.290941 0.002556 0.545256
0.556347 0.000000 0.541010
0.808579 0.000000 0.536974
1.000000 0.000000 0.533130
0.000000 0.284452 0.534282
0.275425 0.279911 0.529740
0.540831 0.275664 0.525494
0.793064 0.271628 0.521458
1.000000 0.267784 0.517614
0.000000 0.541592 0.519897
0.261040 0.537050 0.515356
0.526447 0.532804 0.511109
0.778679 0.528768 0.507073
1.000000 0.524924 0.503229
0.000000 0.786100 0.506219
0.247362 0.781558 0.501678
0.512768 0.777312 0.497431
0.765001 0.773276 0.493395
1.000000 0.769432 0.489551
0.000000 1.000000 0.493154
0.234297 1.000000 0.488612
0.499703 1.000000 0.484366
0.751935 1.000000 0.480330
0.992186 1.000000 0.476486
0.005650 0.005650 0.819025
0.289493 0.001108 0.814483
0.554899 0.000000 0.810237
0.807132 0.000000 0.806201
1.000000 0.000000 0.802357
0.000000 0.283004 0.803509
0.273977 0.278463 0.798968
0.539384 0.274216 0.794721
0.791616 0.270181 0.790686
1.000000 0.266337 0.786842
0.000000 0.540144 0.789125
0.259593 0.535603 0.784583
0.524999 0.531356 0.780337
0.777231 0.527320 0.776301
1.000000 0.523476 0.772457
0.000000 0.784652 0.775446
0.245914 0.780111 0.770905
0.511321 0.775864 0.766658
0.763553 0.771829 0.762623
1.000000 0.767984 0.758779
0.000000 1.000000 0.762381
0.232849 1.000000 0.757840
0.498256 1.000000 0.753593
0.750488 1.000000 0.749557
0.990738 1.000000 0.745713
0.004282 0.004282 1.000000
0.288125 0.000000 1.000000
0.553531 0.000000 1.000000
0.805763 0.000000 1.000000
1.000000 0.000000 1.000000
0.000000 0.281636 1.000000
0.272609 0.277095 1.000000
0.538016 0.272848 1.000000
0.790248 0.268812 1.000000
1.000000 0.264968 1.000000
0.000000 0.538776 1.000000
0.258224 0.534235 1.000000
0.523631 0.529988 1.000000
0.775863 0.525952 1.000000
1.000000 0.522108 1.000000
0.000000 0.783284 1.000000
0.244546 0.778743 1.000000
0.509953 0.774496 1.000000
0.762185 0.770460 1.000000
1.000000 0.766616 1.000000
0.000000 1.000000 1.000000
0.231481 1.000000 1.000000
0.496887 1.000000 1.000000
0.749120 1.000000 1.000000
0.989370 1.000000 1.000000
