luts/film_stocks/kodak_ektachrome_100d.cube
TITLE "Kodak Ektachrome 100D"
LUT_3D_SIZE 5
DOMAIN_MIN 0.0 0.0 0.0
DOMAIN_MAX 1.0 1.0 1.0
0.000000 0.000000 0.000000
0.362373 0.000000 0.000000
0.682510 0.000000 0.000000
0.965869 0.000000 0.000000
1.000000 0.000000 0.000000
0.000000 0.299237 0.000000
0.312425 0.283145 0.000000
0.632563 0.268928 0.000000
0.915922 0.256345 0.000000
1.000000 0.247150 0.000000
0.000000 0.582989 0.000000
0.265063 0.566897 0.000000
0.585200 0.552680 0.000000
0.868559 0.540097 0.000000
1.000000 0.530902 0.000000
0.000000 0.844773 0.000000
0.221367 0.828681 0.000000
0.541504 0.814464 0.000000
0.824863 0.801881 0.000000
1.000000 0.792686 0.000000
0.000000 1.000000 0.000000
0.185361 1.000000 0.000000
0.505498 1.000000 0.000000
0.788857 1.000000 0.000000
0.995901 1.000000 0.000000
0.000000 0.000000 0.339466
0.357399 0.000000 0.323374
0.677536 0.000000 0.309157
0.960895 0.000000 0.296574
1.000000 0.000000 0.287379
0.000000 0.294264 0.289519
0.307452 0.278171 0.273427
0.627589 0.263955 0.259210
0.910948 0.251371 0.246626
1.000000 0.242177 0.237432
0.000000 0.578016 0.242156
0.260089 0.561923 0.226064
0.580226 0.547707 0.211847
0.863585 0.535123 0.199264
1.000000 0.525929 0.190069
0.000000 0.839800 0.198461
0.216393 0.823707 0.182368
0.536530 0.809491 0.168151
0.819889 0.796907 0.155568
1.000000 0.787713 0.146374
0.000000 1.000000 0.162454
0.180387 1.000000 0.146362
0.500524 1.000000 0.132145
0.783883 1.000000 0.119562
0.990927 1.000000 0.110367
0.000000 0.000000 0.662500
0.352666 0.000000 0.646408
0.672803 0.000000 0.632191
0.956162 0.000000 0.619608
1.000000 0.000000 0.610413
0.000000 0.289531 0.612553
0.302719 0.273438 0.596460
0.622856 0.259222 0.582244
0.906215 0.246638 0.569660
1.000000 0.237444 0.560466
0.000000 0.573283 0.565190
0.255356 0.557190 0.549098
0.575493 0.542974 0.534881
0.858852 0.530390 0.522298
1.000000 0.521196 0.513103
0.000000 0.835067 0.521494
0.211660 0.818974 0.505402
0.531797 0.804758 0.491185
0.815157 0.792174 0.478602
1.000000 0.782980 0.469407
0.000000 1.000000 0.485488
0.175654 1.000000 0.469396
0.495791 1.000000 0.455179
0.779150 1.000000 0.442596
0.986194 0.998694 0.433401
0.000000 0.000000 0.966579
0.348211 0.000000 0.950487
0.668348 0.000000 0.936270
0.951707 0.000000 0.923686
1.000000 0.000000 0.914492
0.000000 0.285076 0.916632
0.298264 0.268983 0.900539
0.618401 0.254766 0.886323
0.901760 0.242183 0.873739
1.000000 0.232989 0.864545
0.000000 0.568827 0.869269
0.250901 0.552735 0.853177
0.571038 0.538518 0.838960
0.854397 0.525935 0.826376
1.000000 0.516740 0.817182
0.000000 0.830611 0.825573
0.207205 0.814519 0.809481
0.527342 0.800302 0.795264
0.810701 0.787719 0.782681
1.000000 0.778524 0.773486
0.000000 1.000000 0.789567
0.171199 1.000000 0.773475
0.491336 1.000000 0.759258
0.774695 1.000000 0.746674
0.981739 0.994239 0.737480
0.000000 0.000000 1.000000
0.344323 0.000000 1.000000
0.664460 0.000000 1.000000
0.947819 0.000000 1.000000
1.000000 0.000000 1.000000
0.000000 0.281187 1.000000
0.294375 0.265095 1.000000
0.614513 0.250878 1.000000
0.897872 0.238295 1.000000
1.000000 0.229100 1.000000
0.000000 0.564939 1.000000
0.247013 0.548847 1.000000
0.567150 0.534630 1.000000
0.850509 0.522047 1.000000
1.000000 0.512852 1.000000
0.000000 0.826723 1.000000
0.203317 0.810631 1.000000
0.523454 0.796414 1.000000
0.806813 0.783831 1.000000
1.000000 0.774636 1.000000
0.000000 1.000000 1.000000
0.167311 1.000000 1.000000
0.487448 1.000000 1.000000
0.770807 0.999545 1.000000
0.977851 0.990351 1.000000
