luts/film_stocks/kodak_trix_400_bw.cube
TITLE "Kodak Tri-X 400 B&W"
LUT_3D_SIZE 9
DOMAIN_MIN 0.0 0.0 0.0
DOMAIN_MAX 1.0 1.0 1.0
0.000000 0.000000 0.000000
0.013848 0.013848 0.013848
0.052021 0.052021 0.052021
0.088139 0.088139 0.088139
0.122897 0.122897 0.122897
0.156618 0.156618 0.156618
0.189490 0.189490 0.189490
0.221636 0.221636 0.221636
0.253141 0.253141 0.253141
0.100929 0.100929 0.100929
0.135282 0.135282 0.135282
0.168677 0.168677 0.168677
0.201272 0.201272 0.201272
0.233176 0.233176 0.233176
0.264465 0.264465 0.264465
0.295199 0.295199 0.295199
0.325422 0.325422 0.325422
0.355172 0.355172 0.355172
0.212963 0.212963 0.212963
0.244635 0.244635 0.244635
0.275716 0.275716 0.275716
0.306259 0.306259 0.306259
0.336306 0.336306 0.336306
0.365891 0.365891 0.365891
0.395044 0.395044 0.395044
0.423788 0.423788 0.423788
0.452143 0.452143 0.452143
0.317253 0.317253 0.317253
0.347129 0.347129 0.347129
0.376554 0.376554 0.376554
0.405555 0.405555 0.405555
0.434155 0.434155 0.434155
0.462373 0.462373 0.462373
0.490227 0.490227 0.490227
0.517730 0.517730 0.517730
0.544897 0.544897 0.544897
0.416012 0.416012 0.416012
0.444471 0.444471 0.444471
0.472555 0.472555 0.472555
0.500280 0.500280 0.500280
0.527659 0.527659 0.527659
0.554706 0.554706 0.554706
0.581431 0.581431 0.581431
0.607846 0.607846 0.607846
0.633958 0.633958 0.633958
0.510287 0.510287 0.510287
0.537544 0.537544 0.537544
0.564472 0.564472 0.564472
0.591083 0.591083 0.591083
0.617387 0.617387 0.617387
0.643391 0.643391 0.643391
0.669105 0.669105 0.669105
0.694535 0.694535 0.694535
0.719689 0.719689 0.719689
0.600695 0.600695 0.600695
0.626888 0.626888 0.626888
0.652786 0.652786 0.652786
0.678396 0.678396 0.678396
0.703724 0.703724 0.703724
0.728778 0.728778 0.728778
0.753564 0.753564 0.753564
0.778087 0.778087 0.778087
0.802353 0.802353 0.802353
0.687649 0.687649 0.687649
0.712877 0.712877 0.712877
0.737833 0.737833 0.737833
0.762522 0.762522 0.762522
0.786951 0.786951 0.786951
0.811124 0.811124 0.811124
0.835046 0.835046 0.835046
0.858721 0.858721 0.858721
0.882155 0.882155 0.882155
0.771446 0.771446 0.771446
0.795781 0.795781 0.795781
0.819862 0.819862 0.819862
0.843694 0.843694 0.843694
0.867280 0.867280 0.867280
0.890626 0.890626 0.890626
0.913735 0.913735 0.913735
0.936610 0.936610 0.936610
0.959256 0.959256 0.959256
0.000000 0.000000 0.000000
0.027122 0.027122 0.027122
0.064469 0.064469 0.064469
0.100075 0.100075 0.100075
0.134454 0.134454 0.134454
0.167870 0.167870 0.167870
0.200484 0.200484 0.200484
0.232403 0.232403 0.232403
0.263707 0.263707 0.263707
0.112716 0.112716 0.112716
0.146721 0.146721 0.146721
0.179830 0.179830 0.179830
0.212180 0.212180 0.212180
0.243868 0.243868 0.243868
0.274962 0.274962 0.274962
0.305518 0.305518 0.305518
0.335577 0.335577 0.335577
0.365173 0.365173 0.365173
0.223789 0.223789 0.223789
0.255254 0.255254 0.255254
0.286147 0.286147 0.286147
0.316517 0.316517 0.316517
0.346404 0.346404 0.346404
0.375839 0.375839 0.375839
0.404850 0.404850 0.404850
0.433460 0.433460 0.433460
0.461687 0.461687 0.461687
0.327452 0.327452 0.327452
0.357171 0.357171 0.357171
0.386449 0.386449 0.386449
0.415312 0.415312 0.415312
0.443780 0.443780 0.443780
0.471873 0.471873 0.471873
0.499606 0.499606 0.499606
0.526993 0.526993 0.526993
0.554048 0.554048 0.554048
0.425720 0.425720 0.425720
0.454050 0.454050 0.454050
0.482010 0.482010 0.482010
0.509616 0.509616 0.509616
0.536881 0.536881 0.536881
0.563817 0.563817 0.563817
0.590436 0.590436 0.590436
0.616747 0.616747 0.616747
0.642759 0.642759 0.642759
0.519581 0.519581 0.519581
0.546725 0.546725 0.546725
0.573545 0.573545 0.573545
0.600050 0.600050 0.600050
0.626251 0.626251 0.626251
0.652156 0.652156 0.652156
0.677773 0.677773 0.677773
0.703108 0.703108 0.703108
0.728169 0.728169 0.728169
0.609624 0.609624 0.609624
0.635716 0.635716 0.635716
0.661515 0.661515 0.661515
0.687029 0.687029 0.687029
0.712263 0.712263 0.712263
0.737226 0.737226 0.737226
0.761922 0.761922 0.761922
0.786357 0.786357 0.786357
0.810536 0.810536 0.810536
0.696248 0.696248 0.696248
0.721382 0.721382 0.721382
0.746247 0.746247 0.746247
0.770847 0.770847 0.770847
0.795189 0.795189 0.795189
0.819276 0.819276 0.819276
0.843114 0.843114 0.843114
0.866706 0.866706 0.866706
0.890058 0.890058 0.890058
0.779739 0.779739 0.779739
0.803987 0.803987 0.803987
0.827983 0.827983 0.827983
0.851731 0.851731 0.851731
0.875236 0.875236 0.875236
0.898501 0.898501 0.898501
0.921530 0.921530 0.921530
0.944327 0.944327 0.944327
0.966895 0.966895 0.966895
0.000889 0.000889 0.000889
0.040054 0.040054 0.040054
0.076722 0.076722 0.076722
0.111871 0.111871 0.111871
0.145900 0.145900 0.145900
0.179029 0.179029 0.179029
0.211397 0.211397 0.211397
0.243100 0.243100 0.243100
0.274209 0.274209 0.274209
0.124376 0.124376 0.124376
0.158057 0.158057 0.158057
0.190896 0.190896 0.190896
0.223012 0.223012 0.223012
0.254491 0.254491 0.254491
0.285397 0.285397 0.285397
0.315780 0.315780 0.315780
0.345678 0.345678 0.345678
0.375124 0.375124 0.375124
0.234542 0.234542 0.234542
0.265807 0.265807 0.265807
0.296517 0.296517 0.296517
0.326719 0.326719 0.326719
0.356449 0.356449 0.356449
0.385738 0.385738 0.385738
0.414610 0.414610 0.414610
0.443088 0.443088 0.443088
0.471190 0.471190 0.471190
0.337595 0.337595 0.337595
0.367162 0.367162 0.367162
0.396296 0.396296 0.396296
0.425023 0.425023 0.425023
0.453362 0.453362 0.453362
0.481330 0.481330 0.481330
0.508945 0.508945 0.508945
0.536218 0.536218 0.536218
0.563162 0.563162 0.563162
0.435384 0.435384 0.435384
0.463586 0.463586 0.463586
0.491424 0.491424 0.491424
0.518913 0.518913 0.518913
0.546065 0.546065 0.546065
0.572892 0.572892 0.572892
0.599406 0.599406 0.599406
0.625614 0.625614 0.625614
0.651526 0.651526 0.651526
0.528836 0.528836 0.528836
0.555869 0.555869 0.555869
0.582581 0.582581 0.582581
0.608982 0.608982 0.608982
0.635082 0.635082 0.635082
0.660888 0.660888 0.660888
0.686408 0.686408 0.686408
0.711649 0.711649 0.711649
0.736618 0.736618 0.736618
0.618518 0.618518 0.618518
0.644510 0.644510 0.644510
0.670211 0.670211 0.670211
0.695629 0.695629 0.695629
0.720771 0.720771 0.720771
0.745642 0.745642 0.745642
0.770249 0.770249 0.770249
0.794596 0.794596 0.794596
0.818690 0.818690 0.818690
0.704814 0.704814 0.704814
0.729857 0.729857 0.729857
0.754631 0.754631 0.754631
0.779143 0.779143 0.779143
0.803397 0.803397 0.803397
0.827399 0.827399 0.827399
0.851153 0.851153 0.851153
0.874664 0.874664 0.874664
0.897934 0.897934 0.897934
0.788002 0.788002 0.788002
0.812164 0.812164 0.812164
0.836076 0.836076 0.836076
0.859740 0.859740 0.859740
0.883163 0.883163 0.883163
0.906348 0.906348 0.906348
0.929297 0.929297 0.929297
0.952016 0.952016 0.952016
0.974507 0.974507 0.974507
0.014594 0.014594 0.014594
0.052717 0.052717 0.052717
0.088804 0.088804 0.088804
0.123540 0.123540 0.123540
0.157244 0.157244 0.157244
0.190102 0.190102 0.190102
0.222234 0.222234 0.222234
0.253728 0.253728 0.253728
0.284648 0.284648 0.284648
0.135918 0.135918 0.135918
0.169297 0.169297 0.169297
0.201879 0.201879 0.201879
0.233770 0.233770 0.233770
0.265049 0.265049 0.265049
0.295772 0.295772 0.295772
0.325986 0.325986 0.325986
0.355727 0.355727 0.355727
0.385027 0.385027 0.385027
0.245225 0.245225 0.245225
0.276295 0.276295 0.276295
0.306829 0.306829 0.306829
0.336867 0.336867 0.336867
0.366444 0.366444 0.366444
0.395589 0.395589 0.395589
0.424325 0.424325 0.424325
0.452673 0.452673 0.452673
0.480651 0.480651 0.480651
0.347686 0.347686 0.347686
0.377103 0.377103 0.377103
0.406097 0.406097 0.406097
0.434689 0.434689 0.434689
0.462901 0.462901 0.462901
0.490747 0.490747 0.490747
0.518244 0.518244 0.518244
0.545405 0.545405 0.545405
0.572240 0.572240 0.572240
0.445003 0.445003 0.445003
0.473080 0.473080 0.473080
0.500798 0.500798 0.500798
0.528171 0.528171 0.528171
0.555212 0.555212 0.555212
0.581931 0.581931 0.581931
0.608340 0.608340 0.608340
0.634447 0.634447 0.634447
0.660260 0.660260 0.660260
0.538053 0.538053 0.538053
0.564976 0.564976 0.564976
0.591581 0.591581 0.591581
0.617879 0.617879 0.617879
0.643878 0.643878 0.643878
0.669586 0.669586 0.669586
0.695011 0.695011 0.695011
0.720159 0.720159 0.720159
0.745037 0.745037 0.745037
0.627378 0.627378 0.627378
0.653271 0.653271 0.653271
0.678875 0.678875 0.678875
0.704198 0.704198 0.704198
0.729247 0.729247 0.729247
0.754028 0.754028 0.754028
0.778546 0.778546 0.778546
0.802807 0.802807 0.802807
0.826815 0.826815 0.826815
0.713349 0.713349 0.713349
0.738300 0.738300 0.738300
0.762984 0.762984 0.762984
0.787408 0.787408 0.787408
0.811576 0.811576 0.811576
0.835494 0.835494 0.835494
0.859165 0.859165 0.859165
0.882593 0.882593 0.882593
0.905783 0.905783 0.905783
0.796236 0.796236 0.796236
0.820313 0.820313 0.820313
0.844140 0.844140 0.844140
0.867722 0.867722 0.867722
0.891063 0.891063 0.891063
0.914168 0.914168 0.914168
0.937039 0.937039 0.937039
0.959680 0.959680 0.959680
0.980000 0.980000 0.980000
0.027846 0.027846 0.027846
0.065153 0.065153 0.065153
0.100732 0.100732 0.100732
0.135091 0.135091 0.135091
0.168490 0.168490 0.168490
0.201090 0.201090 0.201090
0.232998 0.232998 0.232998
0.264290 0.264290 0.264290
0.295027 0.295027 0.295027
0.147352 0.147352 0.147352
0.180445 0.180445 0.180445
0.212782 0.212782 0.212782
0.244458 0.244458 0.244458
0.275542 0.275542 0.275542
0.306088 0.306088 0.306088
0.336138 0.336138 0.336138
0.365726 0.365726 0.365726
0.394881 0.394881 0.394881
0.255840 0.255840 0.255840
0.286723 0.286723 0.286723
0.317083 0.317083 0.317083
0.346961 0.346961 0.346961
0.376389 0.376389 0.376389
0.405392 0.405392 0.405392
0.433995 0.433995 0.433995
0.462215 0.462215 0.462215
0.490071 0.490071 0.490071
0.357726 0.357726 0.357726
0.386996 0.386996 0.386996
0.415851 0.415851 0.415851
0.444312 0.444312 0.444312
0.472398 0.472398 0.472398
0.500124 0.500124 0.500124
0.527505 0.527505 0.527505
0.554554 0.554554 0.554554
0.581281 0.581281 0.581281
0.454579 0.454579 0.454579
0.482533 0.482533 0.482533
0.510132 0.510132 0.510132
0.537391 0.537391 0.537391
0.564321 0.564321 0.564321
0.590934 0.590934 0.590934
0.617239 0.617239 0.617239
0.643245 0.643245 0.643245
0.668961 0.668961 0.668961
0.547233 0.547233 0.547233
0.574046 0.574046 0.574046
0.600546 0.600546 0.600546
0.626741 0.626741 0.626741
0.652641 0.652641 0.652641
0.678252 0.678252 0.678252
0.703582 0.703582 0.703582
0.728638 0.728638 0.728638
0.753425 0.753425 0.753425
0.636204 0.636204 0.636204
0.661998 0.661998 0.661998
0.687506 0.687506 0.687506
0.712735 0.712735 0.712735
0.737693 0.737693 0.737693
0.762384 0.762384 0.762384
0.786814 0.786814 0.786814
0.810988 0.810988 0.810988
0.834912 0.834912 0.834912
0.721853 0.721853 0.721853
0.746712 0.746712 0.746712
0.771308 0.771308 0.771308
0.795644 0.795644 0.795644
0.819727 0.819727 0.819727
0.843560 0.843560 0.843560
0.867148 0.867148 0.867148
0.890495 0.890495 0.890495
0.913605 0.913605 0.913605
0.804441 0.804441 0.804441
0.828432 0.828432 0.828432
0.852176 0.852176 0.852176
0.875676 0.875676 0.875676
0.898936 0.898936 0.898936
0.921961 0.921961 0.921961
0.944753 0.944753 0.944753
0.967317 0.967317 0.967317
0.980000 0.980000 0.980000
0.040763 0.040763 0.040763
0.077396 0.077396 0.077396
0.112521 0.112521 0.112521
0.146532 0.146532 0.146532
0.179645 0.179645 0.179645
0.212000 0.212000 0.212000
0.243691 0.243691 0.243691
0.274788 0.274788 0.274788
0.305347 0.305347 0.305347
0.158682 0.158682 0.158682
0.191506 0.191506 0.191506
0.223610 0.223610 0.223610
0.255078 0.255078 0.255078
0.285974 0.285974 0.285974
0.316347 0.316347 0.316347
0.346236 0.346236 0.346236
0.375674 0.375674 0.375674
0.404688 0.404688 0.404688
0.266389 0.266389 0.266389
0.297090 0.297090 0.297090
0.327282 0.327282 0.327282
0.357004 0.357004 0.357004
0.386285 0.386285 0.386285
0.415150 0.415150 0.415150
0.443620 0.443620 0.443620
0.471715 0.471715 0.471715
0.499450 0.499450 0.499450
0.367714 0.367714 0.367714
0.396840 0.396840 0.396840
0.425559 0.425559 0.425559
0.453891 0.453891 0.453891
0.481853 0.481853 0.481853
0.509461 0.509461 0.509461
0.536728 0.536728 0.536728
0.563666 0.563666 0.563666
0.590287 0.590287 0.590287
0.464113 0.464113 0.464113
0.491944 0.491944 0.491944
0.519427 0.519427 0.519427
0.546573 0.546573 0.546573
0.573394 0.573394 0.573394
0.599902 0.599902 0.599902
0.626104 0.626104 0.626104
0.652011 0.652011 0.652011
0.677629 0.677629 0.677629
0.556374 0.556374 0.556374
0.583080 0.583080 0.583080
0.609476 0.609476 0.609476
0.635570 0.635570 0.635570
0.661370 0.661370 0.661370
0.686885 0.686885 0.686885
0.712122 0.712122 0.712122
0.737086 0.737086 0.737086
0.761783 0.761783 0.761783
0.644996 0.644996 0.644996
0.670692 0.670692 0.670692
0.696105 0.696105 0.696105
0.721241 0.721241 0.721241
0.746107 0.746107 0.746107
0.770709 0.770709 0.770709
0.795052 0.795052 0.795052
0.819141 0.819141 0.819141
0.842980 0.842980 0.842980
0.730325 0.730325 0.730325
0.755094 0.755094 0.755094
0.779601 0.779601 0.779601
0.803851 0.803851 0.803851
0.827848 0.827848 0.827848
0.851598 0.851598 0.851598
0.875104 0.875104 0.875104
0.898370 0.898370 0.898370
0.921400 0.921400 0.921400
0.812616 0.812616 0.812616
0.836523 0.836523 0.836523
0.860183 0.860183 0.860183
0.883602 0.883602 0.883602
0.906782 0.906782 0.906782
0.929727 0.929727 0.929727
0.952442 0.952442 0.952442
0.974928 0.974928 0.974928
0.980000 0.980000 0.980000
0.053411 0.053411 0.053411
0.089468 0.089468 0.089468
0.124183 0.124183 0.124183
0.157870 0.157870 0.157870
0.190713 0.190713 0.190713
0.222833 0.222833 0.222833
0.254315 0.254315 0.254315
0.285224 0.285224 0.285224
0.315610 0.315610 0.315610
0.169917 0.169917 0.169917
0.202485 0.202485 0.202485
0.234364 0.234364 0.234364
0.265632 0.265632 0.265632
0.296345 0.296345 0.296345
0.326550 0.326550 0.326550
0.356283 0.356283 0.356283
0.385574 0.385574 0.385574
0.414449 0.414449 0.414449
0.276875 0.276875 0.276875
0.307398 0.307398 0.307398
0.337427 0.337427 0.337427
0.366996 0.366996 0.366996
0.396133 0.396133 0.396133
0.424862 0.424862 0.424862
0.453203 0.453203 0.453203
0.481174 0.481174 0.481174
0.508790 0.508790 0.508790
0.377653 0.377653 0.377653
0.406638 0.406638 0.406638
0.435224 0.435224 0.435224
0.463428 0.463428 0.463428
0.491268 0.491268 0.491268
0.518758 0.518758 0.518758
0.545913 0.545913 0.545913
0.572742 0.572742 0.572742
0.599257 0.599257 0.599257
0.473605 0.473605 0.473605
0.501316 0.501316 0.501316
0.528683 0.528683 0.528683
0.555717 0.555717 0.555717
0.582431 0.582431 0.582431
0.608834 0.608834 0.608834
0.634935 0.634935 0.634935
0.660743 0.660743 0.660743
0.686265 0.686265 0.686265
0.565479 0.565479 0.565479
0.592079 0.592079 0.592079
0.618371 0.618371 0.618371
0.644364 0.644364 0.644364
0.670067 0.670067 0.670067
0.695487 0.695487 0.695487
0.720630 0.720630 0.720630
0.745502 0.745502 0.745502
0.770111 0.770111 0.770111
0.653755 0.653755 0.653755
0.679354 0.679354 0.679354
0.704672 0.704672 0.704672
0.729716 0.729716 0.729716
0.754492 0.754492 0.754492
0.779005 0.779005 0.779005
0.803261 0.803261 0.803261
0.827264 0.827264 0.827264
0.851020 0.851020 0.851020
0.738767 0.738767 0.738767
0.763446 0.763446 0.763446
0.787865 0.787865 0.787865
0.812029 0.812029 0.812029
0.835941 0.835941 0.835941
0.859608 0.859608 0.859608
0.883032 0.883032 0.883032
0.906217 0.906217 0.906217
0.929169 0.929169 0.929169
0.820763 0.820763 0.820763
0.844586 0.844586 0.844586
0.868163 0.868163 0.868163
0.891500 0.891500 0.891500
0.914600 0.914600 0.914600
0.937467 0.937467 0.937467
0.960103 0.960103 0.960103
0.980000 0.980000 0.980000
0.980000 0.980000 0.980000
0.065836 0.065836 0.065836
0.101388 0.101388 0.101388
0.135727 0.135727 0.135727
0.169111 0.169111 0.169111
0.201697 0.201697 0.201697
0.233592 0.233592 0.233592
0.264874 0.264874 0.264874
0.295600 0.295600 0.295600
0.325817 0.325817 0.325817
0.181060 0.181060 0.181060
0.213384 0.213384 0.213384
0.245048 0.245048 0.245048
0.276122 0.276122 0.276122
0.306658 0.306658 0.306658
0.336698 0.336698 0.336698
0.366278 0.366278 0.366278
0.395425 0.395425 0.395425
0.424164 0.424164 0.424164
0.287299 0.287299 0.287299
0.317650 0.317650 0.317650
0.347519 0.347519 0.347519
0.376938 0.376938 0.376938
0.405934 0.405934 0.405934
0.434529 0.434529 0.434529
0.462742 0.462742 0.462742
0.490591 0.490591 0.490591
0.518090 0.518090 0.518090
0.387542 0.387542 0.387542
0.416390 0.416390 0.416390
0.444844 0.444844 0.444844
0.472923 0.472923 0.472923
0.500642 0.500642 0.500642
0.528017 0.528017 0.528017
0.555060 0.555060 0.555060
0.581781 0.581781 0.581781
0.608192 0.608192 0.608192
0.483055 0.483055 0.483055
0.510648 0.510648 0.510648
0.537900 0.537900 0.537900
0.564825 0.564825 0.564825
0.591432 0.591432 0.591432
0.617731 0.617731 0.617731
0.643732 0.643732 0.643732
0.669442 0.669442 0.669442
0.694868 0.694868 0.694868
0.574548 0.574548 0.574548
0.601042 0.601042 0.601042
0.627231 0.627231 0.627231
0.653125 0.653125 0.653125
0.678731 0.678731 0.678731
0.704056 0.704056 0.704056
0.729107 0.729107 0.729107
0.753889 0.753889 0.753889
0.778409 0.778409 0.778409
0.662480 0.662480 0.662480
0.687983 0.687983 0.687983
0.713208 0.713208 0.713208
0.738160 0.738160 0.738160
0.762846 0.762846 0.762846
0.787271 0.787271 0.787271
0.811441 0.811441 0.811441
0.835359 0.835359 0.835359
0.859032 0.859032 0.859032
0.747178 0.747178 0.747178
0.771768 0.771768 0.771768
0.796100 0.796100 0.796100
0.820177 0.820177 0.820177
0.844006 0.844006 0.844006
0.867589 0.867589 0.867589
0.890932 0.890932 0.890932
0.914038 0.914038 0.914038
0.936910 0.936910 0.936910
0.828881 0.828881 0.828881
0.852620 0.852620 0.852620
0.876115 0.876115 0.876115
0.899371 0.899371 0.899371
0.922392 0.922392 0.922392
0.945180 0.945180 0.945180
0.967739 0.967739 0.967739
0.980000 0.980000 0.980000
0.980000 0.980000 0.980000
0.078069 0.078069 0.078069
0.113170 0.113170 0.113170
0.147162 0.147162 0.147162
0.180260 0.180260 0.180260
0.212602 0.212602 0.212602
0.244281 0.244281 0.244281
0.275368 0.275368 0.275368
0.305917 0.305917 0.305917
0.335969 0.335969 0.335969
0.192117 0.192117 0.192117
0.224208 0.224208 0.224208
0.255664 0.255664 0.255664
0.286550 0.286550 0.286550
0.316913 0.316913 0.316913
0.346794 0.346794 0.346794
0.376224 0.376224 0.376224
0.405230 0.405230 0.405230
0.433834 0.433834 0.433834
0.297662 0.297662 0.297662
0.327846 0.327846 0.327846
0.357559 0.357559 0.357559
0.386832 0.386832 0.386832
0.415689 0.415689 0.415689
0.444152 0.444152 0.444152
0.472240 0.472240 0.472240
0.499969 0.499969 0.499969
0.527352 0.527352 0.527352
0.397385 0.397385 0.397385
0.426096 0.426096 0.426096
0.454421 0.454421 0.454421
0.482376 0.482376 0.482376
0.509977 0.509977 0.509977
0.537238 0.537238 0.537238
0.564170 0.564170 0.564170
0.590785 0.590785 0.590785
0.617092 0.617092 0.617092
0.492465 0.492465 0.492465
0.519940 0.519940 0.519940
0.547080 0.547080 0.547080
0.573896 0.573896 0.573896
0.600397 0.600397 0.600397
0.626594 0.626594 0.626594
0.652495 0.652495 0.652495
0.678108 0.678108 0.678108
0.703440 0.703440 0.703440
0.583580 0.583580 0.583580
0.609970 0.609970 0.609970
0.636058 0.636058 0.636058
0.661853 0.661853 0.661853
0.687363 0.687363 0.687363
0.712594 0.712594 0.712594
0.737553 0.737553 0.737553
0.762245 0.762245 0.762245
0.786677 0.786677 0.786677
0.671173 0.671173 0.671173
0.696580 0.696580 0.696580
0.721712 0.721712 0.721712
0.746573 0.746573 0.746573
0.771170 0.771170 0.771170
0.795508 0.795508 0.795508
0.819591 0.819591 0.819591
0.843426 0.843426 0.843426
0.867015 0.867015 0.867015
0.755558 0.755558 0.755558
0.780060 0.780060 0.780060
0.804305 0.804305 0.804305
0.828297 0.828297 0.828297
0.852042 0.852042 0.852042
0.875544 0.875544 0.875544
0.898805 0.898805 0.898805
0.921831 0.921831 0.921831
0.944625 0.944625 0.944625
0.836970 0.836970 0.836970
0.860626 0.860626 0.860626
0.884040 0.884040 0.884040
0.907215 0.907215 0.907215
0.930157 0.930157 0.930157
0.952867 0.952867 0.952867
0.975349 0.975349 0.975349
0.980000 0.980000 0.980000
0.980000 0.980000 0.980000
