luts/film_stocks/kodak_trix_400_bw.cube
TITLE "Kodak Tri-X 400 B&W"
LUT_3D_SIZE 17
DOMAIN_MIN 0.0 0.0 0.0
DOMAIN_MAX 1.0 1.0 1.0
0.000000 0.000000 0.000000
0.000000 0.000000 0.000000
0.013848 0.013848 0.013848
0.033267 0.033267 0.033267
0.052021 0.052021 0.052021
0.070279 0.070279 0.070279
0.088139 0.088139 0.088139
0.105663 0.105663 0.105663
0.122897 0.122897 0.122897
0.139873 0.139873 0.139873
0.156618 0.156618 0.156618
0.173152 0.173152 0.173152
0.189490 0.189490 0.189490
0.205648 0.205648 0.205648
0.221636 0.221636 0.221636
0.237464 0.237464 0.237464
0.253141 0.253141 0.253141
0.040161 0.040161 0.040161
0.058720 0.058720 0.058720
0.076823 0.076823 0.076823
0.094555 0.094555 0.094555
0.111969 0.111969 0.111969
0.129106 0.129106 0.129106
0.145995 0.145995 0.145995
0.162661 0.162661 0.162661
0.179122 0.179122 0.179122
0.195393 0.195393 0.195393
0.211488 0.211488 0.211488
0.227416 0.227416 0.227416
0.243189 0.243189 0.243189
0.258813 0.258813 0.258813
0.274296 0.274296 0.274296
0.289643 0.289643 0.289643
0.304862 0.304862 0.304862
0.100929 0.100929 0.100929
0.118238 0.118238 0.118238
0.135282 0.135282 0.135282
0.152087 0.152087 0.152087
0.168677 0.168677 0.168677
0.185067 0.185067 0.185067
0.201272 0.201272 0.201272
0.217305 0.217305 0.217305
0.233176 0.233176 0.233176
0.248894 0.248894 0.248894
0.264465 0.264465 0.264465
0.279898 0.279898 0.279898
0.295199 0.295199 0.295199
0.310372 0.310372 0.310372
0.325422 0.325422 0.325422
0.340354 0.340354 0.340354
0.355172 0.355172 0.355172
0.158151 0.158151 0.158151
0.174666 0.174666 0.174666
0.190987 0.190987 0.190987
0.207129 0.207129 0.207129
0.223102 0.223102 0.223102
0.238916 0.238916 0.238916
0.254579 0.254579 0.254579
0.270100 0.270100 0.270100
0.285484 0.285484 0.285484
0.300737 0.300737 0.300737
0.315865 0.315865 0.315865
0.330872 0.330872 0.330872
0.345762 0.345762 0.345762
0.360539 0.360539 0.360539
0.375207 0.375207 0.375207
0.389769 0.389769 0.389769
0.404227 0.404227 0.404227
0.212963 0.212963 0.212963
0.228877 0.228877 0.228877
0.244635 0.244635 0.244635
0.260246 0.260246 0.260246
0.275716 0.275716 0.275716
0.291052 0.291052 0.291052
0.306259 0.306259 0.306259
0.321342 0.321342 0.321342
0.336306 0.336306 0.336306
0.351154 0.351154 0.351154
0.365891 0.365891 0.365891
0.380520 0.380520 0.380520
0.395044 0.395044 0.395044
0.409466 0.409466 0.409466
0.423788 0.423788 0.423788
0.438013 0.438013 0.438013
0.452143 0.452143 0.452143
0.265894 0.265894 0.265894
0.281314 0.281314 0.281314
0.296603 0.296603 0.296603
0.311764 0.311764 0.311764
0.326803 0.326803 0.326803
0.341725 0.341725 0.341725
0.356532 0.356532 0.356532
0.371230 0.371230 0.371230
0.385820 0.385820 0.385820
0.400306 0.400306 0.400306
0.414691 0.414691 0.414691
0.428978 0.428978 0.428978
0.443168 0.443168 0.443168
0.457264 0.457264 0.457264
0.471269 0.471269 0.471269
0.485183 0.485183 0.485183
0.499009 0.499009 0.499009
0.317253 0.317253 0.317253
0.332249 0.332249 0.332249
0.347129 0.347129 0.347129
0.361896 0.361896 0.361896
0.376554 0.376554 0.376554
0.391106 0.391106 0.391106
0.405555 0.405555 0.405555
0.419904 0.419904 0.419904
0.434155 0.434155 0.434155
0.448311 0.448311 0.448311
0.462373 0.462373 0.462373
0.476345 0.476345 0.476345
0.490227 0.490227 0.490227
0.504021 0.504021 0.504021
0.517730 0.517730 0.517730
0.531355 0.531355 0.531355
0.544897 0.544897 0.544897
0.367245 0.367245 0.367245
0.381864 0.381864 0.381864
0.396378 0.396378 0.396378
0.410790 0.410790 0.410790
0.425103 0.425103 0.425103
0.439319 0.439319 0.439319
0.453441 0.453441 0.453441
0.467470 0.467470 0.467470
0.481409 0.481409 0.481409
0.495259 0.495259 0.495259
0.509022 0.509022 0.509022
0.522700 0.522700 0.522700
0.536294 0.536294 0.536294
0.549807 0.549807 0.549807
0.563238 0.563238 0.563238
0.576590 0.576590 0.576590
0.589864 0.589864 0.589864
0.416012 0.416012 0.416012
0.430290 0.430290 0.430290
0.444471 0.444471 0.444471
0.458559 0.458559 0.458559
0.472555 0.472555 0.472555
0.486461 0.486461 0.486461
0.500280 0.500280 0.500280
0.514012 0.514012 0.514012
0.527659 0.527659 0.527659
0.541223 0.541223 0.541223
0.554706 0.554706 0.554706
0.568108 0.568108 0.568108
0.581431 0.581431 0.581431
0.594677 0.594677 0.594677
0.607846 0.607846 0.607846
0.620939 0.620939 0.620939
0.633958 0.633958 0.633958
0.463665 0.463665 0.463665
0.477628 0.477628 0.477628
0.491502 0.491502 0.491502
0.505289 0.505289 0.505289
0.518990 0.518990 0.518990
0.532607 0.532607 0.532607
0.546141 0.546141 0.546141
0.559594 0.559594 0.559594
0.572968 0.572968 0.572968
0.586263 0.586263 0.586263
0.599480 0.599480 0.599480
0.612621 0.612621 0.612621
0.625688 0.625688 0.625688
0.638680 0.638680 0.638680
0.651599 0.651599 0.651599
0.664446 0.664446 0.664446
0.677221 0.677221 0.677221
0.510287 0.510287 0.510287
0.523957 0.523957 0.523957
0.537544 0.537544 0.537544
0.551048 0.551048 0.551048
0.564472 0.564472 0.564472
0.577817 0.577817 0.577817
0.591083 0.591083 0.591083
0.604273 0.604273 0.604273
0.617387 0.617387 0.617387
0.630426 0.630426 0.630426
0.643391 0.643391 0.643391
0.656284 0.656284 0.656284
0.669105 0.669105 0.669105
0.681855 0.681855 0.681855
0.694535 0.694535 0.694535
0.707146 0.707146 0.707146
0.719689 0.719689 0.719689
0.555945 0.555945 0.555945
0.569340 0.569340 0.569340
0.582656 0.582656 0.582656
0.595894 0.595894 0.595894
0.609056 0.609056 0.609056
0.622143 0.622143 0.622143
0.635155 0.635155 0.635155
0.648094 0.648094 0.648094
0.660960 0.660960 0.660960
0.673755 0.673755 0.673755
0.686480 0.686480 0.686480
0.699134 0.699134 0.699134
0.711720 0.711720 0.711720
0.724238 0.724238 0.724238
0.736688 0.736688 0.736688
0.749072 0.749072 0.749072
0.761390 0.761390 0.761390
0.600695 0.600695 0.600695
0.613829 0.613829 0.613829
0.626888 0.626888 0.626888
0.639874 0.639874 0.639874
0.652786 0.652786 0.652786
0.665626 0.665626 0.665626
0.678396 0.678396 0.678396
0.691095 0.691095 0.691095
0.703724 0.703724 0.703724
0.716285 0.716285 0.716285
0.728778 0.728778 0.728778
0.741205 0.741205 0.741205
0.753564 0.753564 0.753564
0.765858 0.765858 0.765858
0.778087 0.778087 0.778087
0.790252 0.790252 0.790252
0.802353 0.802353 0.802353
0.644583 0.644583 0.644583
0.657469 0.657469 0.657469
0.670283 0.670283 0.670283
0.683027 0.683027 0.683027
0.695701 0.695701 0.695701
0.708305 0.708305 0.708305
0.720841 0.720841 0.720841
0.733310 0.733310 0.733310
0.745712 0.745712 0.745712
0.758048 0.758048 0.758048
0.770318 0.770318 0.770318
0.782523 0.782523 0.782523
0.794665 0.794665 0.794665
0.806743 0.806743 0.806743
0.818757 0.818757 0.818757
0.830710 0.830710 0.830710
0.842601 0.842601 0.842601
0.687649 0.687649 0.687649
0.700298 0.700298 0.700298
0.712877 0.712877 0.712877
0.725389 0.725389 0.725389
0.737833 0.737833 0.737833
0.750211 0.750211 0.750211
0.762522 0.762522 0.762522
0.774769 0.774769 0.774769
0.786951 0.786951 0.786951
0.799069 0.799069 0.799069
0.811124 0.811124 0.811124
0.823116 0.823116 0.823116
0.835046 0.835046 0.835046
0.846914 0.846914 0.846914
0.858721 0.858721 0.858721
0.870468 0.870468 0.870468
0.882155 0.882155 0.882155
0.729927 0.729927 0.729927
0.742347 0.742347 0.742347
0.754700 0.754700 0.754700
0.766988 0.766988 0.766988
0.779211 0.779211 0.779211
0.791370 0.791370 0.791370
0.803465 0.803465 0.803465
0.815497 0.815497 0.815497
0.827466 0.827466 0.827466
0.839374 0.839374 0.839374
0.851220 0.851220 0.851220
0.863005 0.863005 0.863005
0.874730 0.874730 0.874730
0.886394 0.886394 0.886394
0.898000 0.898000 0.898000
0.909546 0.909546 0.909546
0.921034 0.921034 0.921034
0.771446 0.771446 0.771446
0.783645 0.783645 0.783645
0.795781 0.795781 0.795781
0.807853 0.807853 0.807853
0.819862 0.819862 0.819862
0.831809 0.831809 0.831809
0.843694 0.843694 0.843694
0.855517 0.855517 0.855517
0.867280 0.867280 0.867280
0.878983 0.878983 0.878983
0.890626 0.890626 0.890626
0.902210 0.902210 0.902210
0.913735 0.913735 0.913735
0.925202 0.925202 0.925202
0.936610 0.936610 0.936610
0.947962 0.947962 0.947962
0.959256 0.959256 0.959256
0.000000 0.000000 0.000000
0.000501 0.000501 0.000501
0.020533 0.020533 0.020533
0.039700 0.039700 0.039700
0.058272 0.058272 0.058272
0.076385 0.076385 0.076385
0.094125 0.094125 0.094125
0.111546 0.111546 0.111546
0.128689 0.128689 0.128689
0.145585 0.145585 0.145585
0.162256 0.162256 0.162256
0.178722 0.178722 0.178722
0.194997 0.194997 0.194997
0.211096 0.211096 0.211096
0.227029 0.227029 0.227029
0.242805 0.242805 0.242805
0.258432 0.258432 0.258432
0.046521 0.046521 0.046521
0.064914 0.064914 0.064914
0.082884 0.082884 0.082884
0.100502 0.100502 0.100502
0.117818 0.117818 0.117818
0.134868 0.134868 0.134868
0.151679 0.151679 0.151679
0.168273 0.168273 0.168273
0.184668 0.184668 0.184668
0.200878 0.200878 0.200878
0.216915 0.216915 0.216915
0.232790 0.232790 0.232790
0.248511 0.248511 0.248511
0.264086 0.264086 0.264086
0.279523 0.279523 0.279523
0.294826 0.294826 0.294826
0.310002 0.310002 0.310002
0.106839 0.106839 0.106839
0.124054 0.124054 0.124054
0.141015 0.141015 0.141015
0.157745 0.157745 0.157745
0.174264 0.174264 0.174264
0.190590 0.190590 0.190590
0.206736 0.206736 0.206736
0.222713 0.222713 0.222713
0.238531 0.238531 0.238531
0.254198 0.254198 0.254198
0.269722 0.269722 0.269722
0.285109 0.285109 0.285109
0.300366 0.300366 0.300366
0.315496 0.315496 0.315496
0.330506 0.330506 0.330506
0.345399 0.345399 0.345399
0.360179 0.360179 0.360179
0.163782 0.163782 0.163782
0.180230 0.180230 0.180230
0.196489 0.196489 0.196489
0.212572 0.212572 0.212572
0.228490 0.228490 0.228490
0.244252 0.244252 0.244252
0.259866 0.259866 0.259866
0.275339 0.275339 0.275339
0.290678 0.290678 0.290678
0.305888 0.305888 0.305888
0.320975 0.320975 0.320975
0.335941 0.335941 0.335941
0.350793 0.350793 0.350793
0.365532 0.365532 0.365532
0.380164 0.380164 0.380164
0.394690 0.394690 0.394690
0.409114 0.409114 0.409114
0.218385 0.218385 0.218385
0.234245 0.234245 0.234245
0.249953 0.249953 0.249953
0.265515 0.265515 0.265515
0.280939 0.280939 0.280939
0.296230 0.296230 0.296230
0.311395 0.311395 0.311395
0.326437 0.326437 0.326437
0.341361 0.341361 0.341361
0.356172 0.356172 0.356172
0.370871 0.370871 0.370871
0.385464 0.385464 0.385464
0.399953 0.399953 0.399953
0.414341 0.414341 0.414341
0.428629 0.428629 0.428629
0.442822 0.442822 0.442822
0.456921 0.456921 0.456921
0.271146 0.271146 0.271146
0.286521 0.286521 0.286521
0.301766 0.301766 0.301766
0.316885 0.316885 0.316885
0.331884 0.331884 0.331884
0.346766 0.346766 0.346766
0.361536 0.361536 0.361536
0.376196 0.376196 0.376196
0.390751 0.390751 0.390751
0.405203 0.405203 0.405203
0.419554 0.419554 0.419554
0.433807 0.433807 0.433807
0.447966 0.447966 0.447966
0.462030 0.462030 0.462030
0.476004 0.476004 0.476004
0.489888 0.489888 0.489888
0.503685 0.503685 0.503685
0.322359 0.322359 0.322359
0.337315 0.337315 0.337315
0.352156 0.352156 0.352156
0.366886 0.366886 0.366886
0.381507 0.381507 0.381507
0.396024 0.396024 0.396024
0.410439 0.410439 0.410439
0.424754 0.424754 0.424754
0.438973 0.438973 0.438973
0.453097 0.453097 0.453097
0.467128 0.467128 0.467128
0.481069 0.481069 0.481069
0.494921 0.494921 0.494921
0.508686 0.508686 0.508686
0.522367 0.522367 0.522367
0.535963 0.535963 0.535963
0.549477 0.549477 0.549477
0.372221 0.372221 0.372221
0.386804 0.386804 0.386804
0.401284 0.401284 0.401284
0.415662 0.415662 0.415662
0.429942 0.429942 0.429942
0.444126 0.444126 0.444126
0.458216 0.458216 0.458216
0.472214 0.472214 0.472214
0.486122 0.486122 0.486122
0.499943 0.499943 0.499943
0.513677 0.513677 0.513677
0.527326 0.527326 0.527326
0.540892 0.540892 0.540892
0.554377 0.554377 0.554377
0.567781 0.567781 0.567781
0.581106 0.581106 0.581106
0.594354 0.594354 0.594354
0.420872 0.420872 0.420872
0.435117 0.435117 0.435117
0.449266 0.449266 0.449266
0.463322 0.463322 0.463322
0.477288 0.477288 0.477288
0.491164 0.491164 0.491164
0.504953 0.504953 0.504953
0.518656 0.518656 0.518656
0.532275 0.532275 0.532275
0.545811 0.545811 0.545811
0.559266 0.559266 0.559266
0.572642 0.572642 0.572642
0.585938 0.585938 0.585938
0.599158 0.599158 0.599158
0.612301 0.612301 0.612301
0.625369 0.625369 0.625369
0.638363 0.638363 0.638363
0.468417 0.468417 0.468417
0.482350 0.482350 0.482350
0.496194 0.496194 0.496194
0.509951 0.509951 0.509951
0.523624 0.523624 0.523624
0.537212 0.537212 0.537212
0.550719 0.550719 0.550719
0.564145 0.564145 0.564145
0.577491 0.577491 0.577491
0.590760 0.590760 0.590760
0.603951 0.603951 0.603951
0.617067 0.617067 0.617067
0.630108 0.630108 0.630108
0.643075 0.643075 0.643075
0.655970 0.655970 0.655970
0.668792 0.668792 0.668792
0.681544 0.681544 0.681544
0.514939 0.514939 0.514939
0.528580 0.528580 0.528580
0.542139 0.542139 0.542139
0.555616 0.555616 0.555616
0.569013 0.569013 0.569013
0.582331 0.582331 0.582331
0.595571 0.595571 0.595571
0.608735 0.608735 0.608735
0.621823 0.621823 0.621823
0.634837 0.634837 0.634837
0.647778 0.647778 0.647778
0.660646 0.660646 0.660646
0.673443 0.673443 0.673443
0.686169 0.686169 0.686169
0.698826 0.698826 0.698826
0.711413 0.711413 0.711413
0.723933 0.723933 0.723933
0.560503 0.560503 0.560503
0.573871 0.573871 0.573871
0.587160 0.587160 0.587160
0.600373 0.600373 0.600373
0.613509 0.613509 0.613509
0.626570 0.626570 0.626570
0.639557 0.639557 0.639557
0.652471 0.652471 0.652471
0.665313 0.665313 0.665313
0.678084 0.678084 0.678084
0.690785 0.690785 0.690785
0.703416 0.703416 0.703416
0.715979 0.715979 0.715979
0.728474 0.728474 0.728474
0.740901 0.740901 0.740901
0.753263 0.753263 0.753263
0.765558 0.765558 0.765558
0.605164 0.605164 0.605164
0.618272 0.618272 0.618272
0.631307 0.631307 0.631307
0.644267 0.644267 0.644267
0.657155 0.657155 0.657155
0.669971 0.669971 0.669971
0.682716 0.682716 0.682716
0.695392 0.695392 0.695392
0.707998 0.707998 0.707998
0.720536 0.720536 0.720536
0.733006 0.733006 0.733006
0.745409 0.745409 0.745409
0.757747 0.757747 0.757747
0.770019 0.770019 0.770019
0.782226 0.782226 0.782226
0.794369 0.794369 0.794369
0.806448 0.806448 0.806448
0.648967 0.648967 0.648967
0.661829 0.661829 0.661829
0.674619 0.674619 0.674619
0.687339 0.687339 0.687339
0.699989 0.699989 0.699989
0.712570 0.712570 0.712570
0.725083 0.725083 0.725083
0.737529 0.737529 0.737529
0.749909 0.749909 0.749909
0.762222 0.762222 0.762222
0.774470 0.774470 0.774470
0.786654 0.786654 0.786654
0.798773 0.798773 0.798773
0.810830 0.810830 0.810830
0.822823 0.822823 0.822823
0.834755 0.834755 0.834755
0.846625 0.846625 0.846625
0.691952 0.691952 0.691952
0.704577 0.704577 0.704577
0.717134 0.717134 0.717134
0.729622 0.729622 0.729622
0.742044 0.742044 0.742044
0.754399 0.754399 0.754399
0.766689 0.766689 0.766689
0.778913 0.778913 0.778913
0.791074 0.791074 0.791074
0.803170 0.803170 0.803170
0.815204 0.815204 0.815204
0.827174 0.827174 0.827174
0.839083 0.839083 0.839083
0.850931 0.850931 0.850931
0.862717 0.862717 0.862717
0.874444 0.874444 0.874444
0.886110 0.886110 0.886110
0.734152 0.734152 0.734152
0.746550 0.746550 0.746550
0.758881 0.758881 0.758881
0.771147 0.771147 0.771147
0.783348 0.783348 0.783348
0.795485 0.795485 0.795485
0.807558 0.807558 0.807558
0.819569 0.819569 0.819569
0.831517 0.831517 0.831517
0.843404 0.843404 0.843404
0.855229 0.855229 0.855229
0.866993 0.866993 0.866993
0.878698 0.878698 0.878698
0.890342 0.890342 0.890342
0.901927 0.901927 0.901927
0.913454 0.913454 0.913454
0.924922 0.924922 0.924922
0.775596 0.775596 0.775596
0.787774 0.787774 0.787774
0.799888 0.799888 0.799888
0.811938 0.811938 0.811938
0.823926 0.823926 0.823926
0.835852 0.835852 0.835852
0.847716 0.847716 0.847716
0.859519 0.859519 0.859519
0.871261 0.871261 0.871261
0.882944 0.882944 0.882944
0.894567 0.894567 0.894567
0.906131 0.906131 0.906131
0.917636 0.917636 0.917636
0.929083 0.929083 0.929083
0.940472 0.940472 0.940472
0.951804 0.951804 0.951804
0.963078 0.963078 0.963078
0.000000 0.000000 0.000000
0.007429 0.007429 0.007429
0.027122 0.027122 0.027122
0.046065 0.046065 0.046065
0.064469 0.064469 0.064469
0.082449 0.082449 0.082449
0.100075 0.100075 0.100075
0.117398 0.117398 0.117398
0.134454 0.134454 0.134454
0.151271 0.151271 0.151271
0.167870 0.167870 0.167870
0.184269 0.184269 0.184269
0.200484 0.200484 0.200484
0.216525 0.216525 0.216525
0.232403 0.232403 0.232403
0.248128 0.248128 0.248128
0.263707 0.263707 0.263707
0.052821 0.052821 0.052821
0.071060 0.071060 0.071060
0.088903 0.088903 0.088903
0.106414 0.106414 0.106414
0.123636 0.123636 0.123636
0.140603 0.140603 0.140603
0.157338 0.157338 0.157338
0.173863 0.173863 0.173863
0.190193 0.190193 0.190193
0.206343 0.206343 0.206343
0.222324 0.222324 0.222324
0.238146 0.238146 0.238146
0.253816 0.253816 0.253816
0.269344 0.269344 0.269344
0.284734 0.284734 0.284734
0.299994 0.299994 0.299994
0.315128 0.315128 0.315128
0.112716 0.112716 0.112716
0.129841 0.129841 0.129841
0.146721 0.146721 0.146721
0.163377 0.163377 0.163377
0.179830 0.179830 0.179830
0.196093 0.196093 0.196093
0.212180 0.212180 0.212180
0.228102 0.228102 0.228102
0.243868 0.243868 0.243868
0.259486 0.259486 0.259486
0.274962 0.274962 0.274962
0.290305 0.290305 0.290305
0.305518 0.305518 0.305518
0.320607 0.320607 0.320607
0.335577 0.335577 0.335577
0.350431 0.350431 0.350431
0.365173 0.365173 0.365173
0.169390 0.169390 0.169390
0.185772 0.185772 0.185772
0.201970 0.201970 0.201970
0.217995 0.217995 0.217995
0.233859 0.233859 0.233859
0.249570 0.249570 0.249570
0.265136 0.265136 0.265136
0.280563 0.280563 0.280563
0.295858 0.295858 0.295858
0.311025 0.311025 0.311025
0.326070 0.326070 0.326070
0.340998 0.340998 0.340998
0.355811 0.355811 0.355811
0.370513 0.370513 0.370513
0.385109 0.385109 0.385109
0.399600 0.399600 0.399600
0.413990 0.413990 0.413990
0.223789 0.223789 0.223789
0.239597 0.239597 0.239597
0.255254 0.255254 0.255254
0.270768 0.270768 0.270768
0.286147 0.286147 0.286147
0.301394 0.301394 0.301394
0.316517 0.316517 0.316517
0.331518 0.331518 0.331518
0.346404 0.346404 0.346404
0.361176 0.361176 0.361176
0.375839 0.375839 0.375839
0.390396 0.390396 0.390396
0.404850 0.404850 0.404850
0.419204 0.419204 0.419204
0.433460 0.433460 0.433460
0.447620 0.447620 0.447620
0.461687 0.461687 0.461687
0.276382 0.276382 0.276382
0.291713 0.291713 0.291713
0.306914 0.306914 0.306914
0.321992 0.321992 0.321992
0.336951 0.336951 0.336951
0.351794 0.351794 0.351794
0.366527 0.366527 0.366527
0.381151 0.381151 0.381151
0.395670 0.395670 0.395670
0.410088 0.410088 0.410088
0.424405 0.424405 0.424405
0.438626 0.438626 0.438626
0.452752 0.452752 0.452752
0.466786 0.466786 0.466786
0.480729 0.480729 0.480729
0.494583 0.494583 0.494583
0.508351 0.508351 0.508351
0.327452 0.327452 0.327452
0.342368 0.342368 0.342368
0.357171 0.357171 0.357171
0.371863 0.371863 0.371863
0.386449 0.386449 0.386449
0.400931 0.400931 0.400931
0.415312 0.415312 0.415312
0.429594 0.429594 0.429594
0.443780 0.443780 0.443780
0.457872 0.457872 0.457872
0.471873 0.471873 0.471873
0.485783 0.485783 0.485783
0.499606 0.499606 0.499606
0.513342 0.513342 0.513342
0.526993 0.526993 0.526993
0.540562 0.540562 0.540562
0.554048 0.554048 0.554048
0.377186 0.377186 0.377186
0.391733 0.391733 0.391733
0.406178 0.406178 0.406178
0.420522 0.420522 0.420522
0.434769 0.434769 0.434769
0.448921 0.448921 0.448921
0.462980 0.462980 0.462980
0.476947 0.476947 0.476947
0.490825 0.490825 0.490825
0.504616 0.504616 0.504616
0.518322 0.518322 0.518322
0.531943 0.531943 0.531943
0.545481 0.545481 0.545481
0.558938 0.558938 0.558938
0.572315 0.572315 0.572315
0.585614 0.585614 0.585614
0.598835 0.598835 0.598835
0.425720 0.425720 0.425720
0.439932 0.439932 0.439932
0.454050 0.454050 0.454050
0.468075 0.468075 0.468075
0.482010 0.482010 0.482010
0.495856 0.495856 0.495856
0.509616 0.509616 0.509616
0.523290 0.523290 0.523290
0.536881 0.536881 0.536881
0.550390 0.550390 0.550390
0.563817 0.563817 0.563817
0.577166 0.577166 0.577166
0.590436 0.590436 0.590436
0.603630 0.603630 0.603630
0.616747 0.616747 0.616747
0.629790 0.629790 0.629790
0.642759 0.642759 0.642759
0.473159 0.473159 0.473159
0.487061 0.487061 0.487061
0.500876 0.500876 0.500876
0.514604 0.514604 0.514604
0.528248 0.528248 0.528248
0.541808 0.541808 0.541808
0.555287 0.555287 0.555287
0.568686 0.568686 0.568686
0.582006 0.582006 0.582006
0.595248 0.595248 0.595248
0.608414 0.608414 0.608414
0.621504 0.621504 0.621504
0.634520 0.634520 0.634520
0.647462 0.647462 0.647462
0.660332 0.660332 0.660332
0.673131 0.673131 0.673131
0.685859 0.685859 0.685859
0.519581 0.519581 0.519581
0.533194 0.533194 0.533194
0.546725 0.546725 0.546725
0.560175 0.560175 0.560175
0.573545 0.573545 0.573545
0.586836 0.586836 0.586836
0.600050 0.600050 0.600050
0.613188 0.613188 0.613188
0.626251 0.626251 0.626251
0.639240 0.639240 0.639240
0.652156 0.652156 0.652156
0.665000 0.665000 0.665000
0.677773 0.677773 0.677773
0.690475 0.690475 0.690475
0.703108 0.703108 0.703108
0.715672 0.715672 0.715672
0.728169 0.728169 0.728169
0.565051 0.565051 0.565051
0.578393 0.578393 0.578393
0.591656 0.591656 0.591656
0.604842 0.604842 0.604842
0.617953 0.617953 0.617953
0.630989 0.630989 0.630989
0.643951 0.643951 0.643951
0.656840 0.656840 0.656840
0.669658 0.669658 0.669658
0.682405 0.682405 0.682405
0.695082 0.695082 0.695082
0.707690 0.707690 0.707690
0.720230 0.720230 0.720230
0.732702 0.732702 0.732702
0.745107 0.745107 0.745107
0.757446 0.757446 0.757446
0.769719 0.769719 0.769719
0.609624 0.609624 0.609624
0.622707 0.622707 0.622707
0.635716 0.635716 0.635716
0.648652 0.648652 0.648652
0.661515 0.661515 0.661515
0.674307 0.674307 0.674307
0.687029 0.687029 0.687029
0.699680 0.699680 0.699680
0.712263 0.712263 0.712263
0.724778 0.724778 0.724778
0.737226 0.737226 0.737226
0.749607 0.749607 0.749607
0.761922 0.761922 0.761922
0.774171 0.774171 0.774171
0.786357 0.786357 0.786357
0.798478 0.798478 0.798478
0.810536 0.810536 0.810536
0.653343 0.653343 0.653343
0.666181 0.666181 0.666181
0.678947 0.678947 0.678947
0.691643 0.691643 0.691643
0.704269 0.704269 0.704269
0.716827 0.716827 0.716827
0.729318 0.729318 0.729318
0.741741 0.741741 0.741741
0.754098 0.754098 0.754098
0.766389 0.766389 0.766389
0.778615 0.778615 0.778615
0.790777 0.790777 0.790777
0.802875 0.802875 0.802875
0.814910 0.814910 0.814910
0.826882 0.826882 0.826882
0.838793 0.838793 0.838793
0.850642 0.850642 0.850642
0.696248 0.696248 0.696248
0.708849 0.708849 0.708849
0.721382 0.721382 0.721382
0.733848 0.733848 0.733848
0.746247 0.746247 0.746247
0.758580 0.758580 0.758580
0.770847 0.770847 0.770847
0.783050 0.783050 0.783050
0.795189 0.795189 0.795189
0.807264 0.807264 0.807264
0.819276 0.819276 0.819276
0.831226 0.831226 0.831226
0.843114 0.843114 0.843114
0.854940 0.854940 0.854940
0.866706 0.866706 0.866706
0.878412 0.878412 0.878412
0.890058 0.890058 0.890058
0.738370 0.738370 0.738370
0.750745 0.750745 0.750745
0.763054 0.763054 0.763054
0.775297 0.775297 0.775297
0.787477 0.787477 0.787477
0.799592 0.799592 0.799592
0.811644 0.811644 0.811644
0.823634 0.823634 0.823634
0.835561 0.835561 0.835561
0.847426 0.847426 0.847426
0.859231 0.859231 0.859231
0.870975 0.870975 0.870975
0.882659 0.882659 0.882659
0.894283 0.894283 0.894283
0.905848 0.905848 0.905848
0.917355 0.917355 0.917355
0.928803 0.928803 0.928803
0.779739 0.779739 0.779739
0.791895 0.791895 0.791895
0.803987 0.803987 0.803987
0.816016 0.816016 0.816016
0.827983 0.827983 0.827983
0.839888 0.839888 0.839888
0.851731 0.851731 0.851731
0.863514 0.863514 0.863514
0.875236 0.875236 0.875236
0.886898 0.886898 0.886898
0.898501 0.898501 0.898501
0.910044 0.910044 0.910044
0.921530 0.921530 0.921530
0.932957 0.932957 0.932957
0.944327 0.944327 0.944327
0.955639 0.955639 0.955639
0.966895 0.966895 0.966895
0.000000 0.000000 0.000000
0.014222 0.014222 0.014222
0.033626 0.033626 0.033626
0.052369 0.052369 0.052369
0.070619 0.070619 0.070619
0.088471 0.088471 0.088471
0.105990 0.105990 0.105990
0.123218 0.123218 0.123218
0.140190 0.140190 0.140190
0.156931 0.156931 0.156931
0.173461 0.173461 0.173461
0.189796 0.189796 0.189796
0.205950 0.205950 0.205950
0.221935 0.221935 0.221935
0.237760 0.237760 0.237760
0.253435 0.253435 0.253435
0.268966 0.268966 0.268966
0.059064 0.059064 0.059064
