luts/film_stocks/super_8mm_home_movie.cube
TITLE "Super 8mm Home Movie"
LUT_3D_SIZE 9
DOMAIN_MIN 0.0 0.0 0.0
DOMAIN_MAX 1.0 1.0 1.0
0.174569 0.100897 0.065529
0.250809 0.108728 0.073360
0.330462 0.116910 0.081542
0.412643 0.125352 0.089983
0.496848 0.134001 0.098632
0.582750 0.142825 0.107456
0.670116 0.151799 0.116430
0.705431 0.155426 0.120058
0.705431 0.155426 0.120058
0.198748 0.187862 0.089708
0.274988 0.195693 0.097539
0.354641 0.203875 0.105721
0.436822 0.212316 0.114162
0.521027 0.220965 0.122812
0.606929 0.229789 0.131635
0.694295 0.238763 0.140609
0.729610 0.242391 0.144237
0.729610 0.242391 0.144237
0.225313 0.283407 0.116272
0.301553 0.291238 0.124104
0.381206 0.299419 0.132285
0.463387 0.307861 0.140727
0.547592 0.316510 0.149376
0.633494 0.325334 0.158200
0.720859 0.334308 0.167174
0.756175 0.337936 0.170802
0.756175 0.337936 0.170802
0.253369 0.384314 0.144328
0.329609 0.392145 0.152159
0.409261 0.400327 0.160341
0.491442 0.408768 0.168783
0.575648 0.417418 0.177432
0.661550 0.426242 0.186256
0.748915 0.435216 0.195230
0.784231 0.438843 0.198857
0.784231 0.438843 0.198857
0.282534 0.489212 0.173494
0.358774 0.497044 0.181325
0.438427 0.505225 0.189507
0.520608 0.513667 0.197948
0.604813 0.522316 0.206598
0.690715 0.531140 0.215421
0.778081 0.540114 0.224395
0.813396 0.543742 0.228023
0.813396 0.543742 0.228023
0.312592 0.597320 0.203551
0.388832 0.605151 0.211382
0.468484 0.613333 0.219564
0.550665 0.621774 0.228006
0.634871 0.630424 0.236655
0.720773 0.639247 0.245479
0.808138 0.648221 0.254453
0.843454 0.651849 0.258080
0.843454 0.651849 0.258080
0.343400 0.708125 0.234359
0.419639 0.715956 0.242190
0.499292 0.724138 0.250372
0.581473 0.732580 0.258813
0.665679 0.741229 0.267463
0.751580 0.750053 0.276286
0.838946 0.759027 0.285260
0.874262 0.762654 0.288888
0.874262 0.762654 0.288888
0.374857 0.821267 0.265816
0.451097 0.829098 0.273647
0.530749 0.837280 0.281829
0.612930 0.845721 0.290271
0.697136 0.854370 0.298920
0.783038 0.863194 0.307744
0.870403 0.872168 0.316718
0.905719 0.875796 0.320345
0.905719 0.875796 0.320345
0.388884 0.871717 0.279843
0.465123 0.879548 0.287674
0.544776 0.887730 0.295856
0.626957 0.896171 0.304297
0.711163 0.904820 0.312947
0.797064 0.913644 0.321771
0.884430 0.922618 0.330745
0.919746 0.926246 0.334372
0.919746 0.926246 0.334372
0.174569 0.100897 0.065529
0.250809 0.108728 0.073360
0.330462 0.116910 0.081542
0.412643 0.125352 0.089983
0.496848 0.134001 0.098632
0.582750 0.142825 0.107456
0.670116 0.151799 0.116430
0.705431 0.155426 0.120058
0.705431 0.155426 0.120058
0.198748 0.187862 0.089708
0.274988 0.195693 0.097539
0.354641 0.203875 0.105721
0.436822 0.212316 0.114162
0.521027 0.220965 0.122812
0.606929 0.229789 0.131635
0.694295 0.238763 0.140609
0.729610 0.242391 0.144237
0.729610 0.242391 0.144237
0.225313 0.283407 0.116272
0.301553 0.291238 0.124104
0.381206 0.299419 0.132285
0.463387 0.307861 0.140727
0.547592 0.316510 0.149376
0.633494 0.325334 0.158200
0.720859 0.334308 0.167174
0.756175 0.337936 0.170802
0.756175 0.337936 0.170802
0.253369 0.384314 0.144328
0.329609 0.392145 0.152159
0.409261 0.400327 0.160341
0.491442 0.408768 0.168783
0.575648 0.417418 0.177432
0.661550 0.426242 0.186256
0.748915 0.435216 0.195230
0.784231 0.438843 0.198857
0.784231 0.438843 0.198857
0.282534 0.489212 0.173494
0.358774 0.497044 0.181325
0.438427 0.505225 0.189507
0.520608 0.513667 0.197948
0.604813 0.522316 0.206598
0.690715 0.531140 0.215421
0.778081 0.540114 0.224395
0.813396 0.543742 0.228023
0.813396 0.543742 0.228023
0.312592 0.597320 0.203551
0.388832 0.605151 0.211382
0.468484 0.613333 0.219564
0.550665 0.621774 0.228006
0.634871 0.630424 0.236655
0.720773 0.639247 0.245479
0.808138 0.648221 0.254453
0.843454 0.651849 0.258080
0.843454 0.651849 0.258080
0.343400 0.708125 0.234359
0.419639 0.715956 0.242190
0.499292 0.724138 0.250372
0.581473 0.732580 0.258813
0.665679 0.741229 0.267463
0.751580 0.750053 0.276286
0.838946 0.759027 0.285260
0.874262 0.762654 0.288888
0.874262 0.762654 0.288888
0.374857 0.821267 0.265816
0.451097 0.829098 0.273647
0.530749 0.837280 0.281829
0.612930 0.845721 0.290271
0.697136 0.854370 0.298920
0.783038 0.863194 0.307744
0.870403 0.872168 0.316718
0.905719 0.875796 0.320345
0.905719 0.875796 0.320345
0.388884 0.871717 0.279843
0.465123 0.879548 0.287674
0.544776 0.887730 0.295856
0.626957 0.896171 0.304297
0.711163 0.904820 0.312947
0.797064 0.913644 0.321771
0.884430 0.922618 0.330745
0.919746 0.926246 0.334372
0.919746 0.926246 0.334372
0.176290 0.102618 0.111513
0.252530 0.110449 0.119344
0.332182 0.118631 0.127526
0.414363 0.127072 0.135967
0.498569 0.135722 0.144617
0.584471 0.144545 0.153440
0.671836 0.153519 0.162414
0.707152 0.157147 0.166042
0.707152 0.157147 0.166042
0.200469 0.189582 0.135692
0.276709 0.197414 0.143523
0.356362 0.205595 0.151705
0.438543 0.214037 0.160146
0.522748 0.222686 0.168796
0.608650 0.231510 0.177620
0.696016 0.240484 0.186594
0.731331 0.244112 0.190221
0.731331 0.244112 0.190221
0.227034 0.285127 0.162257
0.303274 0.292959 0.170088
0.382926 0.301140 0.178270
0.465107 0.309582 0.186711
0.549313 0.318231 0.195361
0.635215 0.327055 0.204184
0.722580 0.336029 0.213158
0.757896 0.339656 0.216786
0.757896 0.339656 0.216786
0.255090 0.386035 0.190313
0.331330 0.393866 0.198144
0.410982 0.402048 0.206326
0.493163 0.410489 0.214767
0.577369 0.419139 0.223416
0.663271 0.427962 0.232240
0.750636 0.436936 0.241214
0.785952 0.440564 0.244842
0.785952 0.440564 0.244842
0.284255 0.490933 0.219478
0.360495 0.498765 0.227309
0.440147 0.506946 0.235491
0.522329 0.515388 0.243932
0.606534 0.524037 0.252582
0.692436 0.532861 0.261406
0.779801 0.541835 0.270380
0.815117 0.545462 0.274007
0.815117 0.545462 0.274007
0.314313 0.599041 0.249536
0.390553 0.606872 0.257367
0.470205 0.615054 0.265548
0.552386 0.623495 0.273990
0.636592 0.632145 0.282639
0.722494 0.640968 0.291463
0.809859 0.649942 0.300437
0.845175 0.653570 0.304065
0.845175 0.653570 0.304065
0.345120 0.709846 0.280343
0.421360 0.717677 0.288174
0.501013 0.725859 0.296356
0.583194 0.734300 0.304798
0.667399 0.742950 0.313447
0.753301 0.751774 0.322271
0.840667 0.760748 0.331245
0.875982 0.764375 0.334872
0.875982 0.764375 0.334872
0.376578 0.822987 0.311800
0.452817 0.830819 0.319632
0.532470 0.839000 0.327813
0.614651 0.847442 0.336255
0.698857 0.856091 0.344904
0.784758 0.864915 0.353728
0.872124 0.873889 0.362702
0.907440 0.877517 0.366330
0.907440 0.877517 0.366330
0.390604 0.873437 0.325827
0.466844 0.881269 0.333658
0.546497 0.889450 0.341840
0.628678 0.897892 0.350282
0.712884 0.906541 0.358931
0.798785 0.915365 0.367755
0.886151 0.924339 0.376729
0.921467 0.927967 0.380356
0.921467 0.927967 0.380356
0.178862 0.105190 0.180250
0.255102 0.113021 0.188081
0.334755 0.121203 0.196263
0.416936 0.129645 0.204704
0.501141 0.138294 0.213354
0.587043 0.147118 0.222177
0.674409 0.156092 0.231151
0.709724 0.159719 0.234779
0.709724 0.159719 0.234779
0.203042 0.192155 0.204429
0.279281 0.199986 0.212260
0.358934 0.208168 0.220442
0.441115 0.216609 0.228883
0.525321 0.225259 0.237533
0.611222 0.234082 0.246356
0.698588 0.243056 0.255330
0.733904 0.246684 0.258958
0.733904 0.246684 0.258958
0.229606 0.287700 0.230994
0.305846 0.295531 0.238825
0.385499 0.303713 0.247007
0.467680 0.312154 0.255448
0.551885 0.320803 0.264098
0.637787 0.329627 0.272921
0.725153 0.338601 0.281895
0.760468 0.342229 0.285523
0.760468 0.342229 0.285523
0.257662 0.388607 0.259049
0.333902 0.396438 0.266881
0.413554 0.404620 0.275062
0.495735 0.413062 0.283504
0.579941 0.421711 0.292153
0.665843 0.430535 0.300977
0.753208 0.439509 0.309951
0.788524 0.443136 0.313579
0.788524 0.443136 0.313579
0.286827 0.493506 0.288215
0.363067 0.501337 0.296046
0.442720 0.509519 0.304228
0.524901 0.517960 0.312669
0.609106 0.526609 0.321319
0.695008 0.535433 0.330142
0.782374 0.544407 0.339116
0.817689 0.548035 0.342744
0.817689 0.548035 0.342744
0.316885 0.601613 0.318272
0.393125 0.609444 0.326104
0.472777 0.617626 0.334285
0.554958 0.626067 0.342727
0.639164 0.634717 0.351376
0.725066 0.643540 0.360200
0.812431 0.652514 0.369174
0.847747 0.656142 0.372802
0.847747 0.656142 0.372802
0.347693 0.712418 0.349080
0.423932 0.720249 0.356911
0.503585 0.728431 0.365093
0.585766 0.736873 0.373535
0.669972 0.745522 0.382184
0.755873 0.754346 0.391008
0.843239 0.763320 0.399982
0.878555 0.766947 0.403609
0.878555 0.766947 0.403609
0.379150 0.825560 0.380537
0.455390 0.833391 0.388369
0.535042 0.841573 0.396550
0.617223 0.850014 0.404992
0.701429 0.858664 0.413641
0.787331 0.867487 0.422465
0.874696 0.876461 0.431439
0.910012 0.880089 0.435066
0.910012 0.880089 0.435066
0.393177 0.876010 0.394564
0.469417 0.883841 0.402395
0.549069 0.892023 0.410577
0.631250 0.900464 0.419019
0.715456 0.909114 0.427668
0.801358 0.917937 0.436492
0.888723 0.926911 0.445466
0.924039 0.930539 0.449093
0.924039 0.930539 0.449093
0.181681 0.108009 0.255577
0.257921 0.115840 0.263408
0.337574 0.124022 0.271590
0.419755 0.132464 0.280032
0.503960 0.141113 0.288681
0.589862 0.149937 0.297505
0.677228 0.158911 0.306479
0.712543 0.162538 0.310106
0.712543 0.162538 0.310106
0.205860 0.194974 0.279756
0.282100 0.202805 0.287587
0.361753 0.210987 0.295769
0.443934 0.219428 0.304211
0.528139 0.228077 0.312860
0.614041 0.236901 0.321684
0.701407 0.245875 0.330658
0.736722 0.249503 0.334285
0.736722 0.249503 0.334285
0.232425 0.290519 0.306321
0.308665 0.298350 0.314152
0.388318 0.306531 0.322334
0.470499 0.314973 0.330776
0.554704 0.323622 0.339425
0.640606 0.332446 0.348249
0.727971 0.341420 0.357223
0.763287 0.345048 0.360850
0.763287 0.345048 0.360850
0.260481 0.391426 0.334377
0.336721 0.399257 0.342208
0.416373 0.407439 0.350390
0.498554 0.415880 0.358831
0.582760 0.424530 0.367481
0.668662 0.433354 0.376304
0.756027 0.442328 0.385278
0.791343 0.445955 0.388906
0.791343 0.445955 0.388906
0.289646 0.496324 0.363542
0.365886 0.504156 0.371373
0.445539 0.512337 0.379555
0.527720 0.520779 0.387997
0.611925 0.529428 0.396646
0.697827 0.538252 0.405470
0.785193 0.547226 0.414444
0.820508 0.550854 0.418071
0.820508 0.550854 0.418071
0.319704 0.604432 0.393600
0.395944 0.612263 0.401431
0.475596 0.620445 0.409613
0.557777 0.628886 0.418054
0.641983 0.637536 0.426704
0.727885 0.646359 0.435527
0.815250 0.655333 0.444501
0.850566 0.658961 0.448129
0.850566 0.658961 0.448129
0.350512 0.715237 0.424408
0.426751 0.723068 0.432239
0.506404 0.731250 0.440420
0.588585 0.739692 0.448862
0.672791 0.748341 0.457511
0.758692 0.757165 0.466335
0.846058 0.766139 0.475309
0.881374 0.769766 0.478937
0.881374 0.769766 0.478937
0.381969 0.828379 0.455865
0.458209 0.836210 0.463696
0.537861 0.844392 0.471878
0.620042 0.852833 0.480319
0.704248 0.861482 0.488969
0.790150 0.870306 0.497792
0.877515 0.879280 0.506766
0.912831 0.882908 0.510394
0.912831 0.882908 0.510394
0.395996 0.878829 0.469892
0.472235 0.886660 0.477723
0.551888 0.894842 0.485905
0.634069 0.903283 0.494346
0.718275 0.911932 0.502995
0.804176 0.920756 0.511819
0.891542 0.929730 0.520793
0.926858 0.933358 0.524421
0.926858 0.933358 0.524421
0.184669 0.110997 0.335408
0.260908 0.118828 0.343239
0.340561 0.127009 0.351421
0.422742 0.135451 0.359862
0.506948 0.144100 0.368512
0.592849 0.152924 0.377335
0.680215 0.161898 0.386309
0.715531 0.165526 0.389937
0.715531 0.165526 0.389937
0.208848 0.197961 0.359587
0.285088 0.205792 0.367418
0.364740 0.213974 0.375600
0.446921 0.222415 0.384041
0.531127 0.231065 0.392691
0.617029 0.239889 0.401514
0.704394 0.248863 0.410488
0.739710 0.252490 0.414116
0.739710 0.252490 0.414116
0.235413 0.293506 0.386152
0.311652 0.301337 0.393983
0.391305 0.309519 0.402165
0.473486 0.317960 0.410606
0.557692 0.326610 0.419256
0.643593 0.335433 0.428079
0.730959 0.344408 0.437053
0.766275 0.348035 0.440681
0.766275 0.348035 0.440681
0.263468 0.394413 0.414207
0.339708 0.402245 0.422039
0.419361 0.410426 0.430220
0.501542 0.418868 0.438662
0.585747 0.427517 0.447311
0.671649 0.436341 0.456135
0.759015 0.445315 0.465109
0.794330 0.448943 0.468737
0.794330 0.448943 0.468737
0.292634 0.499312 0.443373
0.368874 0.507143 0.451204
0.448526 0.515325 0.459386
0.530707 0.523766 0.467827
0.614913 0.532416 0.476477
0.700815 0.541239 0.485300
0.788180 0.550213 0.494274
0.823496 0.553841 0.497902
0.823496 0.553841 0.497902
0.322691 0.607419 0.473430
0.398931 0.615250 0.481262
0.478584 0.623432 0.489443
0.560765 0.631874 0.497885
0.644970 0.640523 0.506534
0.730872 0.649347 0.515358
0.818238 0.658321 0.524332
0.853553 0.661948 0.527960
0.853553 0.661948 0.527960
0.353499 0.718225 0.504238
0.429739 0.726056 0.512069
0.509391 0.734238 0.520251
0.591572 0.742679 0.528693
0.675778 0.751329 0.537342
0.761680 0.760152 0.546166
0.849045 0.769126 0.555140
0.884361 0.772754 0.558767
0.884361 0.772754 0.558767
0.384956 0.831366 0.535695
0.461196 0.839197 0.543527
0.540849 0.847379 0.551708
0.623030 0.855820 0.560150
0.707235 0.864470 0.568799
0.793137 0.873294 0.577623
0.880503 0.882268 0.586597
0.915818 0.885895 0.590224
0.915818 0.885895 0.590224
0.398983 0.881816 0.549722
0.475223 0.889647 0.557553
0.554875 0.897829 0.565735
0.637056 0.906270 0.574177
0.721262 0.914920 0.582826
0.807164 0.923744 0.591650
0.894529 0.932718 0.600624
0.929845 0.936345 0.604251
0.929845 0.936345 0.604251
0.187785 0.114113 0.418681
0.264025 0.121944 0.426512
0.343677 0.130126 0.434694
0.425858 0.138567 0.443135
0.510064 0.147217 0.451785
0.595966 0.156040 0.460609
0.683331 0.165014 0.469583
0.718647 0.168642 0.473210
0.718647 0.168642 0.473210
0.211964 0.201077 0.442860
0.288204 0.208908 0.450691
0.367856 0.217090 0.458873
0.450037 0.225532 0.467315
0.534243 0.234181 0.475964
0.620145 0.243005 0.484788
0.707510 0.251979 0.493762
0.742826 0.255606 0.497389
0.742826 0.255606 0.497389
0.238529 0.296622 0.469425
0.314769 0.304453 0.477256
0.394421 0.312635 0.485438
0.476602 0.321077 0.493879
0.560808 0.329726 0.502529
0.646710 0.338550 0.511352
0.734075 0.347524 0.520326
0.769391 0.351151 0.523954
0.769391 0.351151 0.523954
0.266585 0.397530 0.497481
0.342824 0.405361 0.505312
0.422477 0.413543 0.513494
0.504658 0.421984 0.521935
0.588864 0.430634 0.530585
0.674765 0.439457 0.539408
0.762131 0.448431 0.548382
0.797447 0.452059 0.552010
0.797447 0.452059 0.552010
0.295750 0.502428 0.526646
0.371990 0.510259 0.534477
0.451642 0.518441 0.542659
0.533823 0.526883 0.551101
0.618029 0.535532 0.559750
0.703931 0.544356 0.568574
0.791296 0.553330 0.577548
0.826612 0.556957 0.581175
0.826612 0.556957 0.581175
0.325808 0.610536 0.556704
0.402047 0.618367 0.564535
0.481700 0.626548 0.572717
0.563881 0.634990 0.581158
0.648087 0.643639 0.589808
0.733988 0.652463 0.598631
0.821354 0.661437 0.607605
0.856670 0.665065 0.611233
0.856670 0.665065 0.611233
0.356615 0.721341 0.587511
0.432855 0.729172 0.595343
0.512508 0.737354 0.603524
0.594689 0.745795 0.611966
0.678894 0.754445 0.620615
0.764796 0.763268 0.629439
0.852162 0.772242 0.638413
0.887477 0.775870 0.642040
0.887477 0.775870 0.642040
0.388073 0.834482 0.618969
0.464312 0.842313 0.626800
0.543965 0.850495 0.634982
0.626146 0.858937 0.643423
0.710352 0.867586 0.652072
0.796253 0.876410 0.660896
0.883619 0.885384 0.669870
0.918935 0.889011 0.673498
0.918935 0.889011 0.673498
0.402099 0.884932 0.632995
0.478339 0.892763 0.640827
0.557992 0.900945 0.649008
0.640173 0.909387 0.657450
0.724378 0.918036 0.666099
0.810280 0.926860 0.674923
0.897646 0.935834 0.683897
0.932961 0.939461 0.687525
0.932961 0.939461 0.687525
0.191005 0.117333 0.504739
0.267245 0.125164 0.512570
0.346898 0.133346 0.520752
0.429079 0.141788 0.529193
0.513284 0.150437 0.537843
0.599186 0.159261 0.546667
0.686552 0.168235 0.555641
0.721867 0.171862 0.559268
0.721867 0.171862 0.559268
0.215185 0.204298 0.528918
0.291424 0.212129 0.536749
0.371077 0.220311 0.544931
0.453258 0.228752 0.553373
0.537464 0.237402 0.562022
0.623365 0.246225 0.570846
0.710731 0.255199 0.579820
0.746047 0.258827 0.583447
0.746047 0.258827 0.583447
0.241749 0.299843 0.555483
0.317989 0.307674 0.563314
0.397642 0.315856 0.571496
0.479823 0.324297 0.579937
0.564028 0.332947 0.588587
0.649930 0.341770 0.597410
0.737296 0.350744 0.606384
0.772611 0.354372 0.610012
0.772611 0.354372 0.610012
0.269805 0.400750 0.583539
0.346045 0.408581 0.591370
0.425697 0.416763 0.599552
0.507878 0.425205 0.607993
0.592084 0.433854 0.616643
0.677986 0.442678 0.625466
0.765351 0.451652 0.634440
0.800667 0.455279 0.638068
0.800667 0.455279 0.638068
0.298971 0.505649 0.612704
0.375210 0.513480 0.620535
0.454863 0.521662 0.628717
0.537044 0.530103 0.637158
0.621250 0.538753 0.645808
0.707151 0.547576 0.654632
0.794517 0.556550 0.663606
0.829833 0.560178 0.667233
0.829833 0.560178 0.667233
0.329028 0.613756 0.642762
0.405268 0.621587 0.650593
0.484920 0.629769 0.658775
0.567101 0.638210 0.667216
0.651307 0.646860 0.675865
0.737209 0.655684 0.684689
0.824574 0.664658 0.693663
0.859890 0.668285 0.697291
0.859890 0.668285 0.697291
0.359836 0.724561 0.673569
0.436076 0.732393 0.681401
0.515728 0.740574 0.689582
0.597909 0.749016 0.698024
0.682115 0.757665 0.706673
0.768017 0.766489 0.715497
0.855382 0.775463 0.724471
0.890698 0.779090 0.728098
0.890698 0.779090 0.728098
0.391293 0.837703 0.705027
0.467533 0.845534 0.712858
0.547185 0.853716 0.721039
0.629366 0.862157 0.729481
0.713572 0.870807 0.738130
0.799474 0.879630 0.746954
0.886839 0.888604 0.755928
0.922155 0.892232 0.759556
0.922155 0.892232 0.759556
0.405320 0.888153 0.719053
0.481560 0.895984 0.726885
0.561212 0.904166 0.735066
0.643393 0.912607 0.743508
0.727599 0.921257 0.752157
0.813501 0.930080 0.760981
0.900866 0.939054 0.769955
0.936182 0.942682 0.773582
0.936182 0.942682 0.773582
0.194313 0.120641 0.593128
0.270553 0.128472 0.600959
0.350205 0.136654 0.609141
0.432386 0.145095 0.617582
0.516592 0.153745 0.626232
0.602494 0.162568 0.635055
0.689859 0.171542 0.644029
0.725175 0.175170 0.647657
0.725175 0.175170 0.647657
0.218492 0.207605 0.617307
0.294732 0.215437 0.625138
0.374385 0.223618 0.633320
0.456566 0.232060 0.641761
0.540771 0.240709 0.650411
0.626673 0.249533 0.659234
0.714039 0.258507 0.668208
0.749354 0.262135 0.671836
0.749354 0.262135 0.671836
0.245057 0.303150 0.643872
0.321297 0.310982 0.651703
0.400949 0.319163 0.659885
0.483130 0.327605 0.668326
0.567336 0.336254 0.676975
0.653238 0.345078 0.685799
0.740603 0.354052 0.694773
0.775919 0.357679 0.698401
0.775919 0.357679 0.698401
0.273113 0.404058 0.671927
0.349353 0.411889 0.679759
0.429005 0.420071 0.687940
0.511186 0.428512 0.696382
0.595392 0.437162 0.705031
0.681294 0.445985 0.713855
0.768659 0.454959 0.722829
0.803975 0.458587 0.726456
0.803975 0.458587 0.726456
0.302278 0.508956 0.701093
0.378518 0.516788 0.708924
0.458171 0.524969 0.717106
0.540352 0.533411 0.725547
0.624557 0.542060 0.734197
0.710459 0.550884 0.743020
0.797824 0.559858 0.751994
0.833140 0.563485 0.755622
0.833140 0.563485 0.755622
0.332336 0.617064 0.731150
0.408576 0.624895 0.738982
0.488228 0.633077 0.747163
0.570409 0.641518 0.755605
0.654615 0.650168 0.764254
0.740517 0.658991 0.773078
0.827882 0.667965 0.782052
0.863198 0.671593 0.785679
0.863198 0.671593 0.785679
0.363143 0.727869 0.761958
0.439383 0.735700 0.769789
0.519036 0.743882 0.777971
0.601217 0.752323 0.786412
0.685422 0.760973 0.795062
0.771324 0.769797 0.803886
0.858690 0.778771 0.812860
0.894005 0.782398 0.816487
0.894005 0.782398 0.816487
0.394601 0.841010 0.793415
0.470840 0.848842 0.801246
0.550493 0.857023 0.809428
0.632674 0.865465 0.817870
0.716880 0.874114 0.826519
0.802781 0.882938 0.835343
0.890147 0.891912 0.844317
0.925463 0.895540 0.847944
0.925463 0.895540 0.847944
0.408628 0.891460 0.807442
0.484867 0.899292 0.815273
0.564520 0.907473 0.823455
0.646701 0.915915 0.831896
0.730907 0.924564 0.840546
0.816808 0.933388 0.849370
0.904174 0.942362 0.858344
0.939490 0.945990 0.861971
0.939490 0.945990 0.861971
