luts/film_stocks/super_8mm_home_movie.cube
TITLE "Super 8mm Home Movie"
LUT_3D_SIZE 5
DOMAIN_MIN 0.0 0.0 0.0
DOMAIN_MAX 1.0 1.0 1.0
0.174569 0.100897 0.065529
0.330462 0.116910 0.081542
0.496848 0.134001 0.098632
0.670116 0.151799 0.116430
0.705431 0.155426 0.120058
0.225313 0.283407 0.116272
0.381206 0.299419 0.132285
0.547592 0.316510 0.149376
0.720859 0.334308 0.167174
0.756175 0.337936 0.170802
0.282534 0.489212 0.173494
0.438427 0.505225 0.189507
0.604813 0.522316 0.206598
0.778081 0.540114 0.224395
0.813396 0.543742 0.228023
0.343400 0.708125 0.234359
0.499292 0.724138 0.250372
0.665679 0.741229 0.267463
0.838946 0.759027 0.285260
0.874262 0.762654 0.288888
0.388884 0.871717 0.279843
0.544776 0.887730 0.295856
0.711163 0.904820 0.312947
0.884430 0.922618 0.330745
0.919746 0.926246 0.334372
0.176290 0.102618 0.111513
0.332182 0.118631 0.127526
0.498569 0.135722 0.144617
0.671836 0.153519 0.162414
0.707152 0.157147 0.166042
0.227034 0.285127 0.162257
0.382926 0.301140 0.178270
0.549313 0.318231 0.195361
0.722580 0.336029 0.213158
0.757896 0.339656 0.216786
0.284255 0.490933 0.219478
0.440147 0.506946 0.235491
0.606534 0.524037 0.252582
0.779801 0.541835 0.270380
0.815117 0.545462 0.274007
0.345120 0.709846 0.280343
0.501013 0.725859 0.296356
0.667399 0.742950 0.313447
0.840667 0.760748 0.331245
0.875982 0.764375 0.334872
0.390604 0.873437 0.325827
0.546497 0.889450 0.341840
0.712884 0.906541 0.358931
0.886151 0.924339 0.376729
0.921467 0.927967 0.380356
0.181681 0.108009 0.255577
0.337574 0.124022 0.271590
0.503960 0.141113 0.288681
0.677228 0.158911 0.306479
0.712543 0.162538 0.310106
0.232425 0.290519 0.306321
0.388318 0.306531 0.322334
0.554704 0.323622 0.339425
0.727971 0.341420 0.357223
0.763287 0.345048 0.360850
0.289646 0.496324 0.363542
0.445539 0.512337 0.379555
0.611925 0.529428 0.396646
0.785193 0.547226 0.414444
0.820508 0.550854 0.418071
0.350512 0.715237 0.424408
0.506404 0.731250 0.440420
0.672791 0.748341 0.457511
0.846058 0.766139 0.475309
0.881374 0.769766 0.478937
0.395996 0.878829 0.469892
0.551888 0.894842 0.485905
0.718275 0.911932 0.502995
0.891542 0.929730 0.520793
0.926858 0.933358 0.524421
0.187785 0.114113 0.418681
0.343677 0.130126 0.434694
0.510064 0.147217 0.451785
0.683331 0.165014 0.469583
0.718647 0.168642 0.473210
0.238529 0.296622 0.469425
0.394421 0.312635 0.485438
0.560808 0.329726 0.502529
0.734075 0.347524 0.520326
0.769391 0.351151 0.523954
0.295750 0.502428 0.526646
0.451642 0.518441 0.542659
0.618029 0.535532 0.559750
0.791296 0.553330 0.577548
0.826612 0.556957 0.581175
0.356615 0.721341 0.587511
0.512508 0.737354 0.603524
0.678894 0.754445 0.620615
0.852162 0.772242 0.638413
0.887477 0.775870 0.642040
0.402099 0.884932 0.632995
0.557992 0.900945 0.649008
0.724378 0.918036 0.666099
0.897646 0.935834 0.683897
0.932961 0.939461 0.687525
0.194313 0.120641 0.593128
0.350205 0.136654 0.609141
0.516592 0.153745 0.626232
0.689859 0.171542 0.644029
0.725175 0.175170 0.647657
0.245057 0.303150 0.643872
0.400949 0.319163 0.659885
0.567336 0.336254 0.676975
0.740603 0.354052 0.694773
0.775919 0.357679 0.698401
0.302278 0.508956 0.701093
0.458171 0.524969 0.717106
0.624557 0.542060 0.734197
0.797824 0.559858 0.751994
0.833140 0.563485 0.755622
0.363143 0.727869 0.761958
0.519036 0.743882 0.777971
0.685422 0.760973 0.795062
0.858690 0.778771 0.812860
0.894005 0.782398 0.816487
0.408628 0.891460 0.807442
0.564520 0.907473 0.823455
0.730907 0.924564 0.840546
0.904174 0.942362 0.858344
0.939490 0.945990 0.861971
