luts/film_stocks/super_8mm_home_movie.cube
TITLE "Super 8mm Home Movie"
LUT_3D_SIZE 17
DOMAIN_MIN 0.0 0.0 0.0
DOMAIN_MAX 1.0 1.0 1.0
0.174569 0.100897 0.065529
0.212180 0.104760 0.069392
0.250809 0.108728 0.073360
0.290277 0.112782 0.077414
0.330462 0.116910 0.081542
0.371273 0.121102 0.085734
0.412643 0.125352 0.089983
0.454516 0.129653 0.094284
0.496848 0.134001 0.098632
0.539603 0.138393 0.103024
0.582750 0.142825 0.107456
0.626262 0.147294 0.111926
0.670116 0.151799 0.116430
0.705431 0.155426 0.120058
0.705431 0.155426 0.120058
0.705431 0.155426 0.120058
0.705431 0.155426 0.120058
0.186255 0.142929 0.077215
0.223867 0.146792 0.081078
0.262495 0.150760 0.085046
0.301963 0.154814 0.089100
0.342148 0.158941 0.093228
0.382959 0.163134 0.097420
0.424329 0.167383 0.101669
0.466202 0.171684 0.105970
0.508534 0.176032 0.110319
0.551290 0.180424 0.114710
0.594436 0.184856 0.119142
0.637948 0.189326 0.123612
0.681802 0.193830 0.128116
0.717117 0.197458 0.131744
0.717117 0.197458 0.131744
0.717117 0.197458 0.131744
0.717117 0.197458 0.131744
0.198748 0.187862 0.089708
0.236359 0.191725 0.093571
0.274988 0.195693 0.097539
0.314456 0.199747 0.101593
0.354641 0.203875 0.105721
0.395452 0.208067 0.109913
0.436822 0.212316 0.114162
0.478695 0.216617 0.118463
0.521027 0.220965 0.122812
0.563783 0.225357 0.127203
0.606929 0.229789 0.131635
0.650441 0.234259 0.136105
0.694295 0.238763 0.140609
0.729610 0.242391 0.144237
0.729610 0.242391 0.144237
0.729610 0.242391 0.144237
0.729610 0.242391 0.144237
0.211809 0.234836 0.102768
0.249420 0.238699 0.106632
0.288049 0.242667 0.110599
0.327517 0.246721 0.114654
0.367701 0.250849 0.118781
0.408513 0.255041 0.122973
0.449882 0.259291 0.127223
0.491755 0.263592 0.131524
0.534088 0.267940 0.135872
0.576843 0.272332 0.140264
0.619990 0.276764 0.144696
0.663501 0.281233 0.149165
0.707355 0.285738 0.153670
0.742671 0.289365 0.157297
0.742671 0.289365 0.157297
0.742671 0.289365 0.157297
0.742671 0.289365 0.157297
0.225313 0.283407 0.116272
0.262924 0.287270 0.120136
0.301553 0.291238 0.124104
0.341021 0.295292 0.128158
0.381206 0.299419 0.132285
0.422017 0.303612 0.136478
0.463387 0.307861 0.140727
0.505260 0.312162 0.145028
0.547592 0.316510 0.149376
0.590347 0.320902 0.153768
0.633494 0.325334 0.158200
0.677006 0.329803 0.162669
0.720859 0.334308 0.167174
0.756175 0.337936 0.170802
0.756175 0.337936 0.170802
0.756175 0.337936 0.170802
0.756175 0.337936 0.170802
0.239184 0.333296 0.130143
0.276795 0.337159 0.134007
0.315424 0.341127 0.137975
0.354892 0.345181 0.142029
0.395076 0.349309 0.146156
0.435888 0.353501 0.150348
0.477257 0.357750 0.154598
0.519131 0.362051 0.158899
0.561463 0.366400 0.163247
0.604218 0.370791 0.167639
0.647365 0.375223 0.172071
0.690877 0.379693 0.176540
0.734730 0.384197 0.181045
0.770046 0.387825 0.184673
0.770046 0.387825 0.184673
0.770046 0.387825 0.184673
0.770046 0.387825 0.184673
0.253369 0.384314 0.144328
0.290980 0.388177 0.148192
0.329609 0.392145 0.152159
0.369077 0.396199 0.156214
0.409261 0.400327 0.160341
0.450073 0.404519 0.164533
0.491442 0.408768 0.168783
0.533315 0.413070 0.173084
0.575648 0.417418 0.177432
0.618403 0.421810 0.181824
0.661550 0.426242 0.186256
0.705061 0.430711 0.190725
0.748915 0.435216 0.195230
0.784231 0.438843 0.198857
0.784231 0.438843 0.198857
0.784231 0.438843 0.198857
0.784231 0.438843 0.198857
0.267829 0.436322 0.158788
0.305440 0.440185 0.162652
0.344069 0.444153 0.166619
0.383537 0.448207 0.170673
0.423721 0.452335 0.174801
0.464533 0.456527 0.178993
0.505902 0.460776 0.183243
0.547775 0.465077 0.187544
0.590108 0.469426 0.191892
0.632863 0.473817 0.196284
0.676010 0.478249 0.200716
0.719521 0.482719 0.205185
0.763375 0.487223 0.209690
0.798691 0.490851 0.213317
0.798691 0.490851 0.213317
0.798691 0.490851 0.213317
0.798691 0.490851 0.213317
0.282534 0.489212 0.173494
0.320145 0.493076 0.177357
0.358774 0.497044 0.181325
0.398242 0.501098 0.185379
0.438427 0.505225 0.189507
0.479238 0.509418 0.193699
0.520608 0.513667 0.197948
0.562481 0.517968 0.202249
0.604813 0.522316 0.206598
0.647568 0.526708 0.210989
0.690715 0.531140 0.215421
0.734227 0.535609 0.219891
0.778081 0.540114 0.224395
0.813396 0.543742 0.228023
0.813396 0.543742 0.228023
0.813396 0.543742 0.228023
0.813396 0.543742 0.228023
0.297462 0.542901 0.188421
0.335073 0.546765 0.192284
0.373701 0.550733 0.196252
0.413169 0.554787 0.200306
0.453354 0.558914 0.204434
0.494166 0.563106 0.208626
0.535535 0.567356 0.212875
0.577408 0.571657 0.217177
0.619741 0.576005 0.221525
0.662496 0.580397 0.225917
0.705642 0.584829 0.230349
0.749154 0.589298 0.234818
0.793008 0.593803 0.239323
0.828324 0.597431 0.242950
0.828324 0.597431 0.242950
0.828324 0.597431 0.242950
0.828324 0.597431 0.242950
0.312592 0.597320 0.203551
0.350203 0.601183 0.207415
0.388832 0.605151 0.211382
0.428300 0.609205 0.215436
0.468484 0.613333 0.219564
0.509296 0.617525 0.223756
0.550665 0.621774 0.228006
0.592538 0.626075 0.232307
0.634871 0.630424 0.236655
0.677626 0.634815 0.241047
0.720773 0.639247 0.245479
0.764284 0.643717 0.249948
0.808138 0.648221 0.254453
0.843454 0.651849 0.258080
0.843454 0.651849 0.258080
0.843454 0.651849 0.258080
0.843454 0.651849 0.258080
0.327909 0.652411 0.218868
0.365520 0.656274 0.222732
0.404149 0.660242 0.226700
0.443617 0.664296 0.230754
0.483801 0.668423 0.234881
0.524613 0.672616 0.239073
0.565982 0.676865 0.243323
0.607856 0.681166 0.247624
0.650188 0.685514 0.251972
0.692943 0.689906 0.256364
0.736090 0.694338 0.260796
0.779602 0.698807 0.265265
0.823455 0.703312 0.269770
0.858771 0.706940 0.273397
0.858771 0.706940 0.273397
0.858771 0.706940 0.273397
0.858771 0.706940 0.273397
0.343400 0.708125 0.234359
0.381011 0.711989 0.238222
0.419639 0.715956 0.242190
0.459107 0.720010 0.246244
0.499292 0.724138 0.250372
0.540103 0.728330 0.254564
0.581473 0.732580 0.258813
0.623346 0.736881 0.263114
0.665679 0.741229 0.267463
0.708434 0.745621 0.271855
0.751580 0.750053 0.276286
0.795092 0.754522 0.280756
0.838946 0.759027 0.285260
0.874262 0.762654 0.288888
0.874262 0.762654 0.288888
0.874262 0.762654 0.288888
0.874262 0.762654 0.288888
0.359052 0.764422 0.250012
0.396663 0.768286 0.253875
0.435292 0.772254 0.257843
0.474760 0.776308 0.261897
0.514945 0.780435 0.266024
0.555756 0.784628 0.270217
0.597126 0.788877 0.274466
0.638999 0.793178 0.278767
0.681331 0.797526 0.283115
0.724086 0.801918 0.287507
0.767233 0.806350 0.291939
0.810745 0.810819 0.296409
0.854598 0.815324 0.300913
0.889914 0.818952 0.304541
0.889914 0.818952 0.304541
0.889914 0.818952 0.304541
0.889914 0.818952 0.304541
0.374857 0.821267 0.265816
0.412468 0.825130 0.269679
0.451097 0.829098 0.273647
0.490565 0.833152 0.277701
0.530749 0.837280 0.281829
0.571561 0.841472 0.286021
0.612930 0.845721 0.290271
0.654803 0.850022 0.294572
0.697136 0.854370 0.298920
0.739891 0.858762 0.303312
0.783038 0.863194 0.307744
0.826549 0.867664 0.312213
0.870403 0.872168 0.316718
0.905719 0.875796 0.320345
0.905719 0.875796 0.320345
0.905719 0.875796 0.320345
0.905719 0.875796 0.320345
0.388884 0.871717 0.279843
0.426495 0.875580 0.283706
0.465123 0.879548 0.287674
0.504591 0.883602 0.291728
0.544776 0.887730 0.295856
0.585587 0.891922 0.300048
0.626957 0.896171 0.304297
0.668830 0.900472 0.308599
0.711163 0.904820 0.312947
0.753918 0.909212 0.317339
0.797064 0.913644 0.321771
0.840576 0.918114 0.326240
0.884430 0.922618 0.330745
0.919746 0.926246 0.334372
0.919746 0.926246 0.334372
0.919746 0.926246 0.334372
0.919746 0.926246 0.334372
0.388884 0.871717 0.279843
0.426495 0.875580 0.283706
0.465123 0.879548 0.287674
0.504591 0.883602 0.291728
0.544776 0.887730 0.295856
0.585587 0.891922 0.300048
0.626957 0.896171 0.304297
0.668830 0.900472 0.308599
0.711163 0.904820 0.312947
0.753918 0.909212 0.317339
0.797064 0.913644 0.321771
0.840576 0.918114 0.326240
0.884430 0.922618 0.330745
0.919746 0.926246 0.334372
0.919746 0.926246 0.334372
0.919746 0.926246 0.334372
0.919746 0.926246 0.334372
0.174569 0.100897 0.065529
0.212180 0.104760 0.069392
0.250809 0.108728 0.073360
0.290277 0.112782 0.077414
0.330462 0.116910 0.081542
0.371273 0.121102 0.085734
0.412643 0.125352 0.089983
0.454516 0.129653 0.094284
0.496848 0.134001 0.098632
0.539603 0.138393 0.103024
0.582750 0.142825 0.107456
0.626262 0.147294 0.111926
0.670116 0.151799 0.116430
0.705431 0.155426 0.120058
0.705431 0.155426 0.120058
0.705431 0.155426 0.120058
0.705431 0.155426 0.120058
0.186255 0.142929 0.077215
0.223867 0.146792 0.081078
0.262495 0.150760 0.085046
0.301963 0.154814 0.089100
0.342148 0.158941 0.093228
0.382959 0.163134 0.097420
0.424329 0.167383 0.101669
0.466202 0.171684 0.105970
0.508534 0.176032 0.110319
0.551290 0.180424 0.114710
0.594436 0.184856 0.119142
0.637948 0.189326 0.123612
0.681802 0.193830 0.128116
0.717117 0.197458 0.131744
0.717117 0.197458 0.131744
0.717117 0.197458 0.131744
0.717117 0.197458 0.131744
0.198748 0.187862 0.089708
0.236359 0.191725 0.093571
0.274988 0.195693 0.097539
0.314456 0.199747 0.101593
0.354641 0.203875 0.105721
0.395452 0.208067 0.109913
0.436822 0.212316 0.114162
0.478695 0.216617 0.118463
0.521027 0.220965 0.122812
0.563783 0.225357 0.127203
0.606929 0.229789 0.131635
0.650441 0.234259 0.136105
0.694295 0.238763 0.140609
0.729610 0.242391 0.144237
0.729610 0.242391 0.144237
0.729610 0.242391 0.144237
0.729610 0.242391 0.144237
0.211809 0.234836 0.102768
0.249420 0.238699 0.106632
0.288049 0.242667 0.110599
0.327517 0.246721 0.114654
0.367701 0.250849 0.118781
0.408513 0.255041 0.122973
0.449882 0.259291 0.127223
0.491755 0.263592 0.131524
0.534088 0.267940 0.135872
0.576843 0.272332 0.140264
0.619990 0.276764 0.144696
0.663501 0.281233 0.149165
0.707355 0.285738 0.153670
0.742671 0.289365 0.157297
0.742671 0.289365 0.157297
0.742671 0.289365 0.157297
0.742671 0.289365 0.157297
0.225313 0.283407 0.116272
0.262924 0.287270 0.120136
0.301553 0.291238 0.124104
0.341021 0.295292 0.128158
0.381206 0.299419 0.132285
0.422017 0.303612 0.136478
0.463387 0.307861 0.140727
0.505260 0.312162 0.145028
0.547592 0.316510 0.149376
0.590347 0.320902 0.153768
0.633494 0.325334 0.158200
0.677006 0.329803 0.162669
0.720859 0.334308 0.167174
0.756175 0.337936 0.170802
0.756175 0.337936 0.170802
0.756175 0.337936 0.170802
0.756175 0.337936 0.170802
0.239184 0.333296 0.130143
0.276795 0.337159 0.134007
0.315424 0.341127 0.137975
0.354892 0.345181 0.142029
0.395076 0.349309 0.146156
0.435888 0.353501 0.150348
0.477257 0.357750 0.154598
0.519131 0.362051 0.158899
0.561463 0.366400 0.163247
0.604218 0.370791 0.167639
0.647365 0.375223 0.172071
0.690877 0.379693 0.176540
0.734730 0.384197 0.181045
0.770046 0.387825 0.184673
0.770046 0.387825 0.184673
0.770046 0.387825 0.184673
0.770046 0.387825 0.184673
0.253369 0.384314 0.144328
0.290980 0.388177 0.148192
0.329609 0.392145 0.152159
0.369077 0.396199 0.156214
0.409261 0.400327 0.160341
0.450073 0.404519 0.164533
0.491442 0.408768 0.168783
0.533315 0.413070 0.173084
0.575648 0.417418 0.177432
0.618403 0.421810 0.181824
0.661550 0.426242 0.186256
0.705061 0.430711 0.190725
0.748915 0.435216 0.195230
0.784231 0.438843 0.198857
0.784231 0.438843 0.198857
0.784231 0.438843 0.198857
0.784231 0.438843 0.198857
0.267829 0.436322 0.158788
0.305440 0.440185 0.162652
0.344069 0.444153 0.166619
0.383537 0.448207 0.170673
0.423721 0.452335 0.174801
0.464533 0.456527 0.178993
0.505902 0.460776 0.183243
0.547775 0.465077 0.187544
0.590108 0.469426 0.191892
0.632863 0.473817 0.196284
0.676010 0.478249 0.200716
0.719521 0.482719 0.205185
0.763375 0.487223 0.209690
0.798691 0.490851 0.213317
0.798691 0.490851 0.213317
0.798691 0.490851 0.213317
0.798691 0.490851 0.213317
0.282534 0.489212 0.173494
0.320145 0.493076 0.177357
0.358774 0.497044 0.181325
0.398242 0.501098 0.185379
0.438427 0.505225 0.189507
0.479238 0.509418 0.193699
0.520608 0.513667 0.197948
0.562481 0.517968 0.202249
0.604813 0.522316 0.206598
0.647568 0.526708 0.210989
0.690715 0.531140 0.215421
0.734227 0.535609 0.219891
0.778081 0.540114 0.224395
0.813396 0.543742 0.228023
0.813396 0.543742 0.228023
0.813396 0.543742 0.228023
0.813396 0.543742 0.228023
0.297462 0.542901 0.188421
0.335073 0.546765 0.192284
0.373701 0.550733 0.196252
0.413169 0.554787 0.200306
0.453354 0.558914 0.204434
0.494166 0.563106 0.208626
0.535535 0.567356 0.212875
0.577408 0.571657 0.217177
0.619741 0.576005 0.221525
0.662496 0.580397 0.225917
0.705642 0.584829 0.230349
0.749154 0.589298 0.234818
0.793008 0.593803 0.239323
0.828324 0.597431 0.242950
0.828324 0.597431 0.242950
0.828324 0.597431 0.242950
0.828324 0.597431 0.242950
0.312592 0.597320 0.203551
0.350203 0.601183 0.207415
0.388832 0.605151 0.211382
0.428300 0.609205 0.215436
0.468484 0.613333 0.219564
0.509296 0.617525 0.223756
0.550665 0.621774 0.228006
0.592538 0.626075 0.232307
0.634871 0.630424 0.236655
0.677626 0.634815 0.241047
0.720773 0.639247 0.245479
0.764284 0.643717 0.249948
0.808138 0.648221 0.254453
0.843454 0.651849 0.258080
0.843454 0.651849 0.258080
0.843454 0.651849 0.258080
0.843454 0.651849 0.258080
0.327909 0.652411 0.218868
0.365520 0.656274 0.222732
0.404149 0.660242 0.226700
0.443617 0.664296 0.230754
0.483801 0.668423 0.234881
0.524613 0.672616 0.239073
0.565982 0.676865 0.243323
0.607856 0.681166 0.247624
0.650188 0.685514 0.251972
0.692943 0.689906 0.256364
0.736090 0.694338 0.260796
0.779602 0.698807 0.265265
0.823455 0.703312 0.269770
0.858771 0.706940 0.273397
0.858771 0.706940 0.273397
0.858771 0.706940 0.273397
0.858771 0.706940 0.273397
0.343400 0.708125 0.234359
0.381011 0.711989 0.238222
0.419639 0.715956 0.242190
0.459107 0.720010 0.246244
0.499292 0.724138 0.250372
0.540103 0.728330 0.254564
0.581473 0.732580 0.258813
0.623346 0.736881 0.263114
0.665679 0.741229 0.267463
0.708434 0.745621 0.271855
0.751580 0.750053 0.276286
0.795092 0.754522 0.280756
0.838946 0.759027 0.285260
0.874262 0.762654 0.288888
0.874262 0.762654 0.288888
0.874262 0.762654 0.288888
0.874262 0.762654 0.288888
0.359052 0.764422 0.250012
0.396663 0.768286 0.253875
0.435292 0.772254 0.257843
0.474760 0.776308 0.261897
0.514945 0.780435 0.266024
0.555756 0.784628 0.270217
0.597126 0.788877 0.274466
0.638999 0.793178 0.278767
0.681331 0.797526 0.283115
0.724086 0.801918 0.287507
0.767233 0.806350 0.291939
0.810745 0.810819 0.296409
0.854598 0.815324 0.300913
0.889914 0.818952 0.304541
0.889914 0.818952 0.304541
0.889914 0.818952 0.304541
0.889914 0.818952 0.304541
0.374857 0.821267 0.265816
0.412468 0.825130 0.269679
0.451097 0.829098 0.273647
0.490565 0.833152 0.277701
0.530749 0.837280 0.281829
0.571561 0.841472 0.286021
0.612930 0.845721 0.290271
0.654803 0.850022 0.294572
0.697136 0.854370 0.298920
0.739891 0.858762 0.303312
0.783038 0.863194 0.307744
0.826549 0.867664 0.312213
0.870403 0.872168 0.316718
0.905719 0.875796 0.320345
0.905719 0.875796 0.320345
0.905719 0.875796 0.320345
0.905719 0.875796 0.320345
0.388884 0.871717 0.279843
0.426495 0.875580 0.283706
0.465123 0.879548 0.287674
0.504591 0.883602 0.291728
0.544776 0.887730 0.295856
0.585587 0.891922 0.300048
0.626957 0.896171 0.304297
0.668830 0.900472 0.308599
0.711163 0.904820 0.312947
0.753918 0.909212 0.317339
0.797064 0.913644 0.321771
0.840576 0.918114 0.326240
0.884430 0.922618 0.330745
0.919746 0.926246 0.334372
0.919746 0.926246 0.334372
0.919746 0.926246 0.334372
0.919746 0.926246 0.334372
0.388884 0.871717 0.279843
0.426495 0.875580 0.283706
0.465123 0.879548 0.287674
0.504591 0.883602 0.291728
0.544776 0.887730 0.295856
0.585587 0.891922 0.300048
0.626957 0.896171 0.304297
0.668830 0.900472 0.308599
0.711163 0.904820 0.312947
0.753918 0.909212 0.317339
0.797064 0.913644 0.321771
0.840576 0.918114 0.326240
0.884430 0.922618 0.330745
0.919746 0.926246 0.334372
0.919746 0.926246 0.334372
0.919746 0.926246 0.334372
0.919746 0.926246 0.334372
0.174569 0.100897 0.065529
0.212180 0.104760 0.069392
0.250809 0.108728 0.073360
0.290277 0.112782 0.077414
0.330462 0.116910 0.081542
0.371273 0.121102 0.085734
0.412643 0.125352 0.089983
0.454516 0.129653 0.094284
0.496848 0.134001 0.098632
0.539603 0.138393 0.103024
0.582750 0.142825 0.107456
0.626262 0.147294 0.111926
0.670116 0.151799 0.116430
0.705431 0.155426 0.120058
0.705431 0.155426 0.120058
0.705431 0.155426 0.120058
0.705431 0.155426 0.120058
0.186255 0.142929 0.077215
0.223867 0.146792 0.081078
0.262495 0.150760 0.085046
0.301963 0.154814 0.089100
0.342148 0.158941 0.093228
0.382959 0.163134 0.097420
0.424329 0.167383 0.101669
0.466202 0.171684 0.105970
0.508534 0.176032 0.110319
0.551290 0.180424 0.114710
0.594436 0.184856 0.119142
0.637948 0.189326 0.123612
0.681802 0.193830 0.128116
0.717117 0.197458 0.131744
0.717117 0.197458 0.131744
0.717117 0.197458 0.131744
0.717117 0.197458 0.131744
0.198748 0.187862 0.089708
0.236359 0.191725 0.093571
0.274988 0.195693 0.097539
0.314456 0.199747 0.101593
0.354641 0.203875 0.105721
0.395452 0.208067 0.109913
0.436822 0.212316 0.114162
0.478695 0.216617 0.118463
0.521027 0.220965 0.122812
0.563783 0.225357 0.127203
0.606929 0.229789 0.131635
0.650441 0.234259 0.136105
0.694295 0.238763 0.140609
0.729610 0.242391 0.144237
0.729610 0.242391 0.144237
0.729610 0.242391 0.144237
0.729610 0.242391 0.144237
0.211809 0.234836 0.102768
0.249420 0.238699 0.106632
0.288049 0.242667 0.110599
0.327517 0.246721 0.114654
0.367701 0.250849 0.118781
0.408513 0.255041 0.122973
0.449882 0.259291 0.127223
0.491755 0.263592 0.131524
0.534088 0.267940 0.135872
0.576843 0.272332 0.140264
0.619990 0.276764 0.144696
0.663501 0.281233 0.149165
0.707355 0.285738 0.153670
0.742671 0.289365 0.157297
0.742671 0.289365 0.157297
0.742671 0.289365 0.157297
0.742671 0.289365 0.157297
0.225313 0.283407 0.116272
0.262924 0.287270 0.120136
0.301553 0.291238 0.124104
0.341021 0.295292 0.128158
0.381206 0.299419 0.132285
0.422017 0.303612 0.136478
0.463387 0.307861 0.140727
0.505260 0.312162 0.145028
0.547592 0.316510 0.149376
0.590347 0.320902 0.153768
0.633494 0.325334 0.158200
0.677006 0.329803 0.162669
0.720859 0.334308 0.167174
0.756175 0.337936 0.170802
0.756175 0.337936 0.170802
0.756175 0.337936 0.170802
0.756175 0.337936 0.170802
0.239184 0.333296 0.130143
0.276795 0.337159 0.134007
0.315424 0.341127 0.137975
0.354892 0.345181 0.142029
0.395076 0.349309 0.146156
0.435888 0.353501 0.150348
0.477257 0.357750 0.154598
0.519131 0.362051 0.158899
0.561463 0.366400 0.163247
0.604218 0.370791 0.167639
0.647365 0.375223 0.172071
0.690877 0.379693 0.176540
0.734730 0.384197 0.181045
0.770046 0.387825 0.184673
0.770046 0.387825 0.184673
0.770046 0.387825 0.184673
0.770046 0.387825 0.184673
0.253369 0.384314 0.144328
0.290980 0.388177 0.148192
0.329609 0.392145 0.152159
0.369077 0.396199 0.156214
0.409261 0.400327 0.160341
0.450073 0.404519 0.164533
0.491442 0.408768 0.168783
0.533315 0.413070 0.173084
0.575648 0.417418 0.177432
0.618403 0.421810 0.181824
0.661550 0.426242 0.186256
0.705061 0.430711 0.190725
0.748915 0.435216 0.195230
0.784231 0.438843 0.198857
0.784231 0.438843 0.198857
0.784231 0.438843 0.198857
0.784231 0.438843 0.198857
0.267829 0.436322 0.158788
0.305440 0.440185 0.162652
0.344069 0.444153 0.166619
0.383537 0.448207 0.170673
0.423721 0.452335 0.174801
0.464533 0.456527 0.178993
0.505902 0.460776 0.183243
0.547775 0.465077 0.187544
0.590108 0.469426 0.191892
0.632863 0.473817 0.196284
0.676010 0.478249 0.200716
0.719521 0.482719 0.205185
0.763375 0.487223 0.209690
0.798691 0.490851 0.213317
0.798691 0.490851 0.213317
0.798691 0.490851 0.213317
0.798691 0.490851 0.213317
0.282534 0.489212 0.173494
0.320145 0.493076 0.177357
0.358774 0.497044 0.181325
0.398242 0.501098 0.185379
0.438427 0.505225 0.189507
0.479238 0.509418 0.193699
0.520608 0.513667 0.197948
0.562481 0.517968 0.202249
0.604813 0.522316 0.206598
0.647568 0.526708 0.210989
0.690715 0.531140 0.215421
0.734227 0.535609 0.219891
0.778081 0.540114 0.224395
0.813396 0.543742 0.228023
0.813396 0.543742 0.228023
0.813396 0.543742 0.228023
0.813396 0.543742 0.228023
0.297462 0.542901 0.188421
0.335073 0.546765 0.192284
0.373701 0.550733 0.196252
0.413169 0.554787 0.200306
0.453354 0.558914 0.204434
0.494166 0.563106 0.208626
0.535535 0.567356 0.212875
0.577408 0.571657 0.217177
0.619741 0.576005 0.221525
0.662496 0.580397 0.225917
0.705642 0.584829 0.230349
0.749154 0.589298 0.234818
0.793008 0.593803 0.239323
0.828324 0.597431 0.242950
0.828324 0.597431 0.242950
0.828324 0.597431 0.242950
0.828324 0.597431 0.242950
0.312592 0.597320 0.203551
0.350203 0.601183 0.207415
0.388832 0.605151 0.211382
0.428300 0.609205 0.215436
0.468484 0.613333 0.219564
0.509296 0.617525 0.223756
0.550665 0.621774 0.228006
0.592538 0.626075 0.232307
0.634871 0.630424 0.236655
0.677626 0.634815 0.241047
0.720773 0.639247 0.245479
0.764284 0.643717 0.249948
0.808138 0.648221 0.254453
0.843454 0.651849 0.258080
0.843454 0.651849 0.258080
0.843454 0.651849 0.258080
0.843454 0.651849 0.258080
0.327909 0.652411 0.218868
0.365520 0.656274 0.222732
0.404149 0.660242 0.226700
0.443617 0.664296 0.230754
0.483801 0.668423 0.234881
0.524613 0.672616 0.239073
0.565982 0.676865 0.243323
0.607856 0.681166 0.247624
0.650188 0.685514 0.251972
0.692943 0.689906 0.256364
0.736090 0.694338 0.260796
0.779602 0.698807 0.265265
0.823455 0.703312 0.269770
0.858771 0.706940 0.273397
0.858771 0.706940 0.273397
0.858771 0.706940 0.273397
0.858771 0.706940 0.273397
0.343400 0.708125 0.234359
0.381011 0.711989 0.238222
0.419639 0.715956 0.242190
0.459107 0.720010 0.246244
0.499292 0.724138 0.250372
0.540103 0.728330 0.254564
0.581473 0.732580 0.258813
0.623346 0.736881 0.263114
0.665679 0.741229 0.267463
0.708434 0.745621 0.271855
0.751580 0.750053 0.276286
0.795092 0.754522 0.280756
0.838946 0.759027 0.285260
0.874262 0.762654 0.288888
0.874262 0.762654 0.288888
0.874262 0.762654 0.288888
0.874262 0.762654 0.288888
0.359052 0.764422 0.250012
0.396663 0.768286 0.253875
0.435292 0.772254 0.257843
0.474760 0.776308 0.261897
0.514945 0.780435 0.266024
0.555756 0.784628 0.270217
0.597126 0.788877 0.274466
0.638999 0.793178 0.278767
0.681331 0.797526 0.283115
0.724086 0.801918 0.287507
0.767233 0.806350 0.291939
0.810745 0.810819 0.296409
0.854598 0.815324 0.300913
0.889914 0.818952 0.304541
0.889914 0.818952 0.304541
0.889914 0.818952 0.304541
0.889914 0.818952 0.304541
0.374857 0.821267 0.265816
0.412468 0.825130 0.269679
0.451097 0.829098 0.273647
0.490565 0.833152 0.277701
0.530749 0.837280 0.281829
0.571561 0.841472 0.286021
0.612930 0.845721 0.290271
0.654803 0.850022 0.294572
0.697136 0.854370 0.298920
0.739891 0.858762 0.303312
0.783038 0.863194 0.307744
0.826549 0.867664 0.312213
0.870403 0.872168 0.316718
0.905719 0.875796 0.320345
0.905719 0.875796 0.320345
0.905719 0.875796 0.320345
0.905719 0.875796 0.320345
0.388884 0.871717 0.279843
0.426495 0.875580 0.283706
0.465123 0.879548 0.287674
0.504591 0.883602 0.291728
0.544776 0.887730 0.295856
0.585587 0.891922 0.300048
0.626957 0.896171 0.304297
0.668830 0.900472 0.308599
0.711163 0.904820 0.312947
0.753918 0.909212 0.317339
0.797064 0.913644 0.321771
0.840576 0.918114 0.326240
0.884430 0.922618 0.330745
0.919746 0.926246 0.334372
0.919746 0.926246 0.334372
0.919746 0.926246 0.334372
0.919746 0.926246 0.334372
0.388884 0.871717 0.279843
0.426495 0.875580 0.283706
0.465123 0.879548 0.287674
0.504591 0.883602 0.291728
0.544776 0.887730 0.295856
0.585587 0.891922 0.300048
0.626957 0.896171 0.304297
0.668830 0.900472 0.308599
0.711163 0.904820 0.312947
0.753918 0.909212 0.317339
0.797064 0.913644 0.321771
0.840576 0.918114 0.326240
0.884430 0.922618 0.330745
0.919746 0.926246 0.334372
0.919746 0.926246 0.334372
0.919746 0.926246 0.334372
0.919746 0.926246 0.334372
0.175156 0.101484 0.081205
0.212767 0.105347 0.085068
0.251396 0.109315 0.089036
0.290864 0.113369 0.093090
0.331048 0.117497 0.097218
0.371860 0.121689 0.101410
0.413229 0.125938 0.105659
0.455102 0.130239 0.109961
0.497435 0.134588 0.114309
0.540190 0.138979 0.118701
0.583337 0.143411 0.123132
0.626848 0.147881 0.127602
0.670702 0.152385 0.132107
0.706018 0.156013 0.135734
0.706018 0.156013 0.135734
0.706018 0.156013 0.135734
0.706018 0.156013 0.135734
0.186842 0.143515 0.092891
