luts/film_stocks/technicolor_3strip.cube
TITLE "Technicolor 3-Strip"
LUT_3D_SIZE 17
DOMAIN_MIN 0.0 0.0 0.0
DOMAIN_MAX 1.0 1.0 1.0
0.000000 0.000000 0.000000
0.117332 0.003520 0.000000
0.220389 0.006612 0.000000
0.317258 0.009518 0.000000
0.409582 0.012287 0.000000
0.498141 0.014944 0.000000
0.583402 0.017502 0.000000
0.665676 0.019970 0.000000
0.745188 0.022356 0.000000
0.822107 0.024663 0.000000
0.896568 0.026897 0.000000
0.968680 0.029060 0.000000
1.000000 0.030000 0.000000
1.000000 0.030000 0.000000
1.000000 0.030000 0.000000
1.000000 0.030000 0.000000
1.000000 0.030000 0.000000
0.000000 0.089581 0.001792
0.096941 0.085645 0.001655
0.199998 0.082725 0.001534
0.296867 0.079980 0.001421
0.389190 0.077364 0.001314
0.477750 0.074855 0.001210
0.563011 0.072439 0.001111
0.645285 0.070108 0.001015
0.724796 0.067855 0.000922
0.801715 0.065676 0.000832
0.876176 0.063566 0.000746
0.948289 0.061523 0.000661
1.000000 0.058999 0.000580
1.000000 0.055052 0.000501
1.000000 0.051228 0.000425
1.000000 0.047524 0.000350
1.000000 0.046659 0.000333
0.000000 0.171953 0.003439
0.078191 0.167454 0.003302
0.181247 0.164534 0.003182
0.278117 0.161789 0.003069
0.370440 0.159174 0.002961
0.459000 0.156664 0.002858
0.544261 0.154249 0.002758
0.626535 0.151917 0.002662
0.706046 0.149665 0.002570
0.782965 0.147485 0.002480
0.857426 0.145375 0.002393
0.929538 0.143332 0.002309
0.999392 0.141353 0.002227
1.000000 0.137424 0.002148
1.000000 0.133600 0.002072
1.000000 0.129896 0.001998
1.000000 0.129031 0.001981
0.000000 0.250999 0.005020
0.060197 0.245961 0.004883
0.163254 0.243041 0.004763
0.260123 0.240296 0.004650
0.352447 0.237680 0.004542
0.441006 0.235171 0.004439
0.526267 0.232755 0.004339
0.608541 0.230424 0.004243
0.688053 0.228171 0.004151
0.764972 0.225992 0.004061
0.839433 0.223882 0.003974
0.911545 0.221839 0.003890
0.981399 0.219860 0.003808
1.000000 0.216470 0.003729
1.000000 0.212646 0.003653
1.000000 0.208942 0.003579
1.000000 0.208078 0.003562
0.000000 0.327527 0.006551
0.042777 0.321966 0.006414
0.145834 0.319046 0.006293
0.242703 0.316302 0.006180
0.335027 0.313686 0.006073
0.423586 0.311176 0.005969
0.508847 0.308761 0.005870
0.591121 0.306430 0.005774
0.670633 0.304177 0.005681
0.747552 0.301997 0.005591
0.822013 0.299888 0.005505
0.894125 0.297844 0.005420
0.963979 0.295865 0.005339
1.000000 0.292998 0.005260
1.000000 0.289174 0.005183
1.000000 0.285470 0.005109
1.000000 0.284606 0.005092
0.000000 0.401923 0.008038
0.025843 0.395854 0.007902
0.128899 0.392934 0.007781
0.225769 0.390189 0.007668
0.318092 0.387573 0.007561
0.406652 0.385064 0.007457
0.491913 0.382648 0.007358
0.574187 0.380317 0.007262
0.653698 0.378064 0.007169
0.730617 0.375885 0.007079
0.805078 0.373775 0.006992
0.877190 0.371732 0.006908
0.947044 0.369753 0.006827
1.000000 0.367394 0.006748
1.000000 0.363570 0.006671
1.000000 0.359866 0.006597
1.000000 0.359001 0.006580
0.000000 0.474416 0.009488
0.009341 0.467852 0.009351
0.112398 0.464932 0.009231
0.209267 0.462187 0.009118
0.301590 0.459572 0.009010
0.390150 0.457062 0.008907
0.475411 0.454647 0.008808
0.557685 0.452315 0.008712
0.637196 0.450063 0.008619
0.714115 0.447883 0.008529
0.788576 0.445773 0.008442
0.860689 0.443730 0.008358
0.930542 0.441751 0.008277
0.998214 0.439834 0.008198
1.000000 0.436063 0.008121
1.000000 0.432359 0.008047
1.000000 0.431495 0.008030
0.000000 0.545161 0.010903
0.000000 0.538317 0.010766
0.096294 0.535194 0.010646
0.193163 0.532449 0.010533
0.285487 0.529833 0.010425
0.374046 0.527324 0.010322
0.459307 0.524908 0.010223
0.541581 0.522577 0.010127
0.621093 0.520324 0.010034
0.698012 0.518145 0.009944
0.772473 0.516035 0.009857
0.844585 0.513992 0.009773
0.914439 0.512013 0.009692
0.982110 0.510095 0.009613
1.000000 0.506808 0.009536
1.000000 0.503104 0.009462
1.000000 0.502240 0.009445
0.000000 0.614269 0.012285
0.000000 0.607425 0.012148
0.080563 0.603830 0.012028
0.177432 0.601085 0.011915
0.269756 0.598469 0.011808
0.358315 0.595960 0.011704
0.443576 0.593544 0.011605
0.525850 0.591213 0.011509
0.605362 0.588960 0.011416
0.682281 0.586781 0.011326
0.756742 0.584671 0.011239
0.828854 0.582628 0.011155
0.898708 0.580649 0.011074
0.966379 0.578731 0.010995
1.000000 0.575916 0.010918
1.000000 0.572212 0.010844
1.000000 0.571347 0.010827
0.000000 0.681824 0.013636
0.000000 0.674980 0.013500
0.065186 0.670923 0.013379
0.162055 0.668179 0.013266
0.254378 0.665563 0.013159
0.342938 0.663054 0.013055
0.428199 0.660638 0.012956
0.510473 0.658307 0.012860
0.589984 0.656054 0.012767
0.666903 0.653874 0.012677
0.741364 0.651765 0.012590
0.813476 0.649721 0.012506
0.883330 0.647742 0.012425
0.951002 0.645825 0.012346
1.000000 0.643471 0.012269
1.000000 0.639767 0.012195
1.000000 0.638902 0.012178
0.000000 0.747892 0.014958
0.000000 0.741048 0.014821
0.050146 0.736541 0.014701
0.147016 0.733796 0.014588
0.239339 0.731180 0.014480
0.327899 0.728671 0.014377
0.413160 0.726255 0.014277
0.495434 0.723924 0.014181
0.574945 0.721671 0.014088
0.651864 0.719492 0.013999
0.726325 0.717382 0.013912
0.798437 0.715339 0.013828
0.868291 0.713359 0.013746
0.935963 0.711442 0.013667
1.000000 0.709539 0.013591
1.000000 0.705835 0.013517
1.000000 0.704970 0.013499
0.000000 0.812528 0.016251
0.000000 0.805683 0.016114
0.035433 0.800735 0.015993
0.132303 0.797990 0.015880
0.224626 0.795374 0.015773
0.313186 0.792865 0.015669
0.398447 0.790449 0.015570
0.480721 0.788118 0.015474
0.560232 0.785865 0.015381
0.637151 0.783686 0.015291
0.711612 0.781576 0.015205
0.783724 0.779533 0.015120
0.853578 0.777554 0.015039
0.921250 0.775636 0.014960
0.986805 0.773779 0.014883
1.000000 0.770471 0.014809
1.000000 0.769606 0.014792
0.000000 0.875776 0.017516
0.000000 0.868931 0.017379
0.021036 0.863550 0.017258
0.117906 0.860806 0.017145
0.210229 0.858190 0.017038
0.298789 0.855681 0.016934
0.384050 0.853265 0.016835
0.466324 0.850934 0.016739
0.545835 0.848681 0.016646
0.622754 0.846502 0.016556
0.697215 0.844392 0.016470
0.769327 0.842349 0.016385
0.839181 0.840369 0.016304
0.906853 0.838452 0.016225
0.972408 0.836595 0.016148
1.000000 0.833718 0.016074
1.000000 0.832854 0.016057
0.000000 0.937673 0.018753
0.000000 0.930829 0.018617
0.006947 0.925025 0.018496
0.103816 0.922281 0.018383
0.196139 0.919665 0.018276
0.284699 0.917155 0.018172
0.369960 0.914740 0.018073
0.452234 0.912409 0.017977
0.531745 0.910156 0.017884
0.608664 0.907976 0.017794
0.683125 0.905867 0.017707
0.755238 0.903823 0.017623
0.825091 0.901844 0.017542
0.892763 0.899927 0.017463
0.958319 0.898069 0.017386
1.000000 0.895616 0.017312
1.000000 0.894751 0.017295
0.000000 0.998253 0.019965
0.000000 0.991408 0.019828
0.000000 0.985397 0.019708
0.090026 0.982447 0.019595
0.182350 0.979831 0.019487
0.270909 0.977321 0.019384
0.356170 0.974906 0.019284
0.438444 0.972575 0.019188
0.517956 0.970322 0.019096
0.594875 0.968142 0.019006
0.669336 0.966033 0.018919
0.741448 0.963989 0.018835
0.811301 0.962010 0.018753
0.878973 0.960093 0.018674
0.944529 0.958235 0.018598
1.000000 0.956195 0.018524
1.000000 0.955331 0.018507
0.000000 1.000000 0.020000
0.000000 1.000000 0.020000
0.000000 1.000000 0.020000
0.076530 1.000000 0.020000
0.168853 1.000000 0.020000
0.257413 1.000000 0.020000
0.342674 1.000000 0.020000
0.424948 1.000000 0.020000
0.504459 1.000000 0.020000
0.581378 1.000000 0.020000
0.655839 1.000000 0.020000
0.727952 1.000000 0.020000
0.797805 1.000000 0.019939
0.865477 1.000000 0.019860
0.931033 1.000000 0.019784
0.994529 1.000000 0.019710
1.000000 1.000000 0.019692
0.000000 1.000000 0.020000
0.000000 1.000000 0.020000
0.000000 1.000000 0.020000
0.069442 1.000000 0.020000
0.161765 1.000000 0.020000
0.250325 1.000000 0.020000
0.335586 1.000000 0.020000
0.417860 1.000000 0.020000
0.497371 1.000000 0.020000
0.574290 1.000000 0.020000
0.648751 1.000000 0.020000
0.720863 1.000000 0.020000
0.790717 1.000000 0.020000
0.858388 1.000000 0.020000
0.923944 1.000000 0.020000
0.987441 1.000000 0.020000
1.000000 1.000000 0.020000
0.000000 0.000000 0.095786
0.115505 0.003465 0.088942
0.218562 0.006557 0.082930
0.315431 0.009463 0.077279
0.407755 0.012233 0.071894
0.496314 0.014889 0.066728
0.581575 0.017447 0.061754
0.663849 0.019915 0.056955
0.743360 0.022301 0.052317
0.820280 0.024608 0.047830
0.894741 0.026842 0.043486
0.966853 0.029006 0.039279
1.000000 0.030000 0.035205
1.000000 0.030000 0.031257
1.000000 0.030000 0.027433
1.000000 0.030000 0.023729
1.000000 0.030000 0.022864
0.000000 0.087754 0.077150
0.095114 0.083763 0.070169
0.198171 0.080843 0.064037
0.295040 0.078098 0.058273
0.387363 0.075482 0.052780
0.475923 0.072973 0.047510
0.561184 0.070557 0.042437
0.643458 0.068226 0.037542
0.722969 0.065973 0.032811
0.799888 0.063794 0.028234
0.874349 0.061684 0.023804
0.946461 0.059641 0.019513
1.000000 0.057172 0.015357
1.000000 0.053225 0.011330
1.000000 0.049401 0.007430
1.000000 0.045696 0.003652
1.000000 0.044832 0.002770
0.000000 0.170126 0.060047
0.076364 0.165572 0.053066
0.179420 0.162652 0.046934
0.276290 0.159907 0.041170
0.368613 0.157292 0.035677
0.457173 0.154782 0.030407
0.542434 0.152367 0.025334
0.624708 0.150035 0.020439
0.704219 0.147783 0.015708
0.781138 0.145603 0.011131
0.855599 0.143493 0.006701
0.927711 0.141450 0.002410
0.997565 0.139471 0.002191
1.000000 0.135596 0.002112
1.000000 0.131772 0.002035
1.000000 0.128068 0.001961
1.000000 0.127204 0.001944
0.000000 0.249172 0.043635
0.058370 0.244079 0.036653
0.161427 0.241159 0.030521
0.258296 0.238414 0.024758
0.350620 0.235798 0.019264
0.439179 0.233289 0.013995
0.524440 0.230873 0.008922
0.606714 0.228542 0.004207
0.686226 0.226289 0.004114
0.763145 0.224110 0.004024
0.837606 0.222000 0.003937
0.909718 0.219957 0.003853
0.979571 0.217978 0.003772
1.000000 0.214643 0.003693
1.000000 0.210819 0.003616
1.000000 0.207115 0.003542
1.000000 0.206250 0.003525
0.000000 0.325700 0.027745
0.040950 0.320084 0.020764
0.144007 0.317164 0.014632
0.240876 0.314420 0.008868
0.333200 0.311804 0.006036
0.421759 0.309294 0.005933
0.507020 0.306879 0.005833
0.589294 0.304548 0.005737
0.668805 0.302295 0.005645
0.745725 0.300115 0.005555
0.820186 0.298006 0.005468
0.892298 0.295962 0.005384
0.962151 0.293983 0.005302
1.000000 0.291171 0.005223
1.000000 0.287347 0.005147
1.000000 0.283643 0.005073
1.000000 0.282778 0.005056
0.000000 0.400096 0.012298
0.024015 0.393972 0.007865
0.127072 0.391052 0.007745
0.223942 0.388307 0.007632
0.316265 0.385691 0.007524
0.404824 0.383182 0.007421
0.490086 0.380766 0.007321
0.572360 0.378435 0.007225
0.651871 0.376182 0.007133
0.728790 0.374003 0.007043
0.803251 0.371893 0.006956
0.875363 0.369850 0.006872
0.945217 0.367871 0.006790
1.000000 0.365567 0.006711
1.000000 0.361743 0.006635
1.000000 0.358039 0.006561
1.000000 0.357174 0.006543
0.000000 0.472589 0.009452
0.007514 0.465970 0.009315
0.110571 0.463050 0.009195
0.207440 0.460305 0.009082
0.299763 0.457690 0.008974
0.388323 0.455180 0.008871
0.473584 0.452765 0.008771
0.555858 0.450433 0.008675
0.635369 0.448181 0.008582
0.712288 0.446001 0.008493
0.786749 0.443891 0.008406
0.858861 0.441848 0.008322
0.928715 0.439869 0.008240
0.996387 0.437952 0.008161
1.000000 0.434236 0.008085
1.000000 0.430532 0.008011
1.000000 0.429667 0.007993
0.000000 0.543334 0.010867
0.000000 0.536490 0.010730
0.094467 0.533312 0.010610
0.191336 0.530567 0.010497
0.283660 0.527951 0.010389
0.372219 0.525442 0.010286
0.457480 0.523026 0.010186
0.539754 0.520695 0.010090
0.619266 0.518442 0.009997
0.696185 0.516263 0.009908
0.770646 0.514153 0.009821
0.842758 0.512110 0.009737
0.912611 0.510131 0.009655
0.980283 0.508213 0.009576
1.000000 0.504981 0.009500
1.000000 0.501277 0.009426
1.000000 0.500412 0.009408
0.000000 0.612442 0.012249
0.000000 0.605597 0.012112
0.078736 0.601948 0.011992
0.175605 0.599203 0.011879
0.267929 0.596587 0.011771
0.356488 0.594078 0.011668
0.441749 0.591662 0.011568
0.524023 0.589331 0.011472
0.603535 0.587078 0.011379
0.680454 0.584899 0.011290
0.754915 0.582789 0.011203
0.827027 0.580746 0.011119
0.896880 0.578767 0.011037
0.964552 0.576849 0.010958
1.000000 0.574089 0.010882
1.000000 0.570385 0.010808
1.000000 0.569520 0.010790
0.000000 0.679997 0.013600
0.000000 0.673152 0.013463
0.063358 0.669041 0.013343
0.160228 0.666297 0.013230
0.252551 0.663681 0.013122
0.341111 0.661172 0.013019
0.426372 0.658756 0.012919
0.508646 0.656425 0.012823
0.588157 0.654172 0.012731
0.665076 0.651992 0.012641
0.739537 0.649883 0.012554
0.811649 0.647839 0.012470
0.881503 0.645860 0.012388
0.949175 0.643943 0.012309
1.000000 0.641644 0.012233
1.000000 0.637940 0.012159
1.000000 0.637075 0.012141
0.000000 0.746065 0.014921
0.000000 0.739221 0.014784
0.048319 0.734659 0.014664
0.145189 0.731914 0.014551
0.237512 0.729298 0.014443
0.326072 0.726789 0.014340
0.411333 0.724373 0.014241
0.493607 0.722042 0.014145
0.573118 0.719789 0.014052
0.650037 0.717610 0.013962
0.724498 0.715500 0.013875
0.796610 0.713457 0.013791
0.866464 0.711477 0.013710
0.934136 0.709560 0.013631
0.999691 0.707703 0.013554
1.000000 0.704008 0.013480
1.000000 0.703143 0.013463
0.000000 0.810701 0.016214
0.000000 0.803856 0.016077
0.033606 0.798853 0.015957
0.130476 0.796108 0.015844
0.222799 0.793492 0.015736
0.311359 0.790983 0.015633
0.396620 0.788567 0.015533
0.478894 0.786236 0.015437
0.558405 0.783983 0.015345
0.635324 0.781804 0.015255
0.709785 0.779694 0.015168
0.781897 0.777651 0.015084
0.851751 0.775672 0.015002
0.919423 0.773754 0.014923
0.984978 0.771897 0.014847
1.000000 0.768643 0.014773
1.000000 0.767779 0.014756
0.000000 0.873948 0.017479
0.000000 0.867104 0.017342
0.019209 0.861668 0.017222
0.116079 0.858924 0.017109
0.208402 0.856308 0.017001
0.296962 0.853799 0.016898
0.382223 0.851383 0.016798
0.464497 0.849052 0.016702
0.544008 0.846799 0.016610
0.620927 0.844620 0.016520
0.695388 0.842510 0.016433
0.767500 0.840467 0.016349
0.837354 0.838487 0.016267
0.905025 0.836570 0.016188
0.970581 0.834713 0.016112
1.000000 0.831891 0.016038
1.000000 0.831027 0.016021
0.000000 0.935846 0.018717
0.000000 0.929001 0.018580
0.005120 0.923143 0.018460
0.101989 0.920399 0.018347
0.194312 0.917783 0.018239
0.282872 0.915273 0.018136
0.368133 0.912858 0.018036
0.450407 0.910527 0.017940
0.529918 0.908274 0.017848
0.606837 0.906094 0.017758
0.681298 0.903985 0.017671
0.753410 0.901941 0.017587
0.823264 0.899962 0.017505
0.890936 0.898045 0.017426
0.956491 0.896187 0.017350
1.000000 0.893789 0.017276
1.000000 0.892924 0.017258
0.000000 0.996426 0.019929
0.000000 0.989581 0.019792
0.000000 0.983569 0.019671
0.088199 0.980565 0.019558
0.180522 0.977949 0.019451
0.269082 0.975439 0.019347
0.354343 0.973024 0.019248
0.436617 0.970693 0.019152
0.516128 0.968440 0.019059
0.593047 0.966260 0.018969
0.667508 0.964151 0.018883
0.739621 0.962107 0.018798
0.809474 0.960128 0.018717
0.877146 0.958211 0.018638
0.942702 0.956353 0.018561
1.000000 0.954368 0.018487
1.000000 0.953504 0.018470
0.000000 1.000000 0.020000
0.000000 1.000000 0.020000
0.000000 1.000000 0.020000
0.074703 1.000000 0.020000
0.167026 1.000000 0.020000
0.255586 1.000000 0.020000
0.340847 1.000000 0.020000
0.423121 1.000000 0.020000
0.502632 1.000000 0.020000
0.579551 1.000000 0.020000
0.654012 1.000000 0.020000
0.726124 1.000000 0.019984
0.795978 1.000000 0.019903
0.863650 1.000000 0.019824
0.929205 1.000000 0.019747
0.992702 1.000000 0.019673
1.000000 1.000000 0.019656
0.000000 1.000000 0.020000
0.000000 1.000000 0.020000
0.000000 1.000000 0.020000
0.067614 1.000000 0.020000
0.159938 1.000000 0.020000
0.248497 1.000000 0.020000
0.333758 1.000000 0.020000
0.416032 1.000000 0.020000
0.495544 1.000000 0.020000
0.572463 1.000000 0.020000
0.646924 1.000000 0.020000
0.719036 1.000000 0.020000
0.788890 1.000000 0.020000
0.856561 1.000000 0.020000
0.922117 1.000000 0.020000
0.985614 1.000000 0.020000
1.000000 1.000000 0.020000
0.000000 0.000000 0.188065
0.113745 0.003412 0.181221
0.216802 0.006504 0.175209
0.313671 0.009410 0.169558
0.405994 0.012180 0.164173
0.494554 0.014837 0.159007
0.579815 0.017394 0.154033
0.662089 0.019863 0.149234
0.741600 0.022248 0.144596
0.818519 0.024556 0.140109
0.892980 0.026789 0.135765
0.965092 0.028953 0.131558
1.000000 0.030000 0.127484
1.000000 0.030000 0.123536
1.000000 0.030000 0.119712
1.000000 0.030000 0.116008
1.000000 0.030000 0.115143
0.000000 0.085993 0.169394
0.093354 0.081950 0.162412
0.196410 0.079030 0.156281
0.293280 0.076285 0.150517
0.385603 0.073669 0.145023
0.474163 0.071160 0.139754
0.559424 0.068744 0.134681
0.641698 0.066413 0.129786
0.721209 0.064160 0.125055
0.798128 0.061981 0.120478
0.872589 0.059871 0.116048
0.944701 0.057828 0.111757
1.000000 0.055412 0.107601
1.000000 0.051464 0.103574
1.000000 0.047640 0.099673
1.000000 0.043936 0.095895
1.000000 0.043072 0.095014
0.000000 0.168365 0.152291
0.074603 0.163759 0.145310
0.177660 0.160839 0.139178
0.274529 0.158094 0.133414
0.366853 0.155478 0.127921
0.455412 0.152969 0.122651
0.540673 0.150553 0.117578
0.622947 0.148222 0.112683
0.702459 0.145970 0.107952
0.779378 0.143790 0.103375
0.853839 0.141680 0.098945
0.925951 0.139637 0.094654
0.995804 0.137658 0.090498
1.000000 0.133836 0.086471
1.000000 0.130012 0.082571
1.000000 0.126308 0.078793
1.000000 0.125444 0.077911
0.000000 0.247412 0.135879
0.056610 0.242266 0.128897
0.159667 0.239346 0.122765
0.256536 0.236601 0.117001
0.348859 0.233985 0.111508
0.437419 0.231476 0.106239
0.522680 0.229060 0.101166
0.604954 0.226729 0.096270
0.684465 0.224476 0.091539
0.761384 0.222297 0.086963
0.835845 0.220187 0.082532
0.907957 0.218144 0.078242
0.977811 0.216165 0.074085
1.000000 0.212883 0.070059
1.000000 0.209059 0.066158
1.000000 0.205355 0.062380
1.000000 0.204490 0.061498
0.000000 0.323940 0.119989
0.039190 0.318271 0.113008
0.142247 0.315351 0.106876
0.239116 0.312607 0.101112
0.331439 0.309991 0.095619
0.419999 0.307481 0.090349
0.505260 0.305066 0.085276
0.587534 0.302735 0.080381
0.667045 0.300482 0.075650
0.743964 0.298302 0.071073
0.818425 0.296192 0.066643
0.890537 0.294149 0.062352
0.960391 0.292170 0.058196
1.000000 0.289411 0.054169
1.000000 0.285587 0.050269
1.000000 0.281883 0.046491
1.000000 0.281018 0.045609
0.000000 0.398336 0.104542
0.022255 0.392159 0.097561
0.125312 0.389239 0.091429
0.222181 0.386494 0.085665
0.314505 0.383878 0.080172
0.403064 0.381369 0.074903
0.488325 0.378953 0.069830
0.570599 0.376622 0.064934
0.650111 0.374369 0.060203
0.727030 0.372190 0.055627
0.801491 0.370080 0.051196
0.873603 0.368037 0.046905
0.943456 0.366058 0.042749
1.000000 0.363806 0.038723
1.000000 0.359982 0.034822
1.000000 0.356278 0.031044
1.000000 0.355414 0.030162
0.000000 0.470829 0.089490
0.005754 0.464157 0.082509
0.108810 0.461237 0.076377
0.205680 0.458492 0.070613
0.298003 0.455876 0.065120
0.386563 0.453367 0.059851
0.471824 0.450951 0.054778
0.554098 0.448620 0.049882
0.633609 0.446368 0.045151
0.710528 0.444188 0.040575
0.784989 0.442078 0.036144
0.857101 0.440035 0.031854
0.926955 0.438056 0.027697
0.994627 0.436139 0.023671
1.000000 0.432476 0.019770
1.000000 0.428772 0.015992
1.000000 0.427907 0.015110
0.000000 0.541574 0.074802
0.000000 0.534729 0.067820
0.092707 0.531499 0.061688
0.189576 0.528754 0.055925
0.281899 0.526138 0.050431
0.370459 0.523629 0.045162
0.455720 0.521213 0.040089
0.537994 0.518882 0.035194
0.617505 0.516629 0.030463
0.694424 0.514450 0.025886
0.768885 0.512340 0.021456
0.840997 0.510297 0.017165
0.910851 0.508318 0.013008
0.978523 0.506400 0.009541
1.000000 0.503221 0.009464
1.000000 0.499517 0.009390
1.000000 0.498652 0.009373
0.000000 0.610682 0.060453
0.000000 0.603837 0.053472
0.076976 0.600135 0.047340
0.173845 0.597390 0.041576
0.266168 0.594774 0.036083
0.354728 0.592265 0.030813
0.439989 0.589849 0.025740
0.522263 0.587518 0.020845
0.601774 0.585265 0.016114
0.678693 0.583086 0.011537
0.753154 0.580976 0.011168
0.825266 0.578933 0.011083
0.895120 0.576954 0.011002
0.962792 0.575036 0.010923
1.000000 0.572328 0.010847
1.000000 0.568624 0.010772
1.000000 0.567760 0.010755
0.000000 0.678236 0.046426
0.000000 0.671392 0.039445
0.061598 0.667228 0.033313
0.158467 0.664484 0.027549
0.250791 0.661868 0.022056
0.339350 0.659359 0.016787
0.424611 0.656943 0.012884
0.506885 0.654612 0.012788
0.586397 0.652359 0.012695
0.663316 0.650179 0.012606
0.737777 0.648070 0.012519
0.809889 0.646026 0.012435
0.879743 0.644047 0.012353
0.947414 0.642130 0.012274
1.000000 0.639883 0.012198
1.000000 0.636179 0.012124
1.000000 0.635315 0.012106
0.000000 0.744305 0.032709
0.000000 0.737460 0.025727
0.046559 0.732845 0.019595
0.143428 0.730101 0.014516
0.235752 0.727485 0.014408
0.324311 0.724976 0.014305
0.409572 0.722560 0.014205
0.491846 0.720229 0.014109
0.571358 0.717976 0.014017
0.648277 0.715796 0.013927
0.722738 0.713687 0.013840
0.794850 0.711644 0.013756
0.864703 0.709664 0.013674
0.932375 0.707747 0.013596
0.997931 0.705889 0.013519
1.000000 0.702248 0.013445
1.000000 0.701383 0.013428
0.000000 0.808940 0.019288
0.000000 0.802096 0.016042
0.031846 0.797040 0.015922
0.128715 0.794295 0.015809
0.221039 0.791679 0.015701
0.309598 0.789170 0.015598
0.394859 0.786754 0.015498
0.477133 0.784423 0.015402
0.556645 0.782170 0.015309
0.633564 0.779991 0.015220
0.708025 0.777881 0.015133
0.780137 0.775838 0.015049
0.849990 0.773859 0.014967
0.917662 0.771941 0.014888
0.983218 0.770084 0.014812
1.000000 0.766883 0.014738
1.000000 0.766019 0.014720
0.000000 0.872188 0.017444
0.000000 0.865344 0.017307
0.017449 0.859855 0.017187
0.114318 0.857111 0.017074
0.206642 0.854495 0.016966
0.295201 0.851986 0.016863
0.380462 0.849570 0.016763
0.462736 0.847239 0.016667
0.542248 0.844986 0.016574
0.619167 0.842806 0.016485
0.693628 0.840697 0.016398
0.765740 0.838653 0.016314
0.835593 0.836674 0.016232
0.903265 0.834757 0.016153
0.968821 0.832899 0.016077
1.000000 0.830131 0.016003
1.000000 0.829266 0.015985
0.000000 0.934086 0.018682
0.000000 0.927241 0.018545
0.003359 0.921330 0.018425
0.100229 0.918585 0.018312
0.192552 0.915970 0.018204
0.281112 0.913460 0.018101
0.366373 0.911045 0.018001
0.448647 0.908713 0.017905
0.528158 0.906461 0.017812
0.605077 0.904281 0.017723
0.679538 0.902171 0.017636
0.751650 0.900128 0.017552
0.821504 0.898149 0.017470
0.889175 0.896232 0.017391
0.954731 0.894374 0.017315
1.000000 0.892028 0.017241
1.000000 0.891164 0.017223
0.000000 0.994665 0.019893
0.000000 0.987821 0.019756
0.000000 0.981809 0.019636
0.086439 0.978752 0.019523
0.178762 0.976136 0.019415
0.267322 0.973626 0.019312
0.352583 0.971211 0.019213
0.434857 0.968880 0.019117
0.514368 0.966627 0.019024
0.591287 0.964447 0.018934
0.665748 0.962337 0.018847
0.737860 0.960294 0.018763
0.807714 0.958315 0.018682
0.875386 0.956398 0.018603
0.940941 0.954540 0.018526
1.000000 0.952608 0.018452
1.000000 0.951743 0.018435
0.000000 1.000000 0.020000
0.000000 1.000000 0.020000
0.000000 1.000000 0.020000
0.072943 1.000000 0.020000
0.165266 1.000000 0.020000
0.253826 1.000000 0.020000
0.339087 1.000000 0.020000
0.421361 1.000000 0.020000
0.500872 1.000000 0.020000
0.577791 1.000000 0.020000
0.652252 1.000000 0.020000
0.724364 1.000000 0.019949
0.794218 1.000000 0.019867
0.861890 1.000000 0.019789
0.927445 1.000000 0.019712
0.990942 1.000000 0.019638
1.000000 1.000000 0.019621
0.000000 1.000000 0.020000
0.000000 1.000000 0.020000
0.000000 1.000000 0.020000
0.065854 1.000000 0.020000
0.158177 1.000000 0.020000
0.246737 1.000000 0.020000
0.331998 1.000000 0.020000
0.414272 1.000000 0.020000
0.493783 1.000000 0.020000
0.570702 1.000000 0.020000
0.645164 1.000000 0.020000
0.717276 1.000000 0.020000
0.787129 1.000000 0.020000
0.854801 1.000000 0.020000
0.920357 1.000000 0.020000
0.983853 1.000000 0.020000
0.998674 1.000000 0.020000
0.000000 0.000000 0.278507
0.112020 0.003361 0.271663
0.215076 0.006452 0.265651
0.311946 0.009358 0.260000
0.404269 0.012128 0.254615
0.492829 0.014785 0.249449
0.578090 0.017343 0.244475
0.660364 0.019811 0.239676
0.739875 0.022196 0.235038
0.816794 0.024504 0.230551
0.891255 0.026738 0.226207
0.963367 0.028901 0.222000
1.000000 0.030000 0.217926
1.000000 0.030000 0.213978
1.000000 0.030000 0.210154
1.000000 0.030000 0.206450
1.000000 0.030000 0.205585
0.000000 0.084268 0.259801
