luts/film_stocks/technicolor_3strip.cube
TITLE "Technicolor 3-Strip"
LUT_3D_SIZE 5
DOMAIN_MIN 0.0 0.0 0.0
DOMAIN_MAX 1.0 1.0 1.0
0.000000 0.000000 0.000000
0.409582 0.012287 0.000000
0.745188 0.022356 0.000000
1.000000 0.030000 0.000000
1.000000 0.030000 0.000000
0.000000 0.327527 0.006551
0.335027 0.313686 0.006073
0.670633 0.304177 0.005681
0.963979 0.295865 0.005339
1.000000 0.284606 0.005092
0.000000 0.614269 0.012285
0.269756 0.598469 0.011808
0.605362 0.588960 0.011416
0.898708 0.580649 0.011074
1.000000 0.571347 0.010827
0.000000 0.875776 0.017516
0.210229 0.858190 0.017038
0.545835 0.848681 0.016646
0.839181 0.840369 0.016304
1.000000 0.832854 0.016057
0.000000 1.000000 0.020000
0.161765 1.000000 0.020000
0.497371 1.000000 0.020000
0.790717 1.000000 0.020000
1.000000 1.000000 0.020000
0.000000 0.000000 0.367467
0.402572 0.012077 0.343575
0.738178 0.022145 0.323998
1.000000 0.030000 0.306886
1.000000 0.030000 0.294546
0.000000 0.320518 0.299323
0.328017 0.306466 0.274952
0.663623 0.296957 0.254984
0.956969 0.288645 0.237530
1.000000 0.277596 0.224943
0.000000 0.607259 0.239787
0.262746 0.591249 0.215416
0.598352 0.581740 0.195448
0.891698 0.573429 0.177993
1.000000 0.564338 0.165406
0.000000 0.868766 0.185490
0.203219 0.850970 0.161120
0.538825 0.841461 0.141151
0.832171 0.833149 0.123697
1.000000 0.825844 0.111110
0.000000 1.000000 0.139651
0.154755 1.000000 0.115758
0.490361 1.000000 0.096181
0.783707 1.000000 0.079069
0.995252 1.000000 0.066729
0.000000 0.000000 0.711056
0.396018 0.011881 0.687164
0.731624 0.021949 0.667587
1.000000 0.030000 0.650475
1.000000 0.030000 0.638134
0.000000 0.313964 0.642780
0.321463 0.299715 0.618410
0.657069 0.290206 0.598441
0.950415 0.281894 0.580987
1.000000 0.271042 0.568400
0.000000 0.600705 0.583244
0.256192 0.584499 0.558874
0.591798 0.574990 0.538905
0.885144 0.566678 0.521451
1.000000 0.557783 0.508864
0.000000 0.862212 0.528948
0.196665 0.844219 0.504577
0.532271 0.834710 0.484609
0.825617 0.826399 0.467155
1.000000 0.819290 0.454568
0.000000 1.000000 0.483239
0.148201 1.000000 0.459347
0.483807 1.000000 0.439770
0.777153 1.000000 0.422658
0.988698 1.000000 0.410318
0.000000 0.000000 1.000000
0.389789 0.011694 1.000000
0.725395 0.021762 0.994110
1.000000 0.030000 0.976998
1.000000 0.030000 0.964658
0.000000 0.307735 0.969179
0.315234 0.293300 0.944809
0.650840 0.283791 0.924840
0.944186 0.275479 0.907386
1.000000 0.264813 0.894799
0.000000 0.594477 0.909643
0.249963 0.578083 0.885273
0.585569 0.568574 0.865304
0.878915 0.560263 0.847850
1.000000 0.551555 0.835263
0.000000 0.855983 0.855347
0.190437 0.837804 0.830976
0.526043 0.828295 0.811008
0.819388 0.819983 0.793554
1.000000 0.813061 0.780967
0.000000 1.000000 0.809763
0.141973 1.000000 0.785870
0.477578 1.000000 0.766293
0.770924 1.000000 0.749181
0.982469 1.000000 0.736761
0.000000 0.000000 1.000000
0.384312 0.011529 1.000000
0.719918 0.021598 1.000000
1.000000 0.030000 1.000000
1.000000 0.030000 1.000000
0.000000 0.302257 1.000000
0.309757 0.287658 1.000000
0.645363 0.278149 1.000000
0.938709 0.269837 1.000000
1.000000 0.259336 1.000000
0.000000 0.588999 1.000000
0.244486 0.572441 1.000000
0.580092 0.562932 1.000000
0.873438 0.554621 1.000000
1.000000 0.546077 1.000000
0.000000 0.850506 1.000000
0.184959 0.832162 1.000000
0.520565 0.822653 1.000000
0.813911 0.814341 1.000000
1.000000 0.807584 1.000000
0.000000 1.000000 1.000000
0.136495 1.000000 1.000000
0.472101 1.000000 1.000000
0.765447 1.000000 1.000000
0.976991 1.000000 1.000000
