luts/film_stocks/technicolor_3strip.cube
TITLE "Technicolor 3-Strip"
LUT_3D_SIZE 9
DOMAIN_MIN 0.0 0.0 0.0
DOMAIN_MAX 1.0 1.0 1.0
0.000000 0.000000 0.000000
0.220389 0.006612 0.000000
0.409582 0.012287 0.000000
0.583402 0.017502 0.000000
0.745188 0.022356 0.000000
0.896568 0.026897 0.000000
1.000000 0.030000 0.000000
1.000000 0.030000 0.000000
1.000000 0.030000 0.000000
0.000000 0.171953 0.003439
0.181247 0.164534 0.003182
0.370440 0.159174 0.002961
0.544261 0.154249 0.002758
0.706046 0.149665 0.002570
0.857426 0.145375 0.002393
0.999392 0.141353 0.002227
1.000000 0.133600 0.002072
1.000000 0.129031 0.001981
0.000000 0.327527 0.006551
0.145834 0.319046 0.006293
0.335027 0.313686 0.006073
0.508847 0.308761 0.005870
0.670633 0.304177 0.005681
0.822013 0.299888 0.005505
0.963979 0.295865 0.005339
1.000000 0.289174 0.005183
1.000000 0.284606 0.005092
0.000000 0.474416 0.009488
0.112398 0.464932 0.009231
0.301590 0.459572 0.009010
0.475411 0.454647 0.008808
0.637196 0.450063 0.008619
0.788576 0.445773 0.008442
0.930542 0.441751 0.008277
1.000000 0.436063 0.008121
1.000000 0.431495 0.008030
0.000000 0.614269 0.012285
0.080563 0.603830 0.012028
0.269756 0.598469 0.011808
0.443576 0.593544 0.011605
0.605362 0.588960 0.011416
0.756742 0.584671 0.011239
0.898708 0.580649 0.011074
1.000000 0.575916 0.010918
1.000000 0.571347 0.010827
0.000000 0.747892 0.014958
0.050146 0.736541 0.014701
0.239339 0.731180 0.014480
0.413160 0.726255 0.014277
0.574945 0.721671 0.014088
0.726325 0.717382 0.013912
0.868291 0.713359 0.013746
1.000000 0.709539 0.013591
1.000000 0.704970 0.013499
0.000000 0.875776 0.017516
0.021036 0.863550 0.017258
0.210229 0.858190 0.017038
0.384050 0.853265 0.016835
0.545835 0.848681 0.016646
0.697215 0.844392 0.016470
0.839181 0.840369 0.016304
0.972408 0.836595 0.016148
1.000000 0.832854 0.016057
0.000000 0.998253 0.019965
0.000000 0.985397 0.019708
0.182350 0.979831 0.019487
0.356170 0.974906 0.019284
0.517956 0.970322 0.019096
0.669336 0.966033 0.018919
0.811301 0.962010 0.018753
0.944529 0.958235 0.018598
1.000000 0.955331 0.018507
0.000000 1.000000 0.020000
0.000000 1.000000 0.020000
0.161765 1.000000 0.020000
0.335586 1.000000 0.020000
0.497371 1.000000 0.020000
0.648751 1.000000 0.020000
0.790717 1.000000 0.020000
0.923944 1.000000 0.020000
1.000000 1.000000 0.020000
0.000000 0.000000 0.188065
0.216802 0.006504 0.175209
0.405994 0.012180 0.164173
0.579815 0.017394 0.154033
0.741600 0.022248 0.144596
0.892980 0.026789 0.135765
1.000000 0.030000 0.127484
1.000000 0.030000 0.119712
1.000000 0.030000 0.115143
0.000000 0.168365 0.152291
0.177660 0.160839 0.139178
0.366853 0.155478 0.127921
0.540673 0.150553 0.117578
0.702459 0.145970 0.107952
0.853839 0.141680 0.098945
0.995804 0.137658 0.090498
1.000000 0.130012 0.082571
1.000000 0.125444 0.077911
0.000000 0.323940 0.119989
0.142247 0.315351 0.106876
0.331439 0.309991 0.095619
0.505260 0.305066 0.085276
0.667045 0.300482 0.075650
0.818425 0.296192 0.066643
0.960391 0.292170 0.058196
1.000000 0.285587 0.050269
1.000000 0.281018 0.045609
0.000000 0.470829 0.089490
0.108810 0.461237 0.076377
0.298003 0.455876 0.065120
0.471824 0.450951 0.054778
0.633609 0.446368 0.045151
0.784989 0.442078 0.036144
0.926955 0.438056 0.027697
1.000000 0.432476 0.019770
1.000000 0.427907 0.015110
0.000000 0.610682 0.060453
0.076976 0.600135 0.047340
0.266168 0.594774 0.036083
0.439989 0.589849 0.025740
0.601774 0.585265 0.016114
0.753154 0.580976 0.011168
0.895120 0.576954 0.011002
1.000000 0.572328 0.010847
1.000000 0.567760 0.010755
0.000000 0.744305 0.032709
0.046559 0.732845 0.019595
0.235752 0.727485 0.014408
0.409572 0.722560 0.014205
0.571358 0.717976 0.014017
0.722738 0.713687 0.013840
0.864703 0.709664 0.013674
0.997931 0.705889 0.013519
1.000000 0.701383 0.013428
0.000000 0.872188 0.017444
0.017449 0.859855 0.017187
0.206642 0.854495 0.016966
0.380462 0.849570 0.016763
0.542248 0.844986 0.016574
0.693628 0.840697 0.016398
0.835593 0.836674 0.016232
0.968821 0.832899 0.016077
1.000000 0.829266 0.015985
0.000000 0.994665 0.019893
0.000000 0.981809 0.019636
0.178762 0.976136 0.019415
0.352583 0.971211 0.019213
0.514368 0.966627 0.019024
0.665748 0.962337 0.018847
0.807714 0.958315 0.018682
0.940941 0.954540 0.018526
1.000000 0.951743 0.018435
0.000000 1.000000 0.020000
0.000000 1.000000 0.020000
0.158177 1.000000 0.020000
0.331998 1.000000 0.020000
0.493783 1.000000 0.020000
0.645164 1.000000 0.020000
0.787129 1.000000 0.020000
0.920357 1.000000 0.020000
0.998674 1.000000 0.020000
0.000000 0.000000 0.367467
0.213379 0.006401 0.354611
0.402572 0.012077 0.343575
0.576393 0.017292 0.333435
0.738178 0.022145 0.323998
0.889558 0.026687 0.315167
1.000000 0.030000 0.306886
1.000000 0.030000 0.299114
1.000000 0.030000 0.294546
0.000000 0.164943 0.331625
0.174238 0.157314 0.318511
0.363430 0.151954 0.307254
0.537251 0.147029 0.296912
0.699036 0.142445 0.287286
0.850417 0.138155 0.278278
0.992382 0.134133 0.269831
1.000000 0.126590 0.261904
1.000000 0.122021 0.257244
0.000000 0.320518 0.299323
0.138824 0.311826 0.286210
0.328017 0.306466 0.274952
0.501838 0.301541 0.264610
0.663623 0.296957 0.254984
0.815003 0.292668 0.245977
0.956969 0.288645 0.237530
1.000000 0.282164 0.229602
1.000000 0.277596 0.224943
0.000000 0.467407 0.268824
0.105388 0.457712 0.255711
0.294581 0.452352 0.244454
0.468401 0.447427 0.234112
0.630187 0.442843 0.224485
0.781567 0.438553 0.215478
0.923533 0.434531 0.207031
1.000000 0.429053 0.199104
1.000000 0.424485 0.194444
0.000000 0.607259 0.239787
0.073553 0.596610 0.226673
0.262746 0.591249 0.215416
0.436567 0.586324 0.205074
0.598352 0.581740 0.195448
0.749732 0.577451 0.186440
0.891698 0.573429 0.177993
1.000000 0.568906 0.170066
1.000000 0.564338 0.165406
0.000000 0.740883 0.212042
0.043137 0.729321 0.198929
0.232329 0.723960 0.187672
0.406150 0.719035 0.177330
0.567935 0.714451 0.167703
0.719316 0.710162 0.158696
0.861281 0.706139 0.150249
0.994509 0.702365 0.142322
1.000000 0.697961 0.137662
0.000000 0.868766 0.185490
0.014027 0.856331 0.172377
0.203219 0.850970 0.161120
0.377040 0.846045 0.150777
0.538825 0.841461 0.141151
0.690205 0.837172 0.132144
0.832171 0.833149 0.123697
0.965399 0.829375 0.115770
1.000000 0.825844 0.111110
0.000000 0.991243 0.160060
0.000000 0.978387 0.146947
0.175340 0.972611 0.135690
0.349161 0.967686 0.125347
0.510946 0.963102 0.115721
0.662326 0.958813 0.106714
0.804292 0.954790 0.098267
0.937519 0.951015 0.090340
1.000000 0.948321 0.085680
0.000000 1.000000 0.139651
0.000000 1.000000 0.126794
0.154755 1.000000 0.115758
0.328576 1.000000 0.105619
0.490361 1.000000 0.096181
0.641741 1.000000 0.087350
0.783707 1.000000 0.079069
0.916934 1.000000 0.071297
0.995252 1.000000 0.066729
0.000000 0.000000 0.541555
0.210059 0.006302 0.528699
0.399251 0.011978 0.517663
0.573072 0.017192 0.507523
0.734857 0.022046 0.498085
0.886237 0.026587 0.489255
1.000000 0.030000 0.480973
1.000000 0.030000 0.473202
1.000000 0.030000 0.468633
0.000000 0.161622 0.505646
0.170917 0.153894 0.492533
0.360110 0.148533 0.481276
0.533930 0.143608 0.470933
0.695716 0.139024 0.461307
0.847096 0.134735 0.452300
0.989061 0.130713 0.443853
1.000000 0.123269 0.435926
1.000000 0.118701 0.431266
0.000000 0.317197 0.473344
0.135504 0.308406 0.460231
0.324696 0.303045 0.448974
0.498517 0.298120 0.438631
0.660302 0.293536 0.429005
0.811682 0.289247 0.419998
0.953648 0.285225 0.411551
1.000000 0.278844 0.403624
1.000000 0.274275 0.398964
0.000000 0.464086 0.442845
0.102067 0.454292 0.429732
0.291260 0.448931 0.418475
0.465081 0.444006 0.408133
0.626866 0.439422 0.398506
0.778246 0.435133 0.389499
0.920212 0.431111 0.381052
1.000000 0.425733 0.373125
1.000000 0.421164 0.368465
0.000000 0.603939 0.413808
0.070233 0.593189 0.400695
0.259425 0.587829 0.389438
0.433246 0.582904 0.379095
0.595031 0.578320 0.369469
0.746411 0.574031 0.360462
0.888377 0.570008 0.352015
1.000000 0.565585 0.344088
1.000000 0.561017 0.339428
0.000000 0.737562 0.386064
0.039816 0.725900 0.372950
0.229009 0.720540 0.361693
0.402829 0.715615 0.351351
0.564615 0.711031 0.341725
0.715995 0.706741 0.332717
0.857960 0.702719 0.324270
0.991188 0.698944 0.316343
1.000000 0.694640 0.311683
0.000000 0.865445 0.359511
0.010706 0.852910 0.346398
0.199899 0.847550 0.335141
0.373719 0.842625 0.324799
0.535505 0.838041 0.315172
0.686885 0.833751 0.306165
0.828850 0.829729 0.297718
0.962078 0.825954 0.289791
1.000000 0.822523 0.285131
0.000000 0.987922 0.334081
0.000000 0.975066 0.320968
0.172019 0.969190 0.309711
0.345840 0.964265 0.299369
0.507625 0.959681 0.289742
0.659005 0.955392 0.280735
0.800971 0.951370 0.272288
0.934198 0.947595 0.264361
1.000000 0.945000 0.259701
0.000000 1.000000 0.313738
0.000000 1.000000 0.300882
0.151434 1.000000 0.289846
0.325255 1.000000 0.279706
0.487040 1.000000 0.270269
0.638420 1.000000 0.261438
0.780386 1.000000 0.253157
0.913614 1.000000 0.245385
0.991931 1.000000 0.240816
0.000000 0.000000 0.711056
0.206825 0.006205 0.698200
0.396018 0.011881 0.687164
0.569839 0.017095 0.677024
0.731624 0.021949 0.667587
0.883004 0.026490 0.658756
1.000000 0.030000 0.650475
1.000000 0.030000 0.642703
1.000000 0.030000 0.638134
0.000000 0.158389 0.675082
0.167684 0.150563 0.661969
0.356876 0.145203 0.650712
0.530697 0.140278 0.640370
0.692482 0.135694 0.630743
0.843862 0.131405 0.621736
0.985828 0.127382 0.613289
1.000000 0.120036 0.605362
1.000000 0.115467 0.600702
0.000000 0.313964 0.642780
0.132270 0.305076 0.629667
0.321463 0.299715 0.618410
0.495284 0.294790 0.608068
0.657069 0.290206 0.598441
0.808449 0.285917 0.589434
0.950415 0.281894 0.580987
1.000000 0.275610 0.573060
1.000000 0.271042 0.568400
0.000000 0.460853 0.612282
0.098834 0.450961 0.599169
0.288027 0.445601 0.587912
0.461847 0.440676 0.577569
0.623633 0.436092 0.567943
0.775013 0.431803 0.558936
0.916978 0.427780 0.550489
1.000000 0.422499 0.542562
1.000000 0.417931 0.537902
0.000000 0.600705 0.583244
0.066999 0.589859 0.570131
0.256192 0.584499 0.558874
0.430013 0.579574 0.548532
0.591798 0.574990 0.538905
0.743178 0.570700 0.529898
0.885144 0.566678 0.521451
1.000000 0.562352 0.513524
1.000000 0.557783 0.508864
0.000000 0.734328 0.555500
0.036583 0.722570 0.542387
0.225775 0.717209 0.531130
0.399596 0.712284 0.520787
0.561381 0.707700 0.511161
0.712761 0.703411 0.502154
0.854727 0.699389 0.493707
0.987955 0.695614 0.485780
1.000000 0.691407 0.481120
0.000000 0.862212 0.528948
0.007473 0.849580 0.515835
0.196665 0.844219 0.504577
0.370486 0.839294 0.494235
0.532271 0.834710 0.484609
0.683651 0.830421 0.475602
0.825617 0.826399 0.467155
0.958844 0.822624 0.459227
1.000000 0.819290 0.454568
0.000000 0.984689 0.503518
0.000000 0.971833 0.490405
0.168786 0.965860 0.479148
0.342606 0.960935 0.468805
0.504392 0.956351 0.459179
0.655772 0.952062 0.450172
0.797738 0.948039 0.441725
0.930965 0.944265 0.433798
1.000000 0.941767 0.429138
0.000000 1.000000 0.483239
0.000000 1.000000 0.470383
0.148201 1.000000 0.459347
0.322022 1.000000 0.449207
0.483807 1.000000 0.439770
0.635187 1.000000 0.430939
0.777153 1.000000 0.422658
0.910380 1.000000 0.414886
0.988698 1.000000 0.410318
0.000000 0.000000 0.876326
0.203673 0.006110 0.863470
0.392865 0.011786 0.852434
0.566686 0.017001 0.842294
0.728471 0.021854 0.832857
0.879851 0.026396 0.824026
1.000000 0.030000 0.815745
1.000000 0.030000 0.807973
1.000000 0.030000 0.803404
0.000000 0.155236 0.840289
0.164531 0.147316 0.827176
0.353724 0.141956 0.815919
0.527544 0.137031 0.805577
0.689330 0.132447 0.795950
0.840710 0.128157 0.786943
0.982675 0.124135 0.778496
1.000000 0.116883 0.770569
1.000000 0.112315 0.765909
0.000000 0.310811 0.807987
0.129118 0.301828 0.794874
0.318310 0.296468 0.783617
0.492131 0.291543 0.773275
0.653916 0.286959 0.763648
0.805296 0.282670 0.754641
0.947262 0.278647 0.746194
1.000000 0.272458 0.738267
1.000000 0.267889 0.733607
0.000000 0.457700 0.777489
0.095681 0.447714 0.764376
0.284874 0.442354 0.753119
0.458695 0.437429 0.742776
0.620480 0.432845 0.733150
0.771860 0.428555 0.724143
0.913826 0.424533 0.715696
1.000000 0.419347 0.707768
1.000000 0.414778 0.703109
0.000000 0.597553 0.748451
0.063847 0.586612 0.735338
0.253039 0.581251 0.724081
0.426860 0.576326 0.713738
0.588645 0.571742 0.704112
0.740025 0.567453 0.695105
0.881991 0.563431 0.686658
1.000000 0.559199 0.678731
1.000000 0.554631 0.674071
0.000000 0.731176 0.720707
0.033430 0.719323 0.707594
0.222623 0.713962 0.696337
0.396443 0.709037 0.685994
0.558229 0.704453 0.676368
0.709609 0.700164 0.667361
0.851574 0.696141 0.658914
0.984802 0.692367 0.650987
1.000000 0.688254 0.646327
0.000000 0.859059 0.694155
0.004320 0.846333 0.681041
0.193513 0.840972 0.669784
0.367333 0.836047 0.659442
0.529119 0.831463 0.649816
0.680499 0.827174 0.640808
0.822464 0.823151 0.632361
0.955692 0.819377 0.624434
1.000000 0.816137 0.619774
0.000000 0.981536 0.668725
0.000000 0.968680 0.655611
0.165633 0.962613 0.644354
0.339454 0.957688 0.634012
0.501239 0.953104 0.624386
0.652619 0.948815 0.615379
0.794585 0.944792 0.606932
0.927812 0.941017 0.599004
1.000000 0.938614 0.594345
0.000000 1.000000 0.648509
0.000000 1.000000 0.635653
0.145049 1.000000 0.624617
0.318869 1.000000 0.614477
0.480654 1.000000 0.605040
0.632035 1.000000 0.596209
0.774000 1.000000 0.587928
0.907228 1.000000 0.580156
0.985545 1.000000 0.575568
0.000000 0.000000 1.000000
0.200597 0.006018 1.000000
0.389789 0.011694 1.000000
0.563610 0.016908 1.000000
0.725395 0.021762 0.994110
0.876775 0.026303 0.985280
1.000000 0.030000 0.976998
1.000000 0.030000 0.969226
1.000000 0.030000 0.964658
0.000000 0.152160 1.000000
0.161455 0.144148 0.988368
0.350648 0.138787 0.977111
0.524468 0.133862 0.966769
0.686254 0.129278 0.957142
0.837634 0.124989 0.948135
0.979599 0.120967 0.939688
1.000000 0.113807 0.931761
1.000000 0.109239 0.927101
0.000000 0.307735 0.969179
0.126042 0.298660 0.956066
0.315234 0.293300 0.944809
0.489055 0.288375 0.934467
0.650840 0.283791 0.924840
0.802220 0.279501 0.915833
0.944186 0.275479 0.907386
1.000000 0.269382 0.899459
1.000000 0.264813 0.894799
0.000000 0.454624 0.938681
0.092605 0.444546 0.925568
0.281798 0.439185 0.914311
0.455619 0.434260 0.903968
0.617404 0.429676 0.894342
0.768784 0.425387 0.885335
0.910750 0.421365 0.876888
1.000000 0.416271 0.868961
1.000000 0.411702 0.864301
0.000000 0.594477 0.909643
0.060771 0.583444 0.896530
0.249963 0.578083 0.885273
0.423784 0.573158 0.874931
0.585569 0.568574 0.865304
0.736949 0.564285 0.856297
0.878915 0.560263 0.847850
1.000000 0.556123 0.839923
1.000000 0.551555 0.835263
0.000000 0.728100 0.881899
0.030354 0.716154 0.868786
0.219547 0.710794 0.857529
0.393367 0.705869 0.847186
0.555153 0.701285 0.837560
0.706533 0.696996 0.828553
0.848498 0.692973 0.820106
0.981726 0.689198 0.812179
1.000000 0.685178 0.807519
0.000000 0.855983 0.855347
0.001244 0.843164 0.842233
0.190437 0.837804 0.830976
0.364257 0.832879 0.820634
0.526043 0.828295 0.811008
0.677423 0.824006 0.802001
0.819388 0.819983 0.793554
0.952616 0.816208 0.785626
1.000000 0.813061 0.780967
0.000000 0.978460 0.829917
0.000000 0.965604 0.816804
0.162557 0.959445 0.805547
0.336378 0.954520 0.795204
0.498163 0.949936 0.785578
0.649543 0.945646 0.776571
0.791509 0.941624 0.768124
0.924736 0.937849 0.760196
1.000000 0.935538 0.755537
0.000000 1.000000 0.809763
0.000000 1.000000 0.796907
0.141973 1.000000 0.785870
0.315793 1.000000 0.775731
0.477578 1.000000 0.766293
0.628959 1.000000 0.757463
0.770924 1.000000 0.749181
0.904152 1.000000 0.741410
0.982469 1.000000 0.736761
0.000000 0.000000 1.000000
0.197594 0.005928 1.000000
0.386787 0.011604 1.000000
0.560608 0.016818 1.000000
0.722393 0.021672 1.000000
0.873773 0.026213 1.000000
1.000000 0.030000 1.000000
1.000000 0.030000 1.000000
1.000000 0.030000 1.000000
0.000000 0.149158 1.000000
0.158453 0.141056 1.000000
0.347646 0.135695 1.000000
0.521466 0.130770 1.000000
0.683251 0.126186 1.000000
0.834632 0.121897 1.000000
0.976597 0.117875 1.000000
1.000000 0.110805 1.000000
1.000000 0.106236 1.000000
0.000000 0.304733 1.000000
0.123039 0.295568 1.000000
0.312232 0.290207 1.000000
0.486053 0.285282 1.000000
0.647838 0.280698 1.000000
0.799218 0.276409 1.000000
0.941184 0.272387 1.000000
1.000000 0.266380 1.000000
1.000000 0.261811 1.000000
0.000000 0.451622 1.000000
0.089603 0.441454 1.000000
0.278796 0.436093 1.000000
0.452616 0.431168 1.000000
0.614402 0.426584 1.000000
0.765782 0.422295 1.000000
0.907748 0.418273 1.000000
1.000000 0.413268 1.000000
1.000000 0.408700 1.000000
0.000000 0.591474 1.000000
0.057768 0.580351 1.000000
0.246961 0.574991 1.000000
0.420782 0.570066 1.000000
0.582567 0.565482 1.000000
0.733947 0.561193 1.000000
0.875913 0.557170 1.000000
1.000000 0.553121 0.997246
1.000000 0.548553 0.992586
0.000000 0.725098 1.000000
0.027352 0.713062 1.000000
0.216545 0.707702 1.000000
0.390365 0.702777 1.000000
0.552150 0.698193 0.994883
0.703531 0.693903 0.985876
0.845496 0.689881 0.977429
0.978724 0.686106 0.969502
1.000000 0.682176 0.964842
0.000000 0.852981 1.000000
0.000000 0.840125 0.999557
0.187434 0.834711 0.988299
0.361255 0.829786 0.977957
0.523040 0.825202 0.968331
0.674420 0.820913 0.959324
0.816386 0.816891 0.950877
0.949614 0.813116 0.942949
1.000000 0.810059 0.938290
0.000000 0.975458 0.987240
0.000000 0.962602 0.974127
0.159555 0.956352 0.962870
0.333376 0.951427 0.952527
0.495161 0.946843 0.942901
0.646541 0.942554 0.933894
0.788507 0.938532 0.925447
0.921734 0.934757 0.917520
1.000000 0.932536 0.912860
0.000000 1.000000 0.967146
0.000000 1.000000 0.954290
0.138970 1.000000 0.943254
0.312791 1.000000 0.933114
0.474576 1.000000 0.923676
0.625956 1.000000 0.914846
0.767922 1.000000 0.906564
0.901150 1.000000 0.898743
0.979467 1.000000 0.894084
0.000000 0.000000 1.000000
0.195119 0.005854 1.000000
0.384312 0.011529 1.000000
0.558132 0.016744 1.000000
0.719918 0.021598 1.000000
0.871298 0.026139 1.000000
1.000000 0.030000 1.000000
1.000000 0.030000 1.000000
1.000000 0.030000 1.000000
0.000000 0.146683 1.000000
0.155977 0.138506 1.000000
0.345170 0.133145 1.000000
0.518991 0.128220 1.000000
0.680776 0.123636 1.000000
0.832156 0.119347 1.000000
0.974122 0.115325 1.000000
1.000000 0.108330 1.000000
1.000000 0.103761 1.000000
0.000000 0.302257 1.000000
0.120564 0.293018 1.000000
0.309757 0.287658 1.000000
0.483577 0.282733 1.000000
0.645363 0.278149 1.000000
0.796743 0.273859 1.000000
0.938709 0.269837 1.000000
1.000000 0.263904 1.000000
1.000000 0.259336 1.000000
0.000000 0.449146 1.000000
0.087128 0.438904 1.000000
0.276320 0.433543 1.000000
0.450141 0.428618 1.000000
0.611926 0.424034 1.000000
0.763306 0.419745 1.000000
0.905272 0.415723 1.000000
1.000000 0.410793 1.000000
1.000000 0.406225 1.000000
0.000000 0.588999 1.000000
0.055293 0.577802 1.000000
0.244486 0.572441 1.000000
0.418306 0.567516 1.000000
0.580092 0.562932 1.000000
0.731472 0.558643 1.000000
0.873438 0.554621 1.000000
1.000000 0.550646 1.000000
1.000000 0.546077 1.000000
0.000000 0.722622 1.000000
0.024876 0.710512 1.000000
0.214069 0.705152 1.000000
0.387890 0.700227 1.000000
0.549675 0.695643 1.000000
0.701055 0.691354 1.000000
0.843021 0.687331 1.000000
0.976248 0.683556 1.000000
1.000000 0.679700 1.000000
0.000000 0.850506 1.000000
0.000000 0.837649 1.000000
0.184959 0.832162 1.000000
0.358780 0.827237 1.000000
0.520565 0.822653 1.000000
0.671945 0.818364 1.000000
0.813911 0.814341 1.000000
0.947138 0.810566 1.000000
1.000000 0.807584 1.000000
0.000000 0.972983 1.000000
0.000000 0.960127 1.000000
0.157080 0.953803 1.000000
0.330900 0.948878 1.000000
0.492686 0.944294 1.000000
0.644066 0.940004 1.000000
0.786031 0.935982 1.000000
0.919259 0.932207 1.000000
0.997576 0.929988 1.000000
0.000000 1.000000 1.000000
0.000000 1.000000 1.000000
0.136495 1.000000 1.000000
0.310316 1.000000 1.000000
0.472101 1.000000 1.000000
0.623481 1.000000 1.000000
0.765447 1.000000 1.000000
0.898674 1.000000 1.000000
0.976991 1.000000 1.000000
