luts/base/log_to_rec709.cube
TITLE "LOG to Rec.709 Base Conversion"
LUT_3D_SIZE 5
DOMAIN_MIN 0.0 0.0 0.0
DOMAIN_MAX 1.0 1.0 1.0
0.000000 0.000000 0.000000
0.402708 0.000000 0.000000
0.684891 0.000000 0.000000
0.919208 0.000000 0.000000
0.990000 0.000000 0.000000
0.000000 0.402708 0.000000
0.402708 0.402708 0.000000
0.684891 0.402708 0.000000
0.919208 0.402708 0.000000
0.990000 0.402708 0.000000
0.000000 0.684891 0.000000
0.402708 0.684891 0.000000
0.684891 0.684891 0.000000
0.919208 0.684891 0.000000
0.990000 0.684891 0.000000
0.000000 0.919208 0.000000
0.402708 0.919208 0.000000
0.684891 0.919208 0.000000
0.919208 0.919208 0.000000
0.990000 0.919208 0.000000
0.000000 0.990000 0.000000
0.402708 0.990000 0.000000
0.684891 0.990000 0.000000
0.919208 0.990000 0.000000
0.990000 0.990000 0.000000
0.000000 0.000000 0.402708
0.402708 0.000000 0.402708
0.684891 0.000000 0.402708
0.919208 0.000000 0.402708
0.990000 0.000000 0.402708
0.000000 0.402708 0.402708
0.402708 0.402708 0.402708
0.684891 0.402708 0.402708
0.919208 0.402708 0.402708
0.990000 0.402708 0.402708
0.000000 0.684891 0.402708
0.402708 0.684891 0.402708
0.684891 0.684891 0.402708
0.919208 0.684891 0.402708
0.990000 0.684891 0.402708
0.000000 0.919208 0.402708
0.402708 0.919208 0.402708
0.684891 0.919208 0.402708
0.919208 0.919208 0.402708
0.990000 0.919208 0.402708
0.000000 0.990000 0.402708
0.402708 0.990000 0.402708
0.684891 0.990000 0.402708
0.919208 0.990000 0.402708
0.990000 0.990000 0.402708
0.000000 0.000000 0.684891
0.402708 0.000000 0.684891
0.684891 0.000000 0.684891
0.919208 0.000000 0.684891
0.990000 0.000000 0.684891
0.000000 0.402708 0.684891
0.402708 0.402708 0.684891
0.684891 0.402708 0.684891
0.919208 0.402708 0.684891
0.990000 0.402708 0.684891
0.000000 0.684891 0.684891
0.402708 0.684891 0.684891
0.684891 0.684891 0.684891
0.919208 0.684891 0.684891
0.990000 0.684891 0.684891
0.000000 0.919208 0.684891
0.402708 0.919208 0.684891
0.684891 0.919208 0.684891
0.919208 0.919208 0.684891
0.990000 0.919208 0.684891
0.000000 0.990000 0.684891
0.402708 0.990000 0.684891
0.684891 0.990000 0.684891
0.919208 0.990000 0.684891
0.990000 0.990000 0.684891
0.000000 0.000000 0.919208
0.402708 0.000000 0.919208
0.684891 0.000000 0.919208
0.919208 0.000000 0.919208
0.990000 0.000000 0.919208
0.000000 0.402708 0.919208
0.402708 0.402708 0.919208
0.684891 0.402708 0.919208
0.919208 0.402708 0.919208
0.990000 0.402708 0.919208
0.000000 0.684891 0.919208
0.402708 0.684891 0.919208
0.684891 0.684891 0.919208
0.919208 0.684891 0.919208
0.990000 0.684891 0.919208
0.000000 0.919208 0.919208
0.402708 0.919208 0.919208
0.684891 0.919208 0.919208
0.919208 0.919208 0.919208
0.990000 0.919208 0.919208
0.000000 0.990000 0.919208
0.402708 0.990000 0.919208
0.684891 0.990000 0.919208
0.919208 0.990000 0.919208
0.990000 0.990000 0.919208
0.000000 0.000000 0.990000
0.402708 0.000000 0.990000
0.684891 0.000000 0.990000
0.919208 0.000000 0.990000
0.990000 0.000000 0.990000
0.000000 0.402708 0.990000
0.402708 0.402708 0.990000
0.684891 0.402708 0.990000
0.919208 0.402708 0.990000
0.990000 0.402708 0.990000
0.000000 0.684891 0.990000
0.402708 0.684891 0.990000
0.684891 0.684891 0.990000
0.919208 0.684891 0.990000
0.990000 0.684891 0.990000
0.000000 0.919208 0.990000
0.402708 0.919208 0.990000
0.684891 0.919208 0.990000
0.919208 0.919208 0.990000
0.990000 0.919208 0.990000
0.000000 0.990000 0.990000
0.402708 0.990000 0.990000
0.684891 0.990000 0.990000
0.919208 0.990000 0.990000
0.990000 0.990000 0.990000
