luts/base/log_to_rec709.cube
TITLE "LOG to Rec.709 Base Conversion"
LUT_3D_SIZE 17
DOMAIN_MIN 0.0 0.0 0.0
DOMAIN_MAX 1.0 1.0 1.0
0.000000 0.000000 0.000000
0.123211 0.000000 0.000000
0.228448 0.000000 0.000000
0.319803 0.000000 0.000000
0.402708 0.000000 0.000000
0.479552 0.000000 0.000000
0.551673 0.000000 0.000000
0.619922 0.000000 0.000000
0.684891 0.000000 0.000000
0.747009 0.000000 0.000000
0.806604 0.000000 0.000000
0.863934 0.000000 0.000000
0.919208 0.000000 0.000000
0.972597 0.000000 0.000000
0.990000 0.000000 0.000000
0.990000 0.000000 0.000000
0.990000 0.000000 0.000000
0.000000 0.123211 0.000000
0.123211 0.123211 0.000000
0.228448 0.123211 0.000000
0.319803 0.123211 0.000000
0.402708 0.123211 0.000000
0.479552 0.123211 0.000000
0.551673 0.123211 0.000000
0.619922 0.123211 0.000000
0.684891 0.123211 0.000000
0.747009 0.123211 0.000000
0.806604 0.123211 0.000000
0.863934 0.123211 0.000000
0.919208 0.123211 0.000000
0.972597 0.123211 0.000000
0.990000 0.123211 0.000000
0.990000 0.123211 0.000000
0.990000 0.123211 0.000000
0.000000 0.228448 0.000000
0.123211 0.228448 0.000000
0.228448 0.228448 0.000000
0.319803 0.228448 0.000000
0.402708 0.228448 0.000000
0.479552 0.228448 0.000000
0.551673 0.228448 0.000000
0.619922 0.228448 0.000000
0.684891 0.228448 0.000000
0.747009 0.228448 0.000000
0.806604 0.228448 0.000000
0.863934 0.228448 0.000000
0.919208 0.228448 0.000000
0.972597 0.228448 0.000000
0.990000 0.228448 0.000000
0.990000 0.228448 0.000000
0.990000 0.228448 0.000000
0.000000 0.319803 0.000000
0.123211 0.319803 0.000000
0.228448 0.319803 0.000000
0.319803 0.319803 0.000000
0.402708 0.319803 0.000000
0.479552 0.319803 0.000000
0.551673 0.319803 0.000000
0.619922 0.319803 0.000000
0.684891 0.319803 0.000000
0.747009 0.319803 0.000000
0.806604 0.319803 0.000000
0.863934 0.319803 0.000000
0.919208 0.319803 0.000000
0.972597 0.319803 0.000000
0.990000 0.319803 0.000000
0.990000 0.319803 0.000000
0.990000 0.319803 0.000000
0.000000 0.402708 0.000000
0.123211 0.402708 0.000000
0.228448 0.402708 0.000000
0.319803 0.402708 0.000000
0.402708 0.402708 0.000000
0.479552 0.402708 0.000000
0.551673 0.402708 0.000000
0.619922 0.402708 0.000000
0.684891 0.402708 0.000000
0.747009 0.402708 0.000000
0.806604 0.402708 0.000000
0.863934 0.402708 0.000000
0.919208 0.402708 0.000000
0.972597 0.402708 0.000000
0.990000 0.402708 0.000000
0.990000 0.402708 0.000000
0.990000 0.402708 0.000000
0.000000 0.479552 0.000000
0.123211 0.479552 0.000000
0.228448 0.479552 0.000000
0.319803 0.479552 0.000000
0.402708 0.479552 0.000000
0.479552 0.479552 0.000000
0.551673 0.479552 0.000000
0.619922 0.479552 0.000000
0.684891 0.479552 0.000000
0.747009 0.479552 0.000000
0.806604 0.479552 0.000000
0.863934 0.479552 0.000000
0.919208 0.479552 0.000000
0.972597 0.479552 0.000000
0.990000 0.479552 0.000000
0.990000 0.479552 0.000000
0.990000 0.479552 0.000000
0.000000 0.551673 0.000000
0.123211 0.551673 0.000000
0.228448 0.551673 0.000000
0.319803 0.551673 0.000000
0.402708 0.551673 0.000000
0.479552 0.551673 0.000000
0.551673 0.551673 0.000000
0.619922 0.551673 0.000000
0.684891 0.551673 0.000000
0.747009 0.551673 0.000000
0.806604 0.551673 0.000000
0.863934 0.551673 0.000000
0.919208 0.551673 0.000000
0.972597 0.551673 0.000000
0.990000 0.551673 0.000000
0.990000 0.551673 0.000000
0.990000 0.551673 0.000000
0.000000 0.619922 0.000000
0.123211 0.619922 0.000000
0.228448 0.619922 0.000000
0.319803 0.619922 0.000000
0.402708 0.619922 0.000000
0.479552 0.619922 0.000000
0.551673 0.619922 0.000000
0.619922 0.619922 0.000000
0.684891 0.619922 0.000000
0.747009 0.619922 0.000000
0.806604 0.619922 0.000000
0.863934 0.619922 0.000000
0.919208 0.619922 0.000000
0.972597 0.619922 0.000000
0.990000 0.619922 0.000000
0.990000 0.619922 0.000000
0.990000 0.619922 0.000000
0.000000 0.684891 0.000000
0.123211 0.684891 0.000000
0.228448 0.684891 0.000000
0.319803 0.684891 0.000000
0.402708 0.684891 0.000000
0.479552 0.684891 0.000000
0.551673 0.684891 0.000000
0.619922 0.684891 0.000000
0.684891 0.684891 0.000000
0.747009 0.684891 0.000000
0.806604 0.684891 0.000000
0.863934 0.684891 0.000000
0.919208 0.684891 0.000000
0.972597 0.684891 0.000000
0.990000 0.684891 0.000000
0.990000 0.684891 0.000000
0.990000 0.684891 0.000000
0.000000 0.747009 0.000000
0.123211 0.747009 0.000000
0.228448 0.747009 0.000000
0.319803 0.747009 0.000000
0.402708 0.747009 0.000000
0.479552 0.747009 0.000000
0.551673 0.747009 0.000000
0.619922 0.747009 0.000000
0.684891 0.747009 0.000000
0.747009 0.747009 0.000000
0.806604 0.747009 0.000000
0.863934 0.747009 0.000000
0.919208 0.747009 0.000000
0.972597 0.747009 0.000000
0.990000 0.747009 0.000000
0.990000 0.747009 0.000000
0.990000 0.747009 0.000000
0.000000 0.806604 0.000000
0.123211 0.806604 0.000000
0.228448 0.806604 0.000000
0.319803 0.806604 0.000000
0.402708 0.806604 0.000000
0.479552 0.806604 0.000000
0.551673 0.806604 0.000000
0.619922 0.806604 0.000000
0.684891 0.806604 0.000000
0.747009 0.806604 0.000000
0.806604 0.806604 0.000000
0.863934 0.806604 0.000000
0.919208 0.806604 0.000000
0.972597 0.806604 0.000000
0.990000 0.806604 0.000000
0.990000 0.806604 0.000000
0.990000 0.806604 0.000000
0.000000 0.863934 0.000000
0.123211 0.863934 0.000000
0.228448 0.863934 0.000000
0.319803 0.863934 0.000000
0.402708 0.863934 0.000000
0.479552 0.863934 0.000000
0.551673 0.863934 0.000000
0.619922 0.863934 0.000000
0.684891 0.863934 0.000000
0.747009 0.863934 0.000000
0.806604 0.863934 0.000000
0.863934 0.863934 0.000000
0.919208 0.863934 0.000000
0.972597 0.863934 0.000000
0.990000 0.863934 0.000000
0.990000 0.863934 0.000000
0.990000 0.863934 0.000000
0.000000 0.919208 0.000000
0.123211 0.919208 0.000000
0.228448 0.919208 0.000000
0.319803 0.919208 0.000000
0.402708 0.919208 0.000000
0.479552 0.919208 0.000000
0.551673 0.919208 0.000000
0.619922 0.919208 0.000000
0.684891 0.919208 0.000000
0.747009 0.919208 0.000000
0.806604 0.919208 0.000000
0.863934 0.919208 0.000000
0.919208 0.919208 0.000000
0.972597 0.919208 0.000000
0.990000 0.919208 0.000000
0.990000 0.919208 0.000000
0.990000 0.919208 0.000000
0.000000 0.972597 0.000000
0.123211 0.972597 0.000000
0.228448 0.972597 0.000000
0.319803 0.972597 0.000000
0.402708 0.972597 0.000000
0.479552 0.972597 0.000000
0.551673 0.972597 0.000000
0.619922 0.972597 0.000000
0.684891 0.972597 0.000000
0.747009 0.972597 0.000000
0.806604 0.972597 0.000000
0.863934 0.972597 0.000000
0.919208 0.972597 0.000000
0.972597 0.972597 0.000000
0.990000 0.972597 0.000000
0.990000 0.972597 0.000000
0.990000 0.972597 0.000000
0.000000 0.990000 0.000000
0.123211 0.990000 0.000000
0.228448 0.990000 0.000000
0.319803 0.990000 0.000000
0.402708 0.990000 0.000000
0.479552 0.990000 0.000000
0.551673 0.990000 0.000000
0.619922 0.990000 0.000000
0.684891 0.990000 0.000000
0.747009 0.990000 0.000000
0.806604 0.990000 0.000000
0.863934 0.990000 0.000000
0.919208 0.990000 0.000000
0.972597 0.990000 0.000000
0.990000 0.990000 0.000000
0.990000 0.990000 0.000000
0.990000 0.990000 0.000000
0.000000 0.990000 0.000000
0.123211 0.990000 0.000000
0.228448 0.990000 0.000000
0.319803 0.990000 0.000000
0.402708 0.990000 0.000000
0.479552 0.990000 0.000000
0.551673 0.990000 0.000000
0.619922 0.990000 0.000000
0.684891 0.990000 0.000000
0.747009 0.990000 0.000000
0.806604 0.990000 0.000000
0.863934 0.990000 0.000000
0.919208 0.990000 0.000000
0.972597 0.990000 0.000000
0.990000 0.990000 0.000000
0.990000 0.990000 0.000000
0.990000 0.990000 0.000000
0.000000 0.990000 0.000000
0.123211 0.990000 0.000000
0.228448 0.990000 0.000000
0.319803 0.990000 0.000000
0.402708 0.990000 0.000000
0.479552 0.990000 0.000000
0.551673 0.990000 0.000000
0.619922 0.990000 0.000000
0.684891 0.990000 0.000000
0.747009 0.990000 0.000000
0.806604 0.990000 0.000000
0.863934 0.990000 0.000000
0.919208 0.990000 0.000000
0.972597 0.990000 0.000000
0.990000 0.990000 0.000000
0.990000 0.990000 0.000000
0.990000 0.990000 0.000000
0.000000 0.000000 0.123211
0.123211 0.000000 0.123211
0.228448 0.000000 0.123211
0.319803 0.000000 0.123211
0.402708 0.000000 0.123211
0.479552 0.000000 0.123211
0.551673 0.000000 0.123211
0.619922 0.000000 0.123211
0.684891 0.000000 0.123211
0.747009 0.000000 0.123211
0.806604 0.000000 0.123211
0.863934 0.000000 0.123211
0.919208 0.000000 0.123211
0.972597 0.000000 0.123211
0.990000 0.000000 0.123211
0.990000 0.000000 0.123211
0.990000 0.000000 0.123211
0.000000 0.123211 0.123211
0.123211 0.123211 0.123211
0.228448 0.123211 0.123211
0.319803 0.123211 0.123211
0.402708 0.123211 0.123211
0.479552 0.123211 0.123211
0.551673 0.123211 0.123211
0.619922 0.123211 0.123211
0.684891 0.123211 0.123211
0.747009 0.123211 0.123211
0.806604 0.123211 0.123211
0.863934 0.123211 0.123211
0.919208 0.123211 0.123211
0.972597 0.123211 0.123211
0.990000 0.123211 0.123211
0.990000 0.123211 0.123211
0.990000 0.123211 0.123211
0.000000 0.228448 0.123211
0.123211 0.228448 0.123211
0.228448 0.228448 0.123211
0.319803 0.228448 0.123211
0.402708 0.228448 0.123211
0.479552 0.228448 0.123211
0.551673 0.228448 0.123211
0.619922 0.228448 0.123211
0.684891 0.228448 0.123211
0.747009 0.228448 0.123211
0.806604 0.228448 0.123211
0.863934 0.228448 0.123211
0.919208 0.228448 0.123211
0.972597 0.228448 0.123211
0.990000 0.228448 0.123211
0.990000 0.228448 0.123211
0.990000 0.228448 0.123211
0.000000 0.319803 0.123211
0.123211 0.319803 0.123211
0.228448 0.319803 0.123211
0.319803 0.319803 0.123211
0.402708 0.319803 0.123211
0.479552 0.319803 0.123211
0.551673 0.319803 0.123211
0.619922 0.319803 0.123211
0.684891 0.319803 0.123211
0.747009 0.319803 0.123211
0.806604 0.319803 0.123211
0.863934 0.319803 0.123211
0.919208 0.319803 0.123211
0.972597 0.319803 0.123211
0.990000 0.319803 0.123211
0.990000 0.319803 0.123211
0.990000 0.319803 0.123211
0.000000 0.402708 0.123211
0.123211 0.402708 0.123211
0.228448 0.402708 0.123211
0.319803 0.402708 0.123211
0.402708 0.402708 0.123211
0.479552 0.402708 0.123211
0.551673 0.402708 0.123211
0.619922 0.402708 0.123211
0.684891 0.402708 0.123211
0.747009 0.402708 0.123211
0.806604 0.402708 0.123211
0.863934 0.402708 0.123211
0.919208 0.402708 0.123211
0.972597 0.402708 0.123211
0.990000 0.402708 0.123211
0.990000 0.402708 0.123211
0.990000 0.402708 0.123211
0.000000 0.479552 0.123211
0.123211 0.479552 0.123211
0.228448 0.479552 0.123211
0.319803 0.479552 0.123211
0.402708 0.479552 0.123211
0.479552 0.479552 0.123211
0.551673 0.479552 0.123211
0.619922 0.479552 0.123211
0.684891 0.479552 0.123211
0.747009 0.479552 0.123211
0.806604 0.479552 0.123211
0.863934 0.479552 0.123211
0.919208 0.479552 0.123211
0.972597 0.479552 0.123211
0.990000 0.479552 0.123211
0.990000 0.479552 0.123211
0.990000 0.479552 0.123211
0.000000 0.551673 0.123211
0.123211 0.551673 0.123211
0.228448 0.551673 0.123211
0.319803 0.551673 0.123211
0.402708 0.551673 0.123211
0.479552 0.551673 0.123211
0.551673 0.551673 0.123211
0.619922 0.551673 0.123211
0.684891 0.551673 0.123211
0.747009 0.551673 0.123211
0.806604 0.551673 0.123211
0.863934 0.551673 0.123211
0.919208 0.551673 0.123211
0.972597 0.551673 0.123211
0.990000 0.551673 0.123211
0.990000 0.551673 0.123211
0.990000 0.551673 0.123211
0.000000 0.619922 0.123211
0.123211 0.619922 0.123211
0.228448 0.619922 0.123211
0.319803 0.619922 0.123211
0.402708 0.619922 0.123211
0.479552 0.619922 0.123211
0.551673 0.619922 0.123211
0.619922 0.619922 0.123211
0.684891 0.619922 0.123211
0.747009 0.619922 0.123211
0.806604 0.619922 0.123211
0.863934 0.619922 0.123211
0.919208 0.619922 0.123211
0.972597 0.619922 0.123211
0.990000 0.619922 0.123211
0.990000 0.619922 0.123211
0.990000 0.619922 0.123211
0.000000 0.684891 0.123211
0.123211 0.684891 0.123211
0.228448 0.684891 0.123211
0.319803 0.684891 0.123211
0.402708 0.684891 0.123211
0.479552 0.684891 0.123211
0.551673 0.684891 0.123211
0.619922 0.684891 0.123211
0.684891 0.684891 0.123211
0.747009 0.684891 0.123211
0.806604 0.684891 0.123211
0.863934 0.684891 0.123211
0.919208 0.684891 0.123211
0.972597 0.684891 0.123211
0.990000 0.684891 0.123211
0.990000 0.684891 0.123211
0.990000 0.684891 0.123211
0.000000 0.747009 0.123211
0.123211 0.747009 0.123211
0.228448 0.747009 0.123211
0.319803 0.747009 0.123211
0.402708 0.747009 0.123211
0.479552 0.747009 0.123211
0.551673 0.747009 0.123211
0.619922 0.747009 0.123211
0.684891 0.747009 0.123211
0.747009 0.747009 0.123211
0.806604 0.747009 0.123211
0.863934 0.747009 0.123211
0.919208 0.747009 0.123211
0.972597 0.747009 0.123211
0.990000 0.747009 0.123211
0.990000 0.747009 0.123211
0.990000 0.747009 0.123211
0.000000 0.806604 0.123211
0.123211 0.806604 0.123211
0.228448 0.806604 0.123211
0.319803 0.806604 0.123211
0.402708 0.806604 0.123211
0.479552 0.806604 0.123211
0.551673 0.806604 0.123211
0.619922 0.806604 0.123211
0.684891 0.806604 0.123211
0.747009 0.806604 0.123211
0.806604 0.806604 0.123211
0.863934 0.806604 0.123211
0.919208 0.806604 0.123211
0.972597 0.806604 0.123211
0.990000 0.806604 0.123211
0.990000 0.806604 0.123211
0.990000 0.806604 0.123211
0.000000 0.863934 0.123211
0.123211 0.863934 0.123211
0.228448 0.863934 0.123211
0.319803 0.863934 0.123211
0.402708 0.863934 0.123211
0.479552 0.863934 0.123211
0.551673 0.863934 0.123211
0.619922 0.863934 0.123211
0.684891 0.863934 0.123211
0.747009 0.863934 0.123211
0.806604 0.863934 0.123211
0.863934 0.863934 0.123211
0.919208 0.863934 0.123211
0.972597 0.863934 0.123211
0.990000 0.863934 0.123211
0.990000 0.863934 0.123211
0.990000 0.863934 0.123211
0.000000 0.919208 0.123211
0.123211 0.919208 0.123211
0.228448 0.919208 0.123211
0.319803 0.919208 0.123211
0.402708 0.919208 0.123211
0.479552 0.919208 0.123211
0.551673 0.919208 0.123211
0.619922 0.919208 0.123211
0.684891 0.919208 0.123211
0.747009 0.919208 0.123211
0.806604 0.919208 0.123211
0.863934 0.919208 0.123211
0.919208 0.919208 0.123211
0.972597 0.919208 0.123211
0.990000 0.919208 0.123211
0.990000 0.919208 0.123211
0.990000 0.919208 0.123211
0.000000 0.972597 0.123211
0.123211 0.972597 0.123211
0.228448 0.972597 0.123211
0.319803 0.972597 0.123211
0.402708 0.972597 0.123211
0.479552 0.972597 0.123211
0.551673 0.972597 0.123211
0.619922 0.972597 0.123211
0.684891 0.972597 0.123211
0.747009 0.972597 0.123211
0.806604 0.972597 0.123211
0.863934 0.972597 0.123211
0.919208 0.972597 0.123211
0.972597 0.972597 0.123211
0.990000 0.972597 0.123211
0.990000 0.972597 0.123211
0.990000 0.972597 0.123211
0.000000 0.990000 0.123211
0.123211 0.990000 0.123211
0.228448 0.990000 0.123211
0.319803 0.990000 0.123211
0.402708 0.990000 0.123211
0.479552 0.990000 0.123211
0.551673 0.990000 0.123211
0.619922 0.990000 0.123211
0.684891 0.990000 0.123211
0.747009 0.990000 0.123211
0.806604 0.990000 0.123211
0.863934 0.990000 0.123211
0.919208 0.990000 0.123211
0.972597 0.990000 0.123211
0.990000 0.990000 0.123211
0.990000 0.990000 0.123211
0.990000 0.990000 0.123211
0.000000 0.990000 0.123211
0.123211 0.990000 0.123211
0.228448 0.990000 0.123211
0.319803 0.990000 0.123211
0.402708 0.990000 0.123211
0.479552 0.990000 0.123211
0.551673 0.990000 0.123211
0.619922 0.990000 0.123211
0.684891 0.990000 0.123211
0.747009 0.990000 0.123211
0.806604 0.990000 0.123211
0.863934 0.990000 0.123211
0.919208 0.990000 0.123211
0.972597 0.990000 0.123211
0.990000 0.990000 0.123211
0.990000 0.990000 0.123211
0.990000 0.990000 0.123211
0.000000 0.990000 0.123211
0.123211 0.990000 0.123211
0.228448 0.990000 0.123211
0.319803 0.990000 0.123211
0.402708 0.990000 0.123211
0.479552 0.990000 0.123211
0.551673 0.990000 0.123211
0.619922 0.990000 0.123211
0.684891 0.990000 0.123211
0.747009 0.990000 0.123211
0.806604 0.990000 0.123211
0.863934 0.990000 0.123211
0.919208 0.990000 0.123211
0.972597 0.990000 0.123211
0.990000 0.990000 0.123211
0.990000 0.990000 0.123211
0.990000 0.990000 0.123211
0.000000 0.000000 0.228448
0.123211 0.000000 0.228448
0.228448 0.000000 0.228448
0.319803 0.000000 0.228448
0.402708 0.000000 0.228448
0.479552 0.000000 0.228448
0.551673 0.000000 0.228448
0.619922 0.000000 0.228448
0.684891 0.000000 0.228448
0.747009 0.000000 0.228448
0.806604 0.000000 0.228448
0.863934 0.000000 0.228448
0.919208 0.000000 0.228448
0.972597 0.000000 0.228448
0.990000 0.000000 0.228448
0.990000 0.000000 0.228448
0.990000 0.000000 0.228448
0.000000 0.123211 0.228448
0.123211 0.123211 0.228448
0.228448 0.123211 0.228448
0.319803 0.123211 0.228448
0.402708 0.123211 0.228448
0.479552 0.123211 0.228448
0.551673 0.123211 0.228448
0.619922 0.123211 0.228448
0.684891 0.123211 0.228448
0.747009 0.123211 0.228448
0.806604 0.123211 0.228448
0.863934 0.123211 0.228448
0.919208 0.123211 0.228448
0.972597 0.123211 0.228448
0.990000 0.123211 0.228448
0.990000 0.123211 0.228448
0.990000 0.123211 0.228448
0.000000 0.228448 0.228448
0.123211 0.228448 0.228448
0.228448 0.228448 0.228448
0.319803 0.228448 0.228448
0.402708 0.228448 0.228448
0.479552 0.228448 0.228448
0.551673 0.228448 0.228448
0.619922 0.228448 0.228448
0.684891 0.228448 0.228448
0.747009 0.228448 0.228448
0.806604 0.228448 0.228448
0.863934 0.228448 0.228448
0.919208 0.228448 0.228448
0.972597 0.228448 0.228448
0.990000 0.228448 0.228448
0.990000 0.228448 0.228448
0.990000 0.228448 0.228448
0.000000 0.319803 0.228448
0.123211 0.319803 0.228448
0.228448 0.319803 0.228448
0.319803 0.319803 0.228448
0.402708 0.319803 0.228448
0.479552 0.319803 0.228448
0.551673 0.319803 0.228448
0.619922 0.319803 0.228448
0.684891 0.319803 0.228448
0.747009 0.319803 0.228448
0.806604 0.319803 0.228448
0.863934 0.319803 0.228448
0.919208 0.319803 0.228448
0.972597 0.319803 0.228448
0.990000 0.319803 0.228448
0.990000 0.319803 0.228448
0.990000 0.319803 0.228448
0.000000 0.402708 0.228448
0.123211 0.402708 0.228448
0.228448 0.402708 0.228448
0.319803 0.402708 0.228448
0.402708 0.402708 0.228448
0.479552 0.402708 0.228448
0.551673 0.402708 0.228448
0.619922 0.402708 0.228448
0.684891 0.402708 0.228448
0.747009 0.402708 0.228448
0.806604 0.402708 0.228448
0.863934 0.402708 0.228448
0.919208 0.402708 0.228448
0.972597 0.402708 0.228448
0.990000 0.402708 0.228448
0.990000 0.402708 0.228448
0.990000 0.402708 0.228448
0.000000 0.479552 0.228448
0.123211 0.479552 0.228448
0.228448 0.479552 0.228448
0.319803 0.479552 0.228448
0.402708 0.479552 0.228448
0.479552 0.479552 0.228448
0.551673 0.479552 0.228448
0.619922 0.479552 0.228448
0.684891 0.479552 0.228448
0.747009 0.479552 0.228448
0.806604 0.479552 0.228448
0.863934 0.479552 0.228448
0.919208 0.479552 0.228448
0.972597 0.479552 0.228448
0.990000 0.479552 0.228448
0.990000 0.479552 0.228448
0.990000 0.479552 0.228448
0.000000 0.551673 0.228448
0.123211 0.551673 0.228448
0.228448 0.551673 0.228448
0.319803 0.551673 0.228448
0.402708 0.551673 0.228448
0.479552 0.551673 0.228448
0.551673 0.551673 0.228448
0.619922 0.551673 0.228448
0.684891 0.551673 0.228448
0.747009 0.551673 0.228448
0.806604 0.551673 0.228448
0.863934 0.551673 0.228448
0.919208 0.551673 0.228448
0.972597 0.551673 0.228448
0.990000 0.551673 0.228448
0.990000 0.551673 0.228448
0.990000 0.551673 0.228448
0.000000 0.619922 0.228448
0.123211 0.619922 0.228448
0.228448 0.619922 0.228448
0.319803 0.619922 0.228448
0.402708 0.619922 0.228448
0.479552 0.619922 0.228448
0.551673 0.619922 0.228448
0.619922 0.619922 0.228448
0.684891 0.619922 0.228448
0.747009 0.619922 0.228448
0.806604 0.619922 0.228448
0.863934 0.619922 0.228448
0.919208 0.619922 0.228448
0.972597 0.619922 0.228448
0.990000 0.619922 0.228448
0.990000 0.619922 0.228448
0.990000 0.619922 0.228448
0.000000 0.684891 0.228448
0.123211 0.684891 0.228448
0.228448 0.684891 0.228448
0.319803 0.684891 0.228448
0.402708 0.684891 0.228448
0.479552 0.684891 0.228448
0.551673 0.684891 0.228448
0.619922 0.684891 0.228448
0.684891 0.684891 0.228448
0.747009 0.684891 0.228448
0.806604 0.684891 0.228448
0.863934 0.684891 0.228448
0.919208 0.684891 0.228448
0.972597 0.684891 0.228448
0.990000 0.684891 0.228448
0.990000 0.684891 0.228448
0.990000 0.684891 0.228448
0.000000 0.747009 0.228448
0.123211 0.747009 0.228448
0.228448 0.747009 0.228448
0.319803 0.747009 0.228448
0.402708 0.747009 0.228448
0.479552 0.747009 0.228448
0.551673 0.747009 0.228448
0.619922 0.747009 0.228448
0.684891 0.747009 0.228448
0.747009 0.747009 0.228448
0.806604 0.747009 0.228448
0.863934 0.747009 0.228448
0.919208 0.747009 0.228448
0.972597 0.747009 0.228448
0.990000 0.747009 0.228448
0.990000 0.747009 0.228448
0.990000 0.747009 0.228448
0.000000 0.806604 0.228448
0.123211 0.806604 0.228448
0.228448 0.806604 0.228448
0.319803 0.806604 0.228448
0.402708 0.806604 0.228448
0.479552 0.806604 0.228448
0.551673 0.806604 0.228448
0.619922 0.806604 0.228448
0.684891 0.806604 0.228448
0.747009 0.806604 0.228448
0.806604 0.806604 0.228448
0.863934 0.806604 0.228448
0.919208 0.806604 0.228448
0.972597 0.806604 0.228448
0.990000 0.806604 0.228448
0.990000 0.806604 0.228448
0.990000 0.806604 0.228448
0.000000 0.863934 0.228448
0.123211 0.863934 0.228448
0.228448 0.863934 0.228448
0.319803 0.863934 0.228448
0.402708 0.863934 0.228448
0.479552 0.863934 0.228448
0.551673 0.863934 0.228448
0.619922 0.863934 0.228448
0.684891 0.863934 0.228448
0.747009 0.863934 0.228448
0.806604 0.863934 0.228448
0.863934 0.863934 0.228448
0.919208 0.863934 0.228448
0.972597 0.863934 0.228448
0.990000 0.863934 0.228448
0.990000 0.863934 0.228448
0.990000 0.863934 0.228448
0.000000 0.919208 0.228448
0.123211 0.919208 0.228448
0.228448 0.919208 0.228448
0.319803 0.919208 0.228448
0.402708 0.919208 0.228448
0.479552 0.919208 0.228448
0.551673 0.919208 0.228448
0.619922 0.919208 0.228448
0.684891 0.919208 0.228448
0.747009 0.919208 0.228448
0.806604 0.919208 0.228448
0.863934 0.919208 0.228448
0.919208 0.919208 0.228448
0.972597 0.919208 0.228448
0.990000 0.919208 0.228448
0.990000 0.919208 0.228448
0.990000 0.919208 0.228448
0.000000 0.972597 0.228448
0.123211 0.972597 0.228448
0.228448 0.972597 0.228448
0.319803 0.972597 0.228448
0.402708 0.972597 0.228448
0.479552 0.972597 0.228448
0.551673 0.972597 0.228448
0.619922 0.972597 0.228448
0.684891 0.972597 0.228448
0.747009 0.972597 0.228448
0.806604 0.972597 0.228448
0.863934 0.972597 0.228448
0.919208 0.972597 0.228448
0.972597 0.972597 0.228448
0.990000 0.972597 0.228448
0.990000 0.972597 0.228448
0.990000 0.972597 0.228448
0.000000 0.990000 0.228448
0.123211 0.990000 0.228448
0.228448 0.990000 0.228448
0.319803 0.990000 0.228448
0.402708 0.990000 0.228448
0.479552 0.990000 0.228448
0.551673 0.990000 0.228448
0.619922 0.990000 0.228448
0.684891 0.990000 0.228448
0.747009 0.990000 0.228448
0.806604 0.990000 0.228448
0.863934 0.990000 0.228448
0.919208 0.990000 0.228448
0.972597 0.990000 0.228448
0.990000 0.990000 0.228448
0.990000 0.990000 0.228448
0.990000 0.990000 0.228448
0.000000 0.990000 0.228448
0.123211 0.990000 0.228448
0.228448 0.990000 0.228448
0.319803 0.990000 0.228448
0.402708 0.990000 0.228448
0.479552 0.990000 0.228448
0.551673 0.990000 0.228448
0.619922 0.990000 0.228448
0.684891 0.990000 0.228448
0.747009 0.990000 0.228448
0.806604 0.990000 0.228448
0.863934 0.990000 0.228448
0.919208 0.990000 0.228448
0.972597 0.990000 0.228448
0.990000 0.990000 0.228448
0.990000 0.990000 0.228448
0.990000 0.990000 0.228448
0.000000 0.990000 0.228448
0.123211 0.990000 0.228448
0.228448 0.990000 0.228448
0.319803 0.990000 0.228448
0.402708 0.990000 0.228448
0.479552 0.990000 0.228448
0.551673 0.990000 0.228448
0.619922 0.990000 0.228448
0.684891 0.990000 0.228448
0.747009 0.990000 0.228448
0.806604 0.990000 0.228448
0.863934 0.990000 0.228448
0.919208 0.990000 0.228448
0.972597 0.990000 0.228448
0.990000 0.990000 0.228448
0.990000 0.990000 0.228448
0.990000 0.990000 0.228448
0.000000 0.000000 0.319803
0.123211 0.000000 0.319803
0.228448 0.000000 0.319803
0.319803 0.000000 0.319803
0.402708 0.000000 0.319803
0.479552 0.000000 0.319803
0.551673 0.000000 0.319803
0.619922 0.000000 0.319803
0.684891 0.000000 0.319803
0.747009 0.000000 0.319803
0.806604 0.000000 0.319803
0.863934 0.000000 0.319803
0.919208 0.000000 0.319803
0.972597 0.000000 0.319803
0.990000 0.000000 0.319803
0.990000 0.000000 0.319803
0.990000 0.000000 0.319803
0.000000 0.123211 0.319803
